
( Post script version:  V0.1.0 )
( ================================================ )
( File:   WaterNeclace_V1.3_Base__Wood )
( Author: Ziga Miklosic )
( Date:   Tuesday, February 08, 2022 )
( Time:   09:56:39 )
( Brief:  Jewellery Project - Water Necklace. Material: WOOD )
( ================================================ )

( ================================================ )
(        List of needed tools                      )
( ================================================ )
(T6  D=2. CR=0. - ZMIN=-4.1 - FLAT END MILL)

( ================================================ )
(            Save Starup Line                      )
( ================================================ )
(    G90  - ABSOLUTE POSITION )
(    G94  - FEEDRATE PER MINUTE )
(    91.1 - INCREMENTAL ARC POSITION )
(    G40  - TOOL RADIUS COMPENSATION OFF )
(    G49  - TOOL HEIGHT COMPENSATION OFF )
(    G17  - XY WORKPLANE )
(    G21  - USING MILIMITERS )
G90 G94 G91.1 G40 G49 G17 G21

( ================================================ )
(       CAM Features Start Code                    )
( ================================================ )

(DRILL2)
M5
T6 M6
S12000 M3
G54
G0 X0. Y64.214
Z15.1
Z5.1
G98 G83 X0. Y64.214 Z-4.1 R5.1 Q1. F200.
G80
Z15.1
(WHEN USING FUSION 360 FOR PERSONAL USE, THE FEEDRATE OF)
(RAPID MOVES IS REDUCED TO MATCH THE FEEDRATE OF CUTTING)
(MOVES, WHICH CAN INCREASE MACHINING TIME. UNRESTRICTED RAPID)
(MOVES ARE AVAILABLE WITH A FUSION 360 SUBSCRIPTION.)

(2D ADAPTIVE2)
G0 X0.923 Y20.452
G1 Z15. F400.
Z5.
Z2.5
G3 X-0.971 Y20.302 Z2.396 I-0.947 J-0.075 F333.
X0.923 Y20.452 Z2.292 I0.947 J0.075
X-0.971 Y20.302 Z2.187 I-0.947 J-0.075
X0.923 Y20.452 Z2.083 I0.947 J0.075
X-0.971 Y20.302 Z1.979 I-0.947 J-0.075
X0.923 Y20.452 Z1.875 I0.947 J0.075
X-0.971 Y20.302 Z1.77 I-0.947 J-0.075
X0.923 Y20.452 Z1.666 I0.947 J0.075
X-0.971 Y20.302 Z1.562 I-0.947 J-0.075
X0.923 Y20.452 Z1.458 I0.947 J0.075
X-0.971 Y20.302 Z1.354 I-0.947 J-0.075
X0.923 Y20.452 Z1.249 I0.947 J0.075
X-0.971 Y20.302 Z1.145 I-0.947 J-0.075
X0.923 Y20.452 Z1.041 I0.947 J0.075
X-0.971 Y20.302 Z0.937 I-0.947 J-0.075
X0.923 Y20.452 Z0.832 I0.947 J0.075
X-0.971 Y20.302 Z0.728 I-0.947 J-0.075
X0.923 Y20.452 Z0.624 I0.947 J0.075
X-0.971 Y20.302 Z0.52 I-0.947 J-0.075
X0.923 Y20.452 Z0.416 I0.947 J0.075
X-0.971 Y20.302 Z0.311 I-0.947 J-0.075
X0.923 Y20.452 Z0.207 I0.947 J0.075
X-0.971 Y20.302 Z0.103 I-0.947 J-0.075
X0.923 Y20.452 Z-0.001 I0.947 J0.075
X-0.971 Y20.302 Z-0.106 I-0.947 J-0.075
X0.923 Y20.452 Z-0.21 I0.947 J0.075
X-0.971 Y20.302 Z-0.314 I-0.947 J-0.075
X0.923 Y20.452 Z-0.418 I0.947 J0.075
X-0.971 Y20.302 Z-0.522 I-0.947 J-0.075
X0.923 Y20.452 Z-0.627 I0.947 J0.075
X-0.971 Y20.302 Z-0.731 I-0.947 J-0.075
X0.923 Y20.452 Z-0.835 I0.947 J0.075
X-0.971 Y20.302 Z-0.939 I-0.947 J-0.075
X0.923 Y20.452 Z-1.044 I0.947 J0.075
X-0.971 Y20.302 Z-1.148 I-0.947 J-0.075
X0.923 Y20.452 Z-1.252 I0.947 J0.075
X-0.971 Y20.302 Z-1.356 I-0.947 J-0.075
X0.923 Y20.452 Z-1.46 I0.947 J0.075
X-0.971 Y20.302 Z-1.565 I-0.947 J-0.075
X0.923 Y20.452 Z-1.669 I0.947 J0.075
X-0.971 Y20.302 Z-1.773 I-0.947 J-0.075
X0.923 Y20.452 Z-1.877 I0.947 J0.075
X-0.971 Y20.302 Z-1.982 I-0.947 J-0.075
X0.923 Y20.452 Z-2.086 I0.947 J0.075
X-0.971 Y20.302 Z-2.19 I-0.947 J-0.075
X0.923 Y20.452 Z-2.294 I0.947 J0.075
X-0.971 Y20.302 Z-2.398 I-0.947 J-0.075
X0.926 Y20.377 Z-2.5 I0.947 J0.075
X-0.974 I-0.95 J0.
X0.926 I0.95 J0.
G1 X0.947 Y20.793 F400.
Y20.943
X0.903 Y21.087
X0.829 Y21.217
X0.733 Y21.333
X0.62 Y21.431
X0.494 Y21.512
X0.357 Y21.574
X0.214 Y21.617
X0.066 Y21.642
X-0.084 Y21.647
X-0.234 Y21.634
X-0.381 Y21.603
X-0.522 Y21.555
X-0.657 Y21.489
X-0.784 Y21.408
X-0.9 Y21.313
X-1.003 Y21.205
X-1.094 Y21.085
X-1.169 Y20.956
X-1.229 Y20.818
X-1.273 Y20.675
X-1.299 Y20.527
X-1.308 Y20.377
X-1.299 Y20.227
X-1.273 Y20.08
X-1.23 Y19.936
X-1.171 Y19.798
X-1.095 Y19.669
X-1.006 Y19.549
X-0.902 Y19.44
X-0.787 Y19.344
X-0.661 Y19.262
X-0.527 Y19.195
X-0.386 Y19.144
X-0.24 Y19.111
X-0.091 Y19.094
X0.059 Y19.095
X0.208 Y19.113
X0.354 Y19.149
X0.494 Y19.202
X0.628 Y19.27
X0.752 Y19.354
X0.866 Y19.451
X0.968 Y19.561
X1.057 Y19.682
X1.13 Y19.813
X1.189 Y19.951
X1.237 Y20.093
X1.276 Y20.238
X1.308 Y20.385
X1.328 Y20.533
X1.333 Y20.683
X1.323 Y20.833
X1.296 Y20.98
X1.251 Y21.124
X1.19 Y21.261
X1.113 Y21.39
X1.023 Y21.509
X0.919 Y21.617
X0.803 Y21.713
X0.678 Y21.795
X0.545 Y21.865
X0.405 Y21.92
X0.261 Y21.96
X0.113 Y21.985
X-0.037 Y21.996
X-0.187 Y21.992
X-0.336 Y21.974
X-0.482 Y21.941
X-0.624 Y21.894
X-0.762 Y21.835
X-0.894 Y21.762
X-1.018 Y21.678
X-1.133 Y21.582
X-1.239 Y21.476
X-1.336 Y21.361
X-1.421 Y21.238
X-1.494 Y21.107
X-1.555 Y20.97
X-1.603 Y20.828
X-1.638 Y20.682
X-1.659 Y20.533
X-1.667 Y20.384
X-1.66 Y20.234
X-1.641 Y20.085
X-1.608 Y19.939
X-1.561 Y19.796
X-1.502 Y19.658
X-1.43 Y19.527
X-1.347 Y19.402
X-1.253 Y19.285
X-1.148 Y19.178
X-1.034 Y19.08
X-0.912 Y18.994
X-0.782 Y18.918
X-0.646 Y18.855
X-0.504 Y18.805
X-0.359 Y18.768
X-0.211 Y18.744
X-0.061 Y18.733
X0.089 Y18.737
X0.238 Y18.754
X0.384 Y18.785
X0.528 Y18.828
X0.667 Y18.885
X0.8 Y18.955
X0.926 Y19.036
X1.044 Y19.128
X1.154 Y19.23
X1.254 Y19.342
X1.343 Y19.463
X1.423 Y19.589
X1.494 Y19.722
X1.556 Y19.858
X1.608 Y19.999
X1.651 Y20.143
X1.682 Y20.289
X1.702 Y20.438
X1.711 Y20.588
X1.708 Y20.738
X1.691 Y20.887
X1.662 Y21.034
X1.62 Y21.178
X1.567 Y21.318
X1.5 Y21.453
X1.422 Y21.581
X1.334 Y21.702
X1.235 Y21.815
X1.127 Y21.919
X1.01 Y22.013
X0.886 Y22.097
X0.755 Y22.17
X0.618 Y22.232
X0.477 Y22.283
X0.332 Y22.322
X0.185 Y22.349
X0.035 Y22.364
X-0.115 Y22.367
X-0.264 Y22.359
X-0.413 Y22.339
X-0.56 Y22.307
X-0.703 Y22.264
X-0.843 Y22.21
X-0.979 Y22.146
X-1.109 Y22.071
X-1.233 Y21.987
X-1.35 Y21.893
X-1.46 Y21.791
X-1.562 Y21.681
X-1.656 Y21.564
X-1.74 Y21.44
X-1.815 Y21.31
X-1.879 Y21.174
X-1.934 Y21.035
X-1.978 Y20.891
X-2.011 Y20.745
X-2.033 Y20.597
X-2.044 Y20.447
Y20.297
X-2.033 Y20.147
X-2.011 Y19.999
X-1.977 Y19.853
X-1.933 Y19.71
X-1.878 Y19.57
X-1.813 Y19.435
X-1.739 Y19.304
X-1.655 Y19.18
X-1.562 Y19.063
X-1.46 Y18.952
X-1.35 Y18.85
X-1.234 Y18.756
X-1.11 Y18.67
X-0.981 Y18.595
X-0.846 Y18.529
X-0.707 Y18.473
X-0.564 Y18.427
X-0.418 Y18.393
X-0.27 Y18.369
X-0.121 Y18.356
X0.029 Y18.355
X0.179 Y18.364
X0.328 Y18.385
X0.474 Y18.416
X0.618 Y18.458
X0.759 Y18.512
X0.895 Y18.575
X1.026 Y18.648
X1.151 Y18.73
X1.27 Y18.821
X1.382 Y18.921
X1.487 Y19.028
X1.584 Y19.143
X1.674 Y19.263
X1.756 Y19.388
X1.83 Y19.519
X1.896 Y19.653
X1.953 Y19.792
X2.001 Y19.934
X2.041 Y20.079
X2.071 Y20.226
X2.091 Y20.375
X2.101 Y20.524
Y20.674
X2.09 Y20.824
X2.07 Y20.972
X2.04 Y21.119
X1.999 Y21.264
X1.947 Y21.405
X1.886 Y21.542
X1.816 Y21.674
X1.737 Y21.801
X1.649 Y21.923
X1.552 Y22.037
X1.447 Y22.145
X1.336 Y22.245
X1.217 Y22.337
X1.093 Y22.421
X0.963 Y22.496
X0.828 Y22.562
X0.689 Y22.618
X0.547 Y22.665
X0.401 Y22.703
X0.254 Y22.731
X0.105 Y22.748
X-0.045 Y22.756
X-0.195 Y22.754
X-0.344 Y22.742
X-0.493 Y22.721
X-0.639 Y22.69
X-0.784 Y22.649
X-0.925 Y22.599
X-1.063 Y22.541
X-1.197 Y22.473
X-1.327 Y22.397
X-1.451 Y22.313
X-1.57 Y22.222
X-1.683 Y22.123
X-1.789 Y22.017
X-1.888 Y21.905
X-1.98 Y21.786
X-2.065 Y21.662
X-2.142 Y21.533
X-2.21 Y21.4
X-2.27 Y21.262
X-2.321 Y21.121
X-2.363 Y20.977
X-2.396 Y20.831
X-2.42 Y20.683
X-2.435 Y20.534
X-2.44 Y20.384
X-2.436 Y20.234
X-2.423 Y20.084
X-2.4 Y19.936
X-2.369 Y19.789
X-2.328 Y19.645
X-2.278 Y19.504
X-2.219 Y19.365
X-2.152 Y19.231
X-2.078 Y19.101
X-1.995 Y18.976
X-1.904 Y18.857
X-1.806 Y18.743
X-1.701 Y18.636
X-1.59 Y18.535
X-1.473 Y18.441
X-1.35 Y18.355
X-1.222 Y18.277
X-1.09 Y18.207
X-0.953 Y18.145
X-0.813 Y18.091
X-0.67 Y18.047
X-0.524 Y18.011
X-0.376 Y17.985
X-0.227 Y17.967
X-0.078 Y17.96
X0.072 Y17.961
X0.222 Y17.971
X0.371 Y17.991
X0.518 Y18.02
X0.663 Y18.058
X0.805 Y18.106
X0.945 Y18.161
X1.08 Y18.226
X1.212 Y18.298
X1.338 Y18.378
X1.46 Y18.466
X1.576 Y18.561
X1.687 Y18.662
X1.792 Y18.771
X1.892 Y18.886
X1.985 Y19.007
X2.071 Y19.131
X2.15 Y19.261
X2.222 Y19.396
X2.287 Y19.536
X2.344 Y19.68
X2.392 Y19.825
X2.432 Y19.972
X2.463 Y20.119
X2.485 Y20.267
X2.499 Y20.417
X2.505 Y20.567
X2.502 Y20.717
X2.49 Y20.866
X2.47 Y21.015
X2.441 Y21.162
X2.404 Y21.307
X2.358 Y21.45
X2.303 Y21.59
X2.241 Y21.726
X2.171 Y21.859
X2.093 Y21.987
X2.007 Y22.11
X1.915 Y22.228
X1.815 Y22.34
X1.709 Y22.447
X1.598 Y22.547
X1.48 Y22.64
X1.357 Y22.726
X1.23 Y22.805
X1.098 Y22.877
X0.962 Y22.94
X0.823 Y22.996
X0.681 Y23.044
X0.536 Y23.084
X0.389 Y23.115
X0.241 Y23.138
X0.09 Y23.153
X-0.062 Y23.159
X-0.216 Y23.156
X-0.368 Y23.145
X-0.517 Y23.126
X-0.665 Y23.098
X-0.813 Y23.062
X-0.961 Y23.017
X-1.106 Y22.963
X-1.249 Y22.901
X-1.389 Y22.831
X-1.523 Y22.753
X-1.653 Y22.668
X-1.777 Y22.577
X-1.896 Y22.478
X-2.011 Y22.371
X-2.12 Y22.258
X-2.222 Y22.139
X-2.318 Y22.014
X-2.407 Y21.883
X-2.489 Y21.747
X-2.562 Y21.607
X-2.627 Y21.465
X-2.684 Y21.319
X-2.733 Y21.17
X-2.773 Y21.018
X-2.805 Y20.863
X-2.828 Y20.705
X-2.843 Y20.546
X-2.848 Y20.386
X-2.844 Y20.227
X-2.832 Y20.069
X-2.811 Y19.913
X-2.781 Y19.759
X-2.742 Y19.606
X-2.695 Y19.454
X-2.639 Y19.305
X-2.574 Y19.16
X-2.502 Y19.018
X-2.421 Y18.88
X-2.332 Y18.747
X-2.236 Y18.619
X-2.134 Y18.497
X-2.026 Y18.382
X-1.912 Y18.274
X-1.792 Y18.171
X-1.665 Y18.076
X-1.533 Y17.987
X-1.395 Y17.905
X-1.253 Y17.832
X-1.107 Y17.766
X-0.957 Y17.709
X-0.806 Y17.66
X-0.652 Y17.621
X-0.497 Y17.59
X-0.34 Y17.568
X-0.182 Y17.554
X-0.024 Y17.55
X0.135 Y17.555
X0.295 Y17.568
X0.453 Y17.591
X0.611 Y17.622
X0.767 Y17.663
X0.92 Y17.712
X1.07 Y17.77
X1.216 Y17.835
X1.359 Y17.91
X1.5 Y17.994
X1.638 Y18.087
X1.772 Y18.188
X1.902 Y18.298
X2.026 Y18.416
X2.143 Y18.542
X2.254 Y18.674
X2.358 Y18.814
X2.455 Y18.959
X2.543 Y19.111
X2.623 Y19.267
X2.693 Y19.427
X2.754 Y19.59
X2.806 Y19.755
X2.848 Y19.923
X2.881 Y20.093
X2.904 Y20.264
X2.917 Y20.435
X2.921 Y20.605
X2.915 Y20.774
X2.899 Y20.943
X2.874 Y21.11
X2.84 Y21.275
X2.797 Y21.438
X2.744 Y21.597
X2.683 Y21.753
X2.614 Y21.905
X2.536 Y22.053
X2.449 Y22.196
X2.355 Y22.335
X2.253 Y22.468
X2.143 Y22.595
X2.027 Y22.715
X1.905 Y22.829
X1.775 Y22.936
X1.639 Y23.035
X1.497 Y23.128
X1.35 Y23.213
X1.198 Y23.289
X1.042 Y23.357
X0.882 Y23.416
X0.717 Y23.466
X0.55 Y23.507
X0.379 Y23.539
X0.206 Y23.561
X0.033 Y23.573
X-0.141 Y23.576
X-0.316 Y23.568
X-0.49 Y23.551
X-0.664 Y23.524
X-0.837 Y23.487
X-1.008 Y23.44
X-1.177 Y23.384
X-1.342 Y23.318
X-1.503 Y23.243
X-1.66 Y23.159
X-1.812 Y23.066
X-1.959 Y22.964
X-2.101 Y22.854
X-2.236 Y22.736
X-2.365 Y22.61
X-2.487 Y22.476
X-2.601 Y22.336
X-2.708 Y22.19
X-2.805 Y22.038
X-2.894 Y21.881
X-2.974 Y21.719
X-3.045 Y21.552
X-3.107 Y21.382
X-3.159 Y21.207
X-3.201 Y21.03
X-3.233 Y20.85
X-3.255 Y20.669
X-3.267 Y20.488
X-3.268 Y20.306
X-3.259 Y20.125
X-3.24 Y19.944
X-3.211 Y19.764
X-3.172 Y19.586
X-3.123 Y19.41
X-3.064 Y19.237
X-2.995 Y19.068
X-2.916 Y18.902
X-2.829 Y18.742
X-2.733 Y18.586
X-2.628 Y18.437
X-2.515 Y18.294
X-2.394 Y18.158
X-2.266 Y18.028
X-2.13 Y17.905
X-1.988 Y17.791
X-1.839 Y17.684
X-1.684 Y17.586
X-1.524 Y17.497
X-1.359 Y17.417
X-1.191 Y17.346
X-1.019 Y17.285
X-0.844 Y17.234
X-0.666 Y17.193
X-0.486 Y17.162
X-0.304 Y17.141
X-0.122 Y17.131
X0.062 Y17.13
X0.245 Y17.14
X0.428 Y17.161
X0.609 Y17.191
X0.789 Y17.232
X0.966 Y17.283
X1.14 Y17.344
X1.312 Y17.415
X1.481 Y17.497
X1.647 Y17.588
X1.808 Y17.689
X1.964 Y17.8
X2.114 Y17.92
X2.258 Y18.05
X2.396 Y18.188
X2.526 Y18.334
X2.649 Y18.488
X2.762 Y18.649
X2.867 Y18.816
X2.962 Y18.989
X3.047 Y19.167
X3.122 Y19.35
X3.187 Y19.536
X3.24 Y19.725
X3.283 Y19.917
X3.315 Y20.11
X3.336 Y20.304
X3.346 Y20.498
Y20.692
X3.334 Y20.886
X3.311 Y21.078
X3.278 Y21.268
X3.234 Y21.455
X3.18 Y21.639
X3.115 Y21.82
X3.041 Y21.997
X2.956 Y22.169
X2.862 Y22.337
X2.759 Y22.498
X2.647 Y22.654
X2.527 Y22.803
X2.398 Y22.945
X2.261 Y23.079
X2.116 Y23.207
X1.965 Y23.326
X1.806 Y23.436
X1.641 Y23.537
X1.471 Y23.63
X1.295 Y23.713
X1.114 Y23.786
X0.928 Y23.848
X0.739 Y23.901
X0.547 Y23.943
X0.352 Y23.974
X0.155 Y23.994
X-0.043 Y24.003
X-0.242 Y24.001
X-0.441 Y23.987
X-0.639 Y23.963
X-0.836 Y23.927
X-1.031 Y23.88
X-1.224 Y23.822
X-1.413 Y23.753
X-1.599 Y23.673
X-1.78 Y23.583
X-1.956 Y23.483
X-2.126 Y23.372
X-2.29 Y23.253
X-2.448 Y23.123
X-2.598 Y22.985
X-2.74 Y22.839
X-2.874 Y22.684
X-2.999 Y22.523
X-3.115 Y22.354
X-3.222 Y22.179
X-3.318 Y21.998
X-3.404 Y21.811
X-3.48 Y21.62
X-3.545 Y21.425
X-3.599 Y21.226
X-3.641 Y21.024
X-3.672 Y20.82
X-3.692 Y20.615
X-3.7 Y20.409
X-3.696 Y20.203
X-3.681 Y19.997
X-3.654 Y19.793
X-3.616 Y19.589
X-3.566 Y19.389
X-3.505 Y19.191
X-3.433 Y18.997
X-3.351 Y18.807
X-3.257 Y18.623
X-3.154 Y18.444
X-3.04 Y18.271
X-2.917 Y18.105
X-2.785 Y17.946
X-2.644 Y17.794
X-2.494 Y17.651
X-2.337 Y17.516
X-2.172 Y17.39
X-2.001 Y17.274
X-1.823 Y17.167
X-1.64 Y17.071
X-1.451 Y16.985
X-1.258 Y16.911
X-1.061 Y16.847
X-0.861 Y16.794
X-0.658 Y16.752
X-0.453 Y16.722
X-0.246 Y16.704
X-0.039 Y16.697
X0.169 Y16.702
X0.377 Y16.719
X0.583 Y16.747
X0.788 Y16.787
X0.991 Y16.839
X1.192 Y16.902
X1.389 Y16.977
X1.583 Y17.063
X1.773 Y17.161
X1.958 Y17.269
X2.137 Y17.389
X2.31 Y17.518
X2.476 Y17.658
X2.635 Y17.808
X2.786 Y17.967
X2.928 Y18.135
X3.061 Y18.311
X3.183 Y18.495
X3.296 Y18.685
X3.397 Y18.882
X3.487 Y19.084
X3.566 Y19.291
X3.633 Y19.501
X3.688 Y19.714
X3.73 Y19.93
X3.761 Y20.148
X3.779 Y20.367
X3.784 Y20.585
X3.778 Y20.804
X3.759 Y21.021
X3.728 Y21.237
X3.685 Y21.45
X3.63 Y21.66
X3.563 Y21.866
X3.485 Y22.069
X3.396 Y22.266
X3.296 Y22.458
X3.185 Y22.644
X3.064 Y22.823
X2.933 Y22.996
X2.792 Y23.161
X2.642 Y23.318
X2.484 Y23.466
X2.317 Y23.605
X2.142 Y23.735
X1.96 Y23.855
X1.771 Y23.965
X1.575 Y24.065
X1.374 Y24.153
X1.168 Y24.23
X0.957 Y24.295
X0.743 Y24.349
X0.525 Y24.391
X0.305 Y24.42
X0.083 Y24.437
X-0.14 Y24.441
X-0.364 Y24.433
X-0.587 Y24.412
X-0.809 Y24.379
X-1.029 Y24.333
X-1.247 Y24.274
X-1.462 Y24.203
X-1.672 Y24.121
X-1.878 Y24.026
X-2.079 Y23.92
X-2.273 Y23.802
X-2.461 Y23.673
X-2.642 Y23.534
X-2.815 Y23.385
X-2.979 Y23.226
X-3.135 Y23.057
X-3.28 Y22.881
X-3.416 Y22.696
X-3.541 Y22.503
X-3.655 Y22.304
X-3.758 Y22.098
X-3.849 Y21.886
X-3.929 Y21.67
X-3.996 Y21.449
X-4.05 Y21.225
X-4.092 Y20.998
X-4.121 Y20.769
X-4.137 Y20.539
X-4.14 Y20.308
X-4.13 Y20.077
X-4.107 Y19.847
X-4.071 Y19.618
X-4.022 Y19.392
X-3.961 Y19.169
X-3.887 Y18.949
X-3.801 Y18.734
X-3.703 Y18.525
X-3.593 Y18.321
X-3.472 Y18.123
X-3.34 Y17.933
X-3.197 Y17.75
X-3.044 Y17.576
X-2.882 Y17.41
X-2.711 Y17.254
X-2.531 Y17.108
X-2.343 Y16.972
X-2.147 Y16.847
X-1.946 Y16.733
X-1.738 Y16.63
X-1.524 Y16.54
X-1.306 Y16.462
X-1.083 Y16.396
X-0.858 Y16.342
X-0.629 Y16.302
X-0.398 Y16.274
X-0.166 Y16.259
X0.066 Y16.258
X0.299 Y16.269
X0.531 Y16.294
X0.762 Y16.332
X0.991 Y16.383
X1.217 Y16.446
X1.44 Y16.523
X1.66 Y16.613
X1.875 Y16.715
X2.084 Y16.83
X2.288 Y16.956
X2.485 Y17.095
X2.674 Y17.245
X2.856 Y17.406
X3.029 Y17.577
X3.192 Y17.759
X3.345 Y17.95
X3.487 Y18.149
X3.618 Y18.356
X3.738 Y18.571
X3.845 Y18.792
X3.939 Y19.019
X4.021 Y19.251
X4.089 Y19.486
X4.144 Y19.725
X4.185 Y19.966
X4.212 Y20.209
X4.226 Y20.452
Y20.696
X4.213 Y20.939
X4.185 Y21.18
X4.145 Y21.42
X4.091 Y21.656
X4.023 Y21.889
X3.943 Y22.117
X3.85 Y22.34
X3.745 Y22.558
X3.628 Y22.769
X3.499 Y22.973
X3.358 Y23.17
X3.207 Y23.359
X3.045 Y23.539
X2.874 Y23.71
X2.692 Y23.871
X2.502 Y24.021
X2.303 Y24.161
X2.096 Y24.29
X1.882 Y24.407
X1.662 Y24.513
X1.435 Y24.605
X1.203 Y24.685
X0.966 Y24.752
X0.726 Y24.806
X0.482 Y24.846
X0.236 Y24.872
X-0.011 Y24.884
X-0.26 Y24.883
X-0.508 Y24.867
X-0.756 Y24.838
X-1.002 Y24.794
X-1.245 Y24.737
X-1.486 Y24.666
X-1.722 Y24.581
X-1.953 Y24.483
X-2.18 Y24.372
X-2.399 Y24.248
X-2.612 Y24.112
X-2.817 Y23.964
X-3.014 Y23.804
X-3.201 Y23.633
X-3.379 Y23.452
X-3.546 Y23.261
X-3.703 Y23.061
X-3.848 Y22.852
X-3.982 Y22.635
X-4.103 Y22.41
X-4.211 Y22.179
X-4.306 Y21.942
X-4.388 Y21.7
X-4.456 Y21.453
X-4.51 Y21.203
X-4.549 Y20.951
X-4.575 Y20.696
X-4.586 Y20.44
X-4.583 Y20.184
X-4.565 Y19.928
X-4.533 Y19.674
X-4.487 Y19.421
X-4.427 Y19.172
X-4.352 Y18.926
X-4.264 Y18.685
X-4.162 Y18.45
X-4.048 Y18.22
X-3.92 Y17.997
X-3.78 Y17.782
X-3.628 Y17.574
X-3.465 Y17.376
X-3.291 Y17.187
X-3.106 Y17.008
X-2.912 Y16.84
X-2.708 Y16.683
X-2.496 Y16.538
X-2.277 Y16.405
X-2.05 Y16.284
X-1.816 Y16.177
X-1.577 Y16.082
X-1.333 Y16.002
X-1.084 Y15.935
X-0.832 Y15.882
X-0.578 Y15.844
X-0.321 Y15.82
X-0.063 Y15.81
X0.195 Y15.815
X0.453 Y15.834
X0.71 Y15.868
X0.965 Y15.917
X1.217 Y15.98
X1.467 Y16.057
X1.712 Y16.149
X1.953 Y16.254
X2.188 Y16.374
X2.417 Y16.507
X2.639 Y16.653
X2.853 Y16.812
X3.058 Y16.983
X3.254 Y17.166
X3.44 Y17.36
X3.615 Y17.565
X3.778 Y17.779
X3.929 Y18.003
X4.068 Y18.235
X4.193 Y18.475
X4.305 Y18.722
X4.402 Y18.974
X4.485 Y19.231
X4.554 Y19.492
X4.607 Y19.757
X4.646 Y20.024
X4.669 Y20.292
X4.678 Y20.561
X4.671 Y20.83
X4.649 Y21.097
X4.612 Y21.363
X4.56 Y21.626
X4.494 Y21.885
X4.413 Y22.14
X4.318 Y22.39
X4.209 Y22.634
X4.087 Y22.872
X3.951 Y23.102
X3.803 Y23.324
X3.642 Y23.538
X3.469 Y23.742
X3.285 Y23.936
X3.091 Y24.12
X2.886 Y24.293
X2.671 Y24.454
X2.447 Y24.604
X2.215 Y24.74
X1.975 Y24.863
X1.728 Y24.973
X1.475 Y25.069
X1.217 Y25.151
X0.954 Y25.218
X0.687 Y25.27
X0.417 Y25.307
X0.145 Y25.329
X-0.129 Y25.336
X-0.402 Y25.327
X-0.676 Y25.303
X-0.948 Y25.264
X-1.218 Y25.209
X-1.484 Y25.139
X-1.747 Y25.053
X-2.005 Y24.953
X-2.257 Y24.839
X-2.503 Y24.71
X-2.742 Y24.568
X-2.972 Y24.412
X-3.193 Y24.243
X-3.405 Y24.061
X-3.607 Y23.868
X-3.797 Y23.664
X-3.976 Y23.449
X-4.142 Y23.224
X-4.296 Y22.99
X-4.437 Y22.748
X-4.563 Y22.497
X-4.676 Y22.24
X-4.774 Y21.977
X-4.857 Y21.709
X-4.925 Y21.436
X-4.977 Y21.159
X-5.013 Y20.88
X-5.034 Y20.6
X-5.039 Y20.318
X-5.029 Y20.036
X-5.002 Y19.756
X-4.96 Y19.477
X-4.902 Y19.201
X-4.828 Y18.929
X-4.739 Y18.661
X-4.636 Y18.399
X-4.517 Y18.142
X-4.385 Y17.893
X-4.238 Y17.652
X-4.079 Y17.419
X-3.906 Y17.195
X-3.721 Y16.982
X-3.524 Y16.779
X-3.316 Y16.588
X-3.098 Y16.409
X-2.87 Y16.242
X-2.633 Y16.088
X-2.387 Y15.948
X-2.134 Y15.822
X-1.874 Y15.711
X-1.609 Y15.614
X-1.338 Y15.532
X-1.063 Y15.466
X-0.785 Y15.415
X-0.504 Y15.38
X-0.221 Y15.36
X0.063 Y15.357
X0.347 Y15.37
X0.63 Y15.399
X0.912 Y15.443
X1.192 Y15.504
X1.468 Y15.58
X1.74 Y15.673
X2.008 Y15.78
X2.269 Y15.903
X2.524 Y16.041
X2.772 Y16.193
X3.011 Y16.36
X3.241 Y16.54
X3.462 Y16.734
X3.671 Y16.94
X3.869 Y17.158
X4.055 Y17.387
X4.227 Y17.626
X4.387 Y17.875
X4.531 Y18.133
X4.662 Y18.398
X4.777 Y18.671
X4.876 Y18.949
X4.96 Y19.233
X5.027 Y19.521
X5.078 Y19.811
X5.113 Y20.104
X5.131 Y20.399
X5.133 Y20.693
X5.118 Y20.987
X5.086 Y21.279
X5.038 Y21.569
X4.974 Y21.856
X4.894 Y22.138
X4.798 Y22.415
X4.687 Y22.686
X4.561 Y22.951
X4.42 Y23.208
X4.265 Y23.456
X4.096 Y23.696
X3.913 Y23.926
X3.718 Y24.145
X3.511 Y24.353
X3.292 Y24.549
X3.062 Y24.733
X2.823 Y24.904
X2.573 Y25.061
X2.315 Y25.204
X2.048 Y25.332
X1.775 Y25.446
X1.495 Y25.544
X1.209 Y25.626
X0.919 Y25.692
X0.625 Y25.742
X0.329 Y25.775
X0.03 Y25.791
X-0.269
X-0.569 Y25.774
X-0.867 Y25.74
X-1.164 Y25.689
X-1.457 Y25.621
X-1.747 Y25.537
X-2.032 Y25.436
X-2.311 Y25.32
X-2.584 Y25.187
X-2.849 Y25.04
X-3.105 Y24.877
X-3.353 Y24.7
X-3.59 Y24.51
X-3.816 Y24.306
X-4.031 Y24.089
X-4.233 Y23.861
X-4.422 Y23.621
X-4.598 Y23.371
X-4.759 Y23.111
X-4.906 Y22.842
X-5.037 Y22.565
X-5.153 Y22.281
X-5.252 Y21.991
X-5.335 Y21.695
X-5.402 Y21.396
X-5.451 Y21.093
X-5.483 Y20.787
X-5.498 Y20.48
X-5.496 Y20.172
X-5.476 Y19.865
X-5.439 Y19.56
X-5.385 Y19.257
X-5.314 Y18.957
X-5.226 Y18.662
X-5.122 Y18.372
X-5.001 Y18.089
X-4.865 Y17.812
X-4.713 Y17.544
X-4.546 Y17.285
X-4.366 Y17.035
X-4.171 Y16.796
X-3.963 Y16.569
X-3.742 Y16.353
X-3.51 Y16.15
X-3.267 Y15.96
X-3.013 Y15.785
X-2.75 Y15.624
X-2.478 Y15.478
X-2.199 Y15.347
X-1.912 Y15.233
X-1.62 Y15.135
X-1.322 Y15.053
X-1.02 Y14.988
X-0.714 Y14.941
X-0.406 Y14.91
X-0.096 Y14.897
X0.214 Y14.901
X0.524 Y14.923
X0.832 Y14.963
X1.139 Y15.019
X1.442 Y15.094
X1.742 Y15.185
X2.036 Y15.293
X2.325 Y15.418
X2.607 Y15.559
X2.881 Y15.717
X3.147 Y15.89
X3.403 Y16.078
X3.649 Y16.281
X3.883 Y16.498
X4.105 Y16.728
X4.315 Y16.97
X4.51 Y17.225
X4.691 Y17.49
X4.857 Y17.765
X5.007 Y18.049
X5.142 Y18.341
X5.259 Y18.641
X5.359 Y18.946
X5.442 Y19.257
X5.508 Y19.572
X5.555 Y19.889
X5.585 Y20.209
X5.596 Y20.529
X5.59 Y20.849
X5.565 Y21.169
X5.523 Y21.486
X5.462 Y21.8
X5.384 Y22.11
X5.289 Y22.415
X5.177 Y22.714
X5.049 Y23.006
X4.904 Y23.29
X4.743 Y23.566
X4.567 Y23.832
X4.376 Y24.089
X4.171 Y24.334
X3.953 Y24.567
X3.721 Y24.788
X3.478 Y24.995
X3.222 Y25.189
X2.956 Y25.368
X2.68 Y25.532
X2.395 Y25.681
X2.101 Y25.813
X1.8 Y25.929
X1.493 Y26.028
X1.18 Y26.109
X0.863 Y26.173
X0.542 Y26.219
X0.218 Y26.247
X-0.107 Y26.256
X-0.433 Y26.247
X-0.758 Y26.22
X-1.081 Y26.175
X-1.402 Y26.111
X-1.719 Y26.029
X-2.032 Y25.93
X-2.338 Y25.812
X-2.638 Y25.678
X-2.931 Y25.527
X-3.214 Y25.359
X-3.488 Y25.175
X-3.752 Y24.976
X-4.004 Y24.763
X-4.244 Y24.535
X-4.471 Y24.294
X-4.684 Y24.04
X-4.883 Y23.775
X-5.067 Y23.498
X-5.235 Y23.211
X-5.386 Y22.916
X-5.521 Y22.612
X-5.638 Y22.3
X-5.738 Y21.983
X-5.82 Y21.66
X-5.884 Y21.333
X-5.929 Y21.003
X-5.955 Y20.67
X-5.963 Y20.337
X-5.952 Y20.003
X-5.922 Y19.671
X-5.873 Y19.341
X-5.806 Y19.013
X-5.721 Y18.691
X-5.617 Y18.373
X-5.496 Y18.062
X-5.357 Y17.757
X-5.202 Y17.462
X-5.03 Y17.175
X-4.842 Y16.898
X-4.639 Y16.633
X-4.421 Y16.379
X-4.189 Y16.138
X-3.944 Y15.91
X-3.686 Y15.697
X-3.417 Y15.498
X-3.137 Y15.315
X-2.848 Y15.147
X-2.549 Y14.997
X-2.242 Y14.863
X-1.928 Y14.747
X-1.608 Y14.648
X-1.282 Y14.568
X-0.953 Y14.506
X-0.62 Y14.463
X-0.285 Y14.438
X0.051 Y14.433
X0.388 Y14.446
X0.723 Y14.479
X1.057 Y14.53
X1.388 Y14.6
X1.715 Y14.689
X2.037 Y14.796
X2.354 Y14.922
X2.663 Y15.065
X2.965 Y15.227
X3.258 Y15.405
X3.541 Y15.6
X3.813 Y15.811
X4.073 Y16.037
X4.321 Y16.278
X4.555 Y16.533
X4.774 Y16.801
X4.979 Y17.082
X5.167 Y17.373
X5.339 Y17.676
X5.493 Y17.987
X5.63 Y18.307
X5.749 Y18.633
X5.849 Y18.966
X5.93 Y19.304
X5.992 Y19.646
X6.034 Y19.991
X6.057 Y20.337
X6.061 Y20.683
X6.045 Y21.03
X6.009 Y21.374
X5.954 Y21.716
X5.88 Y22.054
X5.788 Y22.387
X5.676 Y22.714
X5.547 Y23.034
X5.399 Y23.347
X5.235 Y23.65
X5.053 Y23.944
X4.855 Y24.228
X4.642 Y24.499
X4.413 Y24.759
X4.17 Y25.005
X3.914 Y25.238
X3.644 Y25.456
X3.362 Y25.658
X3.069 Y25.845
X2.766 Y26.014
X2.453 Y26.167
X2.132 Y26.302
X1.804 Y26.419
X1.468 Y26.517
X1.128 Y26.597
X0.783 Y26.657
X0.434 Y26.698
X0.084 Y26.719
X-0.268 Y26.72
X-0.62 Y26.701
X-0.97 Y26.663
X-1.318 Y26.605
X-1.663 Y26.527
X-2.004 Y26.43
X-2.338 Y26.314
X-2.666 Y26.179
X-2.987 Y26.025
X-3.298 Y25.854
X-3.6 Y25.665
X-3.891 Y25.459
X-4.17 Y25.237
X-4.436 Y24.999
X-4.689 Y24.746
X-4.927 Y24.48
X-5.15 Y24.2
X-5.357 Y23.908
X-5.548 Y23.605
X-5.721 Y23.291
X-5.876 Y22.968
X-6.013 Y22.636
X-6.131 Y22.297
X-6.23 Y21.951
X-6.309 Y21.601
X-6.369 Y21.246
X-6.408 Y20.889
X-6.427 Y20.53
X-6.426 Y20.17
X-6.405 Y19.81
X-6.364 Y19.453
X-6.302 Y19.098
X-6.221 Y18.747
X-6.12 Y18.401
X-5.999 Y18.061
X-5.86 Y17.729
X-5.702 Y17.405
X-5.526 Y17.09
X-5.332 Y16.786
X-5.122 Y16.493
X-4.896 Y16.212
X-4.654 Y15.945
X-4.397 Y15.691
X-4.127 Y15.452
X-3.843 Y15.229
X-3.547 Y15.022
X-3.24 Y14.832
X-2.923 Y14.66
X-2.597 Y14.506
X-2.262 Y14.37
X-1.92 Y14.254
X-1.572 Y14.156
X-1.219 Y14.079
X-0.862 Y14.021
X-0.502 Y13.984
X-0.14 Y13.967
X0.223 Y13.97
X0.585 Y13.994
X0.947 Y14.038
X1.305 Y14.103
X1.66 Y14.188
X2.011 Y14.293
X2.355 Y14.417
X2.693 Y14.561
X3.023 Y14.725
X3.343 Y14.907
X3.654 Y15.107
X3.953 Y15.325
X4.24 Y15.559
X4.514 Y15.81
X4.774 Y16.077
X5.019 Y16.357
X5.248 Y16.652
X5.46 Y16.959
X5.654 Y17.278
X5.83 Y17.608
X5.988 Y17.947
X6.126 Y18.294
X6.245 Y18.649
X6.343 Y19.01
X6.421 Y19.375
X6.478 Y19.744
X6.514 Y20.116
X6.529 Y20.489
X6.523 Y20.862
X6.496 Y21.233
X6.449 Y21.603
X6.38 Y21.969
X6.292 Y22.33
X6.183 Y22.686
X6.054 Y23.035
X5.906 Y23.376
X5.738 Y23.708
X5.553 Y24.031
X5.349 Y24.342
X5.128 Y24.642
X4.891 Y24.928
X4.638 Y25.201
X4.369 Y25.46
X4.087 Y25.703
X3.791 Y25.93
X3.482 Y26.14
X3.161 Y26.332
X2.83 Y26.507
X2.49 Y26.662
X2.14 Y26.799
X1.783 Y26.916
X1.42 Y27.012
X1.051 Y27.088
X0.679 Y27.143
X0.303 Y27.177
X-0.075 Y27.19
X-0.453 Y27.182
X-0.831 Y27.152
X-1.206 Y27.101
X-1.579 Y27.029
X-1.948 Y26.936
X-2.311 Y26.822
X-2.667 Y26.688
X-3.016 Y26.534
X-3.356 Y26.36
X-3.686 Y26.167
X-4.005 Y25.956
X-4.311 Y25.727
X-4.605 Y25.48
X-4.884 Y25.218
X-5.149 Y24.94
X-5.397 Y24.647
X-5.629 Y24.34
X-5.843 Y24.021
X-6.039 Y23.69
X-6.217 Y23.348
X-6.374 Y22.997
X-6.512 Y22.637
X-6.63 Y22.27
X-6.726 Y21.896
X-6.802 Y21.518
X-6.856 Y21.136
X-6.888 Y20.751
X-6.899 Y20.365
X-6.888 Y19.979
X-6.855 Y19.594
X-6.801 Y19.211
X-6.725 Y18.832
X-6.628 Y18.458
X-6.51 Y18.089
X-6.371 Y17.728
X-6.212 Y17.375
X-6.034 Y17.032
X-5.837 Y16.699
X-5.621 Y16.378
X-5.387 Y16.069
X-5.136 Y15.774
X-4.869 Y15.494
X-4.587 Y15.229
X-4.29 Y14.98
X-3.98 Y14.748
X-3.657 Y14.535
X-3.322 Y14.339
X-2.977 Y14.163
X-2.622 Y14.007
X-2.26 Y13.87
X-1.889 Y13.755
X-1.513 Y13.66
X-1.132 Y13.586
X-0.747 Y13.535
X-0.359 Y13.504
X0.03 Y13.496
X0.419 Y13.51
X0.807 Y13.545
X1.194 Y13.603
X1.577 Y13.682
X1.956 Y13.783
X2.329 Y13.905
X2.695 Y14.048
X3.053 Y14.212
X3.403 Y14.397
X3.742 Y14.601
X4.069 Y14.824
X4.384 Y15.065
X4.685 Y15.325
X4.972 Y15.601
X5.243 Y15.894
X5.497 Y16.201
X5.734 Y16.523
X5.953 Y16.858
X6.152 Y17.205
X6.332 Y17.562
X6.491 Y17.929
X6.629 Y18.305
X6.746 Y18.688
X6.842 Y19.077
X6.915 Y19.47
X6.966 Y19.867
X6.994 Y20.265
X7. Y20.665
X6.984 Y21.064
X6.945 Y21.461
X6.883 Y21.856
X6.8 Y22.246
X6.695 Y22.63
X6.569 Y23.008
X6.421 Y23.378
X6.253 Y23.74
X6.065 Y24.091
X5.857 Y24.431
X5.63 Y24.759
X5.385 Y25.074
X5.123 Y25.374
X4.844 Y25.66
X4.55 Y25.929
X4.24 Y26.182
X3.917 Y26.417
X3.58 Y26.633
X3.232 Y26.831
X2.872 Y27.009
X2.503 Y27.166
X2.125 Y27.302
X1.739 Y27.417
X1.348 Y27.511
X0.951 Y27.582
X0.55 Y27.631
X0.147 Y27.657
X-0.258 Y27.66
X-0.662 Y27.641
X-1.066 Y27.599
X-1.466 Y27.534
X-1.863 Y27.447
X-2.255 Y27.337
X-2.64 Y27.205
X-3.018 Y27.052
X-3.387 Y26.877
X-3.746 Y26.682
X-4.093 Y26.467
X-4.428 Y26.232
X-4.75 Y25.978
X-5.057 Y25.707
X-5.349 Y25.418
X-5.624 Y25.114
X-5.881 Y24.794
X-6.121 Y24.46
X-6.341 Y24.113
X-6.542 Y23.753
X-6.722 Y23.383
X-6.881 Y23.003
X-7.018 Y22.615
X-7.134 Y22.219
X-7.227 Y21.817
X-7.297 Y21.411
X-7.344 Y21.001
X-7.368 Y20.589
X-7.369 Y20.176
X-7.347 Y19.764
X-7.301 Y19.353
X-7.232 Y18.946
X-7.141 Y18.543
X-7.027 Y18.145
X-6.891 Y17.755
X-6.733 Y17.373
X-6.553 Y17.
X-6.353 Y16.638
X-6.133 Y16.288
X-5.893 Y15.951
X-5.635 Y15.628
X-5.359 Y15.319
X-5.066 Y15.027
X-4.757 Y14.752
X-4.433 Y14.494
X-4.095 Y14.255
X-3.744 Y14.036
X-3.382 Y13.836
X-3.008 Y13.657
X-2.625 Y13.5
X-2.233 Y13.364
X-1.835 Y13.251
X-1.43 Y13.16
X-1.021 Y13.092
X-0.608 Y13.047
X-0.193 Y13.025
X0.224 Y13.027
X0.639 Y13.052
X1.054 Y13.101
X1.465 Y13.173
X1.872 Y13.268
X2.274 Y13.386
X2.67 Y13.527
X3.057 Y13.69
X3.435 Y13.875
X3.803 Y14.082
X4.159 Y14.309
X4.503 Y14.556
X4.832 Y14.823
X5.147 Y15.108
X5.445 Y15.411
X5.726 Y15.73
X5.989 Y16.065
X6.233 Y16.415
X6.457 Y16.778
X6.66 Y17.153
X6.841 Y17.539
X7.001 Y17.935
X7.138 Y18.339
X7.253 Y18.751
X7.343 Y19.168
X7.411 Y19.589
X7.454 Y20.013
X7.474 Y20.439
X7.469 Y20.865
X7.44 Y21.29
X7.388 Y21.713
X7.312 Y22.132
X7.212 Y22.545
X7.09 Y22.953
X6.944 Y23.352
X6.777 Y23.743
X6.587 Y24.124
X6.377 Y24.494
X6.146 Y24.851
X5.895 Y25.194
X5.626 Y25.523
X5.338 Y25.837
X5.032 Y26.134
X4.71 Y26.413
X4.373 Y26.674
X4.021 Y26.916
X3.656 Y27.138
X3.279 Y27.339
X2.891 Y27.519
X2.493 Y27.677
X2.086 Y27.812
X1.671 Y27.924
X1.251 Y28.013
X0.826 Y28.078
X0.397 Y28.119
X-0.033 Y28.136
X-0.465 Y28.128
X-0.896 Y28.097
X-1.324 Y28.041
X-1.75 Y27.961
X-2.171 Y27.857
X-2.585 Y27.729
X-2.992 Y27.578
X-3.391 Y27.404
X-3.779 Y27.208
X-4.156 Y26.99
X-4.52 Y26.751
X-4.871 Y26.492
X-5.206 Y26.213
X-5.526 Y25.915
X-5.829 Y25.6
X-6.113 Y25.268
X-6.379 Y24.92
X-6.625 Y24.558
X-6.85 Y24.182
X-7.053 Y23.794
X-7.235 Y23.395
X-7.394 Y22.986
X-7.53 Y22.569
X-7.642 Y22.144
X-7.73 Y21.714
X-7.793 Y21.279
X-7.832 Y20.842
X-7.847 Y20.402
X-7.836 Y19.963
X-7.801 Y19.524
X-7.742 Y19.089
X-7.657 Y18.657
X-7.549 Y18.23
X-7.417 Y17.81
X-7.261 Y17.399
X-7.082 Y16.996
X-6.881 Y16.605
X-6.658 Y16.225
X-6.414 Y15.858
X-6.15 Y15.506
X-5.866 Y15.168
X-5.564 Y14.848
X-5.244 Y14.545
X-4.908 Y14.26
X-4.556 Y13.995
X-4.19 Y13.75
X-3.81 Y13.526
X-3.418 Y13.323
X-3.016 Y13.143
X-2.604 Y12.986
X-2.183 Y12.852
X-1.756 Y12.742
X-1.322 Y12.657
X-0.884 Y12.595
X-0.444 Y12.559
X-0.001 Y12.547
X0.442 Y12.561
X0.884 Y12.599
X1.324 Y12.662
X1.76 Y12.75
X2.191 Y12.863
X2.615 Y12.999
X3.032 Y13.16
X3.44 Y13.344
X3.838 Y13.552
X4.224 Y13.781
X4.596 Y14.033
X4.955 Y14.305
X5.298 Y14.598
X5.625 Y14.91
X5.933 Y15.24
X6.223 Y15.587
X6.494 Y15.95
X6.743 Y16.328
X6.971 Y16.72
X7.177 Y17.124
X7.359 Y17.54
X7.518 Y17.965
X7.653 Y18.398
X7.763 Y18.838
X7.848 Y19.283
X7.908 Y19.733
X7.942 Y20.184
X7.951 Y20.637
X7.935 Y21.09
X7.893 Y21.541
X7.826 Y21.988
X7.733 Y22.431
X7.616 Y22.868
X7.475 Y23.298
X7.309 Y23.719
X7.121 Y24.13
X6.909 Y24.529
X6.675 Y24.916
X6.42 Y25.29
X6.144 Y25.648
X5.848 Y25.991
X5.533 Y26.316
X5.2 Y26.623
X4.851 Y26.912
X4.485 Y27.18
X4.105 Y27.427
X3.711 Y27.653
X3.304 Y27.857
X2.886 Y28.037
X2.459 Y28.194
X2.023 Y28.326
X1.579 Y28.434
X1.13 Y28.517
X0.676 Y28.575
X0.22 Y28.607
X-0.238 Y28.613
X-0.697 Y28.593
X-1.153 Y28.548
X-1.607 Y28.476
X-2.057 Y28.38
X-2.501 Y28.258
X-2.938 Y28.111
X-3.366 Y27.939
X-3.784 Y27.744
X-4.191 Y27.525
X-4.585 Y27.283
X-4.966 Y27.02
X-5.331 Y26.735
X-5.68 Y26.43
X-6.011 Y26.105
X-6.324 Y25.762
X-6.617 Y25.402
X-6.889 Y25.026
X-7.14 Y24.634
X-7.369 Y24.229
X-7.574 Y23.812
X-7.756 Y23.384
X-7.913 Y22.945
X-8.046 Y22.499
X-8.153 Y22.045
X-8.235 Y21.586
X-8.291 Y21.123
X-8.32 Y20.658
X-8.323 Y20.191
X-8.3 Y19.725
X-8.251 Y19.261
X-8.176 Y18.8
X-8.075 Y18.344
X-7.948 Y17.895
X-7.796 Y17.453
X-7.62 Y17.021
X-7.419 Y16.599
X-7.195 Y16.188
X-6.948 Y15.792
X-6.68 Y15.409
X-6.39 Y15.042
X-6.08 Y14.693
X-5.75 Y14.361
X-5.403 Y14.048
X-5.038 Y13.755
X-4.658 Y13.483
X-4.262 Y13.233
X-3.853 Y13.006
X-3.432 Y12.802
X-3. Y12.622
X-2.559 Y12.466
X-2.109 Y12.336
X-1.652 Y12.231
X-1.19 Y12.152
X-0.724 Y12.099
X-0.255 Y12.072
X0.215
X0.685 Y12.098
X1.153 Y12.151
X1.618 Y12.23
X2.078 Y12.335
X2.533 Y12.466
X2.979 Y12.623
X3.417 Y12.805
X3.845 Y13.011
X4.261 Y13.242
X4.664 Y13.496
X5.052 Y13.773
X5.425 Y14.071
X5.78 Y14.391
X6.118 Y14.73
X6.436 Y15.088
X6.734 Y15.464
X7.01 Y15.856
X7.264 Y16.264
X7.495 Y16.685
X7.702 Y17.119
X7.884 Y17.563
X8.04 Y18.018
X8.171 Y18.48
X8.276 Y18.949
X8.354 Y19.423
X8.405 Y19.901
X8.429 Y20.38
X8.427 Y20.86
X8.397 Y21.339
X8.34 Y21.816
X8.257 Y22.288
X8.147 Y22.755
X8.011 Y23.214
X7.849 Y23.665
X7.663 Y24.107
X7.451 Y24.537
X7.216 Y24.955
X6.958 Y25.358
X6.677 Y25.747
X6.375 Y26.119
X6.052 Y26.474
X5.71 Y26.811
X5.349 Y27.127
X4.97 Y27.423
X4.575 Y27.698
X4.165 Y27.949
X3.742 Y28.178
X3.305 Y28.383
X2.858 Y28.562
X2.401 Y28.717
X1.935 Y28.845
X1.462 Y28.948
X0.984 Y29.023
X0.502 Y29.072
X0.017 Y29.093
X-0.468 Y29.087
X-0.953 Y29.054
X-1.435 Y28.993
X-1.914 Y28.905
X-2.388 Y28.791
X-2.854 Y28.649
X-3.313 Y28.482
X-3.761 Y28.289
X-4.199 Y28.07
X-4.624 Y27.828
X-5.034 Y27.561
X-5.43 Y27.272
X-5.809 Y26.96
X-6.169 Y26.628
X-6.511 Y26.275
X-6.833 Y25.904
X-7.133 Y25.515
X-7.411 Y25.109
X-7.666 Y24.688
X-7.897 Y24.254
X-8.103 Y23.806
X-8.284 Y23.348
X-8.438 Y22.88
X-8.566 Y22.404
X-8.668 Y21.921
X-8.741 Y21.434
X-8.788 Y20.942
X-8.806 Y20.449
X-8.797 Y19.956
X-8.76 Y19.463
X-8.695 Y18.974
X-8.603 Y18.488
X-8.484 Y18.009
X-8.338 Y17.537
X-8.165 Y17.074
X-7.967 Y16.621
X-7.743 Y16.18
X-7.495 Y15.752
X-7.223 Y15.339
X-6.928 Y14.942
X-6.612 Y14.562
X-6.274 Y14.2
X-5.917 Y13.858
X-5.541 Y13.537
X-5.147 Y13.237
X-4.737 Y12.96
X-4.312 Y12.706
X-3.873 Y12.477
X-3.422 Y12.273
X-2.961 Y12.094
X-2.489 Y11.941
X-2.01 Y11.816
X-1.524 Y11.717
X-1.032 Y11.646
X-0.538 Y11.602
X-0.041 Y11.587
X0.456 Y11.599
X0.953 Y11.64
X1.446 Y11.708
X1.936 Y11.805
X2.42 Y11.929
X2.897 Y12.08
X3.366 Y12.258
X3.824 Y12.462
X4.27 Y12.692
X4.704 Y12.947
X5.123 Y13.227
X5.526 Y13.53
X5.912 Y13.856
X6.279 Y14.203
X6.626 Y14.571
X6.953 Y14.958
X7.257 Y15.363
X7.539 Y15.785
X7.796 Y16.222
X8.028 Y16.673
X8.234 Y17.136
X8.414 Y17.611
X8.568 Y18.094
X8.693 Y18.586
X8.791 Y19.083
X8.861 Y19.586
X8.902 Y20.092
X8.914 Y20.599
X8.899 Y21.105
X8.854 Y21.61
X8.781 Y22.112
X8.681 Y22.609
X8.552 Y23.099
X8.396 Y23.581
X8.213 Y24.053
X8.004 Y24.514
X7.769 Y24.963
X7.51 Y25.398
X7.226 Y25.818
X6.919 Y26.221
X6.589 Y26.606
X6.239 Y26.973
X5.868 Y27.319
X5.478 Y27.643
X5.071 Y27.946
X4.647 Y28.224
X4.208 Y28.479
X3.756 Y28.709
X3.291 Y28.912
X2.816 Y29.09
X2.332 Y29.241
X1.84 Y29.364
X1.341 Y29.46
X0.839 Y29.527
X0.333 Y29.567
X-0.174 Y29.578
X-0.681 Y29.561
X-1.187 Y29.515
X-1.688 Y29.442
X-2.186 Y29.341
X-2.676 Y29.212
X-3.159 Y29.056
X-3.632 Y28.874
X-4.095 Y28.666
X-4.545 Y28.432
X-4.982 Y28.174
X-5.404 Y27.892
X-5.809 Y27.587
X-6.197 Y27.261
X-6.567 Y26.913
X-6.917 Y26.546
X-7.246 Y26.16
X-7.553 Y25.756
X-7.838 Y25.336
X-8.099 Y24.901
X-8.335 Y24.452
X-8.547 Y23.991
X-8.733 Y23.519
X-8.893 Y23.038
X-9.026 Y22.549
X-9.132 Y22.052
X-9.211 Y21.551
X-9.262 Y21.047
X-9.286 Y20.54
X-9.281 Y20.033
X-9.249 Y19.526
X-9.189 Y19.023
X-9.102 Y18.523
X-8.988 Y18.029
X-8.846 Y17.542
X-8.678 Y17.063
X-8.484 Y16.594
X-8.265 Y16.137
X-8.021 Y15.692
X-7.753 Y15.261
X-7.462 Y14.846
X-7.149 Y14.447
X-6.814 Y14.065
X-6.459 Y13.703
X-6.085 Y13.361
X-5.692 Y13.04
X-5.282 Y12.74
X-4.857 Y12.464
X-4.417 Y12.212
X-3.964 Y11.984
X-3.498 Y11.781
X-3.023 Y11.604
X-2.539 Y11.454
X-2.047 Y11.33
X-1.549 Y11.232
X-1.046 Y11.163
X-0.541 Y11.12
X-0.034 Y11.106
X0.473 Y11.118
X0.979 Y11.159
X1.482 Y11.227
X1.98 Y11.322
X2.472 Y11.444
X2.957 Y11.592
X3.434 Y11.766
X3.9 Y11.966
X4.355 Y12.191
X4.797 Y12.439
X5.225 Y12.712
X5.638 Y13.006
X6.035 Y13.323
X6.414 Y13.66
X6.774 Y14.017
X7.115 Y14.393
X7.434 Y14.787
X7.732 Y15.198
X8.007 Y15.624
X8.259 Y16.064
X8.488 Y16.517
X8.692 Y16.981
X8.87 Y17.456
X9.024 Y17.94
X9.151 Y18.431
X9.252 Y18.928
X9.327 Y19.43
X9.374 Y19.935
X9.395 Y20.441
X9.389 Y20.949
X9.355 Y21.455
X9.295 Y21.959
X9.208 Y22.458
X9.094 Y22.953
X8.954 Y23.44
X8.788 Y23.92
X8.596 Y24.389
X8.379 Y24.848
X8.137 Y25.294
X7.872 Y25.726
X7.585 Y26.144
X7.275 Y26.546
X6.945 Y26.931
X6.594 Y27.298
X6.225 Y27.645
X5.837 Y27.973
X5.433 Y28.279
X5.013 Y28.563
X4.578 Y28.825
X4.13 Y29.063
X3.67 Y29.277
X3.199 Y29.466
X2.719 Y29.63
X2.231 Y29.768
X1.736 Y29.88
X1.236 Y29.966
X0.732 Y30.024
X0.226 Y30.055
X-0.281 Y30.06
X-0.788 Y30.037
X-1.293 Y29.988
X-1.794 Y29.913
X-2.291 Y29.811
X-2.782 Y29.683
X-3.266 Y29.529
X-3.74 Y29.35
X-4.205 Y29.147
X-4.658 Y28.919
X-5.099 Y28.668
X-5.526 Y28.394
X-5.938 Y28.098
X-6.334 Y27.781
X-6.713 Y27.444
X-7.074 Y27.087
X-7.416 Y26.712
X-7.737 Y26.32
X-8.037 Y25.91
X-8.315 Y25.486
X-8.57 Y25.048
X-8.802 Y24.597
X-9.01 Y24.134
X-9.194 Y23.661
X-9.354 Y23.18
X-9.487 Y22.69
X-9.596 Y22.195
X-9.678 Y21.694
X-9.734 Y21.19
X-9.764 Y20.684
X-9.768 Y20.176
X-9.745 Y19.67
X-9.696 Y19.165
X-9.62 Y18.663
X-9.519 Y18.166
X-9.392 Y17.675
X-9.24 Y17.191
X-9.063 Y16.716
X-8.86 Y16.251
X-8.633 Y15.797
X-8.384 Y15.355
X-8.111 Y14.927
X-7.817 Y14.514
X-7.502 Y14.117
X-7.166 Y13.736
X-6.811 Y13.374
X-6.438 Y13.03
X-6.048 Y12.706
X-5.641 Y12.403
X-5.219 Y12.122
X-4.782 Y11.863
X-4.333 Y11.627
X-3.873 Y11.415
X-3.402 Y11.226
X-2.921 Y11.063
X-2.433 Y10.924
X-1.939 Y10.811
X-1.439 Y10.724
X-0.935 Y10.664
X-0.429 Y10.63
X0.078 Y10.622
X0.585 Y10.641
X1.09 Y10.686
X1.593 Y10.756
X2.091 Y10.852
X2.583 Y10.974
X3.069 Y11.121
X3.546 Y11.293
X4.014 Y11.489
X4.471 Y11.708
X4.917 Y11.951
X5.35 Y12.215
X5.768 Y12.502
X6.172 Y12.81
X6.559 Y13.137
X6.929 Y13.484
X7.281 Y13.85
X7.613 Y14.233
X7.925 Y14.633
X8.216 Y15.049
X8.485 Y15.479
X8.732 Y15.922
X8.956 Y16.377
X9.156 Y16.843
X9.333 Y17.318
X9.486 Y17.802
X9.614 Y18.293
X9.717 Y18.79
X9.795 Y19.291
X9.848 Y19.796
X9.874 Y20.302
X9.876 Y20.809
X9.851 Y21.316
X9.801 Y21.821
X9.725 Y22.323
X9.624 Y22.82
X9.498 Y23.311
X9.347 Y23.795
X9.171 Y24.271
X8.97 Y24.737
X8.746 Y25.192
X8.498 Y25.635
X8.229 Y26.064
X7.938 Y26.48
X7.626 Y26.88
X7.294 Y27.264
X6.944 Y27.63
X6.575 Y27.979
X6.189 Y28.308
X5.787 Y28.617
X5.37 Y28.906
X4.939 Y29.173
X4.495 Y29.419
X4.039 Y29.641
X3.572 Y29.84
X3.096 Y30.016
X2.612 Y30.167
X2.121 Y30.294
X1.624 Y30.395
X1.122 Y30.47
X0.617 Y30.52
X0.11 Y30.543
X-0.397 Y30.541
X-0.903 Y30.514
X-1.408 Y30.461
X-1.909 Y30.383
X-2.406 Y30.279
X-2.897 Y30.152
X-3.381 Y29.999
X-3.856 Y29.823
X-4.323 Y29.624
X-4.779 Y29.401
X-5.223 Y29.156
X-5.654 Y28.889
X-6.072 Y28.601
X-6.474 Y28.292
X-6.861 Y27.964
X-7.231 Y27.617
X-7.584 Y27.252
X-7.917 Y26.87
X-8.231 Y26.471
X-8.524 Y26.057
X-8.795 Y25.629
X-9.045 Y25.187
X-9.273 Y24.734
X-9.478 Y24.27
X-9.659 Y23.796
X-9.817 Y23.314
X-9.951 Y22.825
X-10.061 Y22.33
X-10.146 Y21.829
X-10.206 Y21.326
X-10.242 Y20.82
X-10.252 Y20.312
X-10.237 Y19.805
X-10.197 Y19.3
X-10.133 Y18.797
X-10.043 Y18.297
X-9.929 Y17.803
X-9.791 Y17.315
X-9.628 Y16.834
X-9.441 Y16.363
X-9.231 Y15.901
X-8.997 Y15.451
X-8.742 Y15.012
X-8.465 Y14.587
X-8.168 Y14.176
X-7.85 Y13.781
X-7.514 Y13.401
X-7.159 Y13.039
X-6.787 Y12.694
X-6.398 Y12.368
X-5.993 Y12.062
X-5.574 Y11.776
X-5.141 Y11.512
X-4.696 Y11.269
X-4.239 Y11.048
X-3.772 Y10.85
X-3.296 Y10.676
X-2.811 Y10.525
X-2.32 Y10.398
X-1.823 Y10.296
X-1.322 Y10.219
X-0.817 Y10.167
X-0.311 Y10.141
X0.197 Y10.14
X0.703 Y10.164
X1.208 Y10.212
X1.71 Y10.286
X2.208 Y10.384
X2.7 Y10.506
X3.186 Y10.652
X3.664 Y10.821
X4.134 Y11.013
X4.593 Y11.229
X5.041 Y11.466
X5.478 Y11.724
X5.901 Y12.004
X6.311 Y12.304
X6.705 Y12.623
X7.083 Y12.961
X7.445 Y13.316
X7.788 Y13.69
X8.113 Y14.08
X8.417 Y14.485
X8.701 Y14.906
X8.965 Y15.339
X9.206 Y15.785
X9.426 Y16.242
X9.624 Y16.71
X9.799 Y17.186
X9.951 Y17.67
X10.079 Y18.161
X10.184 Y18.657
X10.265 Y19.158
X10.321 Y19.662
X10.353 Y20.168
X10.361 Y20.675
X10.344 Y21.182
X10.303 Y21.688
X10.238 Y22.191
X10.148 Y22.69
X10.034 Y23.185
X9.897 Y23.673
X9.736 Y24.154
X9.55 Y24.626
X9.341 Y25.088
X9.11 Y25.54
X8.857 Y25.979
X8.583 Y26.406
X8.288 Y26.819
X7.974 Y27.218
X7.641 Y27.601
X7.29 Y27.967
X6.922 Y28.316
X6.538 Y28.647
X6.138 Y28.959
X5.723 Y29.251
X5.295 Y29.524
X4.854 Y29.775
X4.402 Y30.005
X3.939 Y30.213
X3.467 Y30.398
X2.987 Y30.561
X2.499 Y30.7
X2.005 Y30.816
X1.506 Y30.907
X1.003 Y30.973
X0.497 Y31.014
X-0.01 Y31.03
X-0.517 Y31.022
X-1.023 Y30.99
X-1.527 Y30.933
X-2.028 Y30.852
X-2.524 Y30.748
X-3.015 Y30.62
X-3.5 Y30.469
X-3.976 Y30.295
X-4.444 Y30.099
X-4.902 Y29.881
X-5.349 Y29.641
X-5.784 Y29.38
X-6.206 Y29.099
X-6.615 Y28.798
X-7.009 Y28.478
X-7.387 Y28.14
X-7.749 Y27.785
X-8.093 Y27.412
X-8.419 Y27.023
X-8.725 Y26.619
X-9.011 Y26.2
X-9.276 Y25.768
X-9.521 Y25.323
X-9.745 Y24.868
X-9.946 Y24.402
X-10.126 Y23.928
X-10.283 Y23.446
X-10.417 Y22.956
X-10.528 Y22.461
X-10.615 Y21.962
X-10.679 Y21.458
X-10.719 Y20.953
X-10.735 Y20.446
X-10.727 Y19.938
X-10.696 Y19.432
X-10.64 Y18.928
X-10.561 Y18.427
X-10.459 Y17.93
X-10.333 Y17.438
X-10.184 Y16.953
X-10.012 Y16.476
X-9.817 Y16.008
X-9.599 Y15.55
X-9.359 Y15.103
X-9.098 Y14.668
X-8.818 Y14.245
X-8.517 Y13.837
X-8.198 Y13.442
X-7.86 Y13.064
X-7.506 Y12.701
X-7.134 Y12.356
X-6.747 Y12.028
X-6.344 Y11.72
X-5.928 Y11.43
X-5.498 Y11.16
X-5.056 Y10.911
X-4.603 Y10.684
X-4.139 Y10.477
X-3.667 Y10.293
X-3.186 Y10.131
X-2.698 Y9.991
X-2.204 Y9.875
X-1.706 Y9.783
X-1.203 Y9.715
X-0.697 Y9.672
X-0.19 Y9.653
X0.317 Y9.658
X0.823 Y9.687
X1.328 Y9.739
X1.829 Y9.815
X2.327 Y9.914
X2.819 Y10.037
X3.305 Y10.182
X3.784 Y10.349
X4.255 Y10.539
X4.716 Y10.75
X5.167 Y10.983
X5.607 Y11.236
X6.034 Y11.509
X6.449 Y11.801
X6.849 Y12.112
X7.235 Y12.442
X7.605 Y12.789
X7.958 Y13.153
X8.294 Y13.533
X8.611 Y13.929
X8.909 Y14.34
X9.187 Y14.764
X9.444 Y15.201
X9.681 Y15.65
X9.898 Y16.109
X10.092 Y16.577
X10.266 Y17.054
X10.417 Y17.538
X10.545 Y18.029
X10.651 Y18.525
X10.734 Y19.025
X10.795 Y19.529
X10.831 Y20.035
X10.845 Y20.542
X10.835 Y21.049
X10.802 Y21.555
X10.746 Y22.06
X10.667 Y22.561
X10.564 Y23.058
X10.439 Y23.549
X10.291 Y24.034
X10.12 Y24.512
X9.926 Y24.981
X9.71 Y25.44
X9.472 Y25.888
X9.214 Y26.324
X8.936 Y26.749
X8.639 Y27.16
X8.322 Y27.556
X7.989 Y27.938
X7.637 Y28.304
X7.27 Y28.654
X6.886 Y28.986
X6.488 Y29.301
X6.076 Y29.596
X5.651 Y29.873
X5.214 Y30.13
X4.765 Y30.366
X4.306 Y30.582
X3.837 Y30.777
X3.36 Y30.949
X2.876 Y31.1
X2.385 Y31.229
X1.889 Y31.334
X1.388 Y31.415
X0.884 Y31.473
X0.378 Y31.506
X-0.129 Y31.516
X-0.636 Y31.502
X-1.142 Y31.466
X-1.646 Y31.406
X-2.147 Y31.323
X-2.643 Y31.218
X-3.134 Y31.09
X-3.618 Y30.94
X-4.096 Y30.768
X-4.565 Y30.575
X-5.024 Y30.36
X-5.474 Y30.125
X-5.912 Y29.87
X-6.339 Y29.596
X-6.753 Y29.302
X-7.153 Y28.99
X-7.538 Y28.66
X-7.908 Y28.313
X-8.262 Y27.95
X-8.599 Y27.57
X-8.917 Y27.175
X-9.216 Y26.766
X-9.496 Y26.343
X-9.756 Y25.907
X-9.997 Y25.46
X-10.216 Y25.003
X-10.415 Y24.536
X-10.593 Y24.061
X-10.749 Y23.578
X-10.883 Y23.089
X-10.995 Y22.594
X-11.084 Y22.095
X-11.151 Y21.592
X-11.196 Y21.087
X-11.217 Y20.58
X-11.216 Y20.073
X-11.192 Y19.566
X-11.145 Y19.061
X-11.076 Y18.558
X-10.984 Y18.059
X-10.87 Y17.565
X-10.734 Y17.077
X-10.575 Y16.595
X-10.394 Y16.121
X-10.191 Y15.656
X-9.966 Y15.201
X-9.721 Y14.757
X-9.455 Y14.325
X-9.171 Y13.905
X-8.868 Y13.498
X-8.547 Y13.105
X-8.209 Y12.727
X-7.854 Y12.365
X-7.483 Y12.018
X-7.097 Y11.689
X-6.696 Y11.378
X-6.282 Y11.085
X-5.855 Y10.811
X-5.417 Y10.556
X-4.967 Y10.322
X-4.507 Y10.107
X-4.038 Y9.914
X-3.561 Y9.742
X-3.076 Y9.591
X-2.586 Y9.463
X-2.09 Y9.356
X-1.589 Y9.274
X-1.085 Y9.215
X-0.579 Y9.179
X-0.072 Y9.166
X0.435 Y9.177
X0.941 Y9.21
X1.445 Y9.266
X1.947 Y9.344
X2.444 Y9.444
X2.936 Y9.567
X3.422 Y9.711
X3.902 Y9.877
X4.374 Y10.063
X4.836 Y10.271
X5.29 Y10.499
X5.732 Y10.746
X6.164 Y11.013
X6.583 Y11.299
X6.989 Y11.603
X7.381 Y11.925
X7.759 Y12.264
X8.121 Y12.619
X8.467 Y12.99
X8.796 Y13.376
X9.106 Y13.778
X9.397 Y14.193
X9.669 Y14.621
X9.922 Y15.061
X10.155 Y15.512
X10.368 Y15.972
X10.56 Y16.442
X10.732 Y16.919
X10.882 Y17.403
X11.011 Y17.894
X11.119 Y18.39
X11.204 Y18.89
X11.268 Y19.393
X11.309 Y19.899
X11.328 Y20.406
X11.325 Y20.913
X11.3 Y21.419
X11.252 Y21.925
X11.182 Y22.427
X11.09 Y22.926
X10.976 Y23.42
X10.841 Y23.909
X10.683 Y24.391
X10.503 Y24.866
X10.302 Y25.331
X10.079 Y25.787
X9.836 Y26.232
X9.573 Y26.666
X9.291 Y27.088
X8.991 Y27.497
X8.674 Y27.892
X8.339 Y28.273
X7.987 Y28.639
X7.62 Y28.99
X7.238 Y29.323
X6.842 Y29.64
X6.432 Y29.939
X6.01 Y30.22
X5.575 Y30.482
X5.13 Y30.725
X4.674 Y30.947
X4.209 Y31.15
X3.736 Y31.333
X3.255 Y31.494
X2.767 Y31.634
X2.274 Y31.752
X1.776 Y31.848
X1.274 Y31.921
X0.769 Y31.97
X0.262 Y31.997
X-0.245 Y32.001
X-0.752 Y31.982
X-1.258 Y31.942
X-1.761 Y31.879
X-2.261 Y31.795
X-2.757 Y31.689
X-3.248 Y31.561
X-3.733 Y31.412
X-4.211 Y31.243
X-4.681 Y31.052
X-5.143 Y30.842
X-5.595 Y30.611
X-6.036 Y30.362
X-6.467 Y30.093
X-6.885 Y29.806
X-7.291 Y29.501
X-7.682 Y29.179
X-8.06 Y28.84
X-8.423 Y28.486
X-8.769 Y28.115
X-9.099 Y27.73
X-9.411 Y27.329
X-9.704 Y26.915
X-9.978 Y26.489
X-10.233 Y26.05
X-10.469 Y25.601
X-10.686 Y25.142
X-10.882 Y24.675
X-11.058 Y24.199
X-11.214 Y23.716
X-11.348 Y23.227
X-11.461 Y22.732
X-11.553 Y22.233
X-11.623 Y21.731
X-11.672 Y21.226
X-11.698 Y20.719
X-11.703 Y20.212
X-11.687 Y19.705
X-11.648 Y19.199
X-11.588 Y18.696
X-11.506 Y18.195
X-11.403 Y17.698
X-11.278 Y17.207
X-11.132 Y16.721
X-10.964 Y16.242
X-10.775 Y15.771
X-10.565 Y15.31
X-10.334 Y14.858
X-10.084 Y14.417
X-9.815 Y13.987
X-9.528 Y13.568
X-9.222 Y13.163
X-8.9 Y12.771
X-8.561 Y12.394
X-8.207 Y12.031
X-7.837 Y11.684
X-7.452 Y11.354
X-7.053 Y11.04
X-6.642 Y10.743
X-6.218 Y10.465
X-5.782 Y10.205
X-5.336 Y9.964
X-4.879 Y9.743
X-4.414 Y9.541
X-3.94 Y9.359
X-3.459 Y9.198
X-2.971 Y9.058
X-2.478 Y8.939
X-1.98 Y8.842
X-1.479 Y8.768
X-0.974 Y8.716
X-0.467 Y8.687
X0.04 Y8.68
X0.547 Y8.695
X1.053 Y8.732
X1.557 Y8.791
X2.058 Y8.871
X2.555 Y8.972
X3.047 Y9.094
X3.534 Y9.237
X4.014 Y9.401
X4.487 Y9.585
X4.951 Y9.789
X5.406 Y10.012
X5.852 Y10.255
X6.287 Y10.516
X6.71 Y10.796
X7.122 Y11.093
X7.52 Y11.407
X7.905 Y11.738
X8.275 Y12.084
X8.63 Y12.447
X8.969 Y12.824
X9.291 Y13.216
X9.594 Y13.622
X9.88 Y14.042
X10.147 Y14.473
X10.396 Y14.915
X10.625 Y15.368
X10.835 Y15.829
X11.026 Y16.3
X11.196 Y16.777
X11.346 Y17.262
X11.476 Y17.752
X11.585 Y18.248
X11.673 Y18.747
X11.74 Y19.25
X11.786 Y19.755
X11.81 Y20.262
X11.813 Y20.769
X11.795 Y21.276
X11.756 Y21.782
X11.695 Y22.286
X11.613 Y22.786
X11.51 Y23.283
X11.386 Y23.775
X11.241 Y24.261
X11.075 Y24.74
X10.887 Y25.212
X10.678 Y25.674
X10.45 Y26.127
X10.202 Y26.57
X9.935 Y27.001
X9.651 Y27.421
X9.349 Y27.829
X9.03 Y28.223
X8.694 Y28.604
X8.343 Y28.97
X7.977 Y29.321
X7.596 Y29.656
X7.202 Y29.975
X6.795 Y30.277
X6.375 Y30.562
X5.943 Y30.829
X5.501 Y31.078
X5.049 Y31.308
X4.587 Y31.518
X4.118 Y31.709
X3.64 Y31.88
X3.156 Y32.031
X2.665 Y32.162
X2.17 Y32.271
X1.67 Y32.358
X1.167 Y32.423
X0.662 Y32.465
X0.155 Y32.486
X-0.352 Y32.485
X-0.859 Y32.463
X-1.365 Y32.419
X-1.868 Y32.355
X-2.368 Y32.269
X-2.864 Y32.162
X-3.355 Y32.035
X-3.84 Y31.888
X-4.319 Y31.72
X-4.791 Y31.533
X-5.254 Y31.326
X-5.708 Y31.101
X-6.153 Y30.856
X-6.587 Y30.593
X-7.009 Y30.313
X-7.42 Y30.015
X-7.818 Y29.701
X-8.203 Y29.37
X-8.573 Y29.023
X-8.929 Y28.662
X-9.269 Y28.285
X-9.592 Y27.894
X-9.897 Y27.489
X-10.185 Y27.071
X-10.454 Y26.641
X-10.706 Y26.201
X-10.938 Y25.75
X-11.152 Y25.29
X-11.347 Y24.821
X-11.521 Y24.345
X-11.677 Y23.862
X-11.812 Y23.373
X-11.926 Y22.879
X-12.02 Y22.38
X-12.094 Y21.879
X-12.147 Y21.374
X-12.179 Y20.868
X-12.19 Y20.361
X-12.18 Y19.853
X-12.149 Y19.347
X-12.097 Y18.842
X-12.025 Y18.34
X-11.932 Y17.842
X-11.819 Y17.347
X-11.685 Y16.858
X-11.53 Y16.375
X-11.354 Y15.899
X-11.158 Y15.431
X-10.942 Y14.972
X-10.706 Y14.523
X-10.452 Y14.084
X-10.179 Y13.656
X-9.89 Y13.24
X-9.583 Y12.836
X-9.26 Y12.445
X-8.921 Y12.067
X-8.566 Y11.704
X-8.197 Y11.356
X-7.814 Y11.024
X-7.418 Y10.707
X-7.009 Y10.407
X-6.587 Y10.125
X-6.155 Y9.86
X-5.712 Y9.613
X-5.259 Y9.384
X-4.797 Y9.174
X-4.327 Y8.984
X-3.849 Y8.813
X-3.365 Y8.662
X-2.875 Y8.531
X-2.38 Y8.421
X-1.88 Y8.332
X-1.377 Y8.266
X-0.872 Y8.221
X-0.365 Y8.197
X0.142 Y8.195
X0.649 Y8.214
X1.155 Y8.254
X1.658 Y8.314
X2.159 Y8.395
X2.656 Y8.497
X3.149 Y8.619
X3.636 Y8.761
X4.117 Y8.922
X4.591 Y9.103
X5.057 Y9.303
X5.514 Y9.522
X5.962 Y9.76
X6.401 Y10.015
X6.828 Y10.288
X7.244 Y10.578
X7.648 Y10.885
X8.04 Y11.208
X8.417 Y11.547
X8.781 Y11.901
X9.129 Y12.269
X9.462 Y12.652
X9.777 Y13.05
X10.076 Y13.46
X10.356 Y13.883
X10.619 Y14.316
X10.864 Y14.761
X11.091 Y15.214
X11.299 Y15.677
X11.488 Y16.148
X11.658 Y16.626
X11.808 Y17.11
X11.939 Y17.6
X12.05 Y18.096
X12.141 Y18.595
X12.211 Y19.097
X12.261 Y19.602
X12.291 Y20.108
X12.3 Y20.615
X12.289 Y21.123
X12.258 Y21.629
X12.206 Y22.133
X12.133 Y22.636
X12.041 Y23.134
X11.928 Y23.629
X11.795 Y24.118
X11.641 Y24.602
X11.467 Y25.078
X11.273 Y25.547
X11.058 Y26.007
X10.825 Y26.457
X10.573 Y26.897
X10.304 Y27.327
X10.017 Y27.746
X9.713 Y28.152
X9.393 Y28.546
X9.058 Y28.926
X8.707 Y29.293
X8.342 Y29.645
X7.963 Y29.982
X7.57 Y30.304
X7.165 Y30.609
X6.748 Y30.898
X6.32 Y31.17
X5.881 Y31.424
X5.432 Y31.661
X4.975 Y31.879
X4.508 Y32.078
X4.034 Y32.259
X3.553 Y32.42
X3.066 Y32.562
X2.574 Y32.684
X2.077 Y32.785
X1.575 Y32.864
X1.071 Y32.922
X0.566 Y32.959
X0.058 Y32.974
X-0.449 Y32.969
X-0.955 Y32.944
X-1.461 Y32.898
X-1.964 Y32.832
X-2.463 Y32.745
X-2.959 Y32.639
X-3.451 Y32.513
X-3.937 Y32.367
X-4.416 Y32.202
X-4.889 Y32.018
X-5.354 Y31.815
X-5.811 Y31.594
X-6.258 Y31.355
X-6.696 Y31.098
X-7.122 Y30.824
X-7.538 Y30.533
X-7.942 Y30.226
X-8.333 Y29.903
X-8.711 Y29.565
X-9.075 Y29.212
X-9.425 Y28.844
X-9.758 Y28.462
X-10.075 Y28.066
X-10.376 Y27.657
X-10.659 Y27.236
X-10.924 Y26.804
X-11.172 Y26.361
X-11.402 Y25.909
X-11.614 Y25.448
X-11.807 Y24.979
X-11.981 Y24.503
X-12.137 Y24.02
X-12.273 Y23.531
X-12.389 Y23.037
X-12.486 Y22.539
X-12.563 Y22.038
X-12.62 Y21.534
X-12.658 Y21.028
X-12.675 Y20.521
X-12.672 Y20.014
X-12.649 Y19.507
X-12.605 Y19.002
X-12.542 Y18.498
X-12.459 Y17.998
X-12.357 Y17.501
X-12.234 Y17.009
X-12.092 Y16.522
X-11.929 Y16.041
X-11.747 Y15.568
X-11.544 Y15.103
X-11.323 Y14.646
X-11.083 Y14.199
X-10.826 Y13.762
X-10.551 Y13.336
X-10.259 Y12.921
X-9.951 Y12.518
X-9.628 Y12.127
X-9.289 Y11.749
X-8.935 Y11.386
X-8.567 Y11.036
X-8.186 Y10.702
X-7.792 Y10.382
X-7.385 Y10.079
X-6.967 Y9.792
X-6.538 Y9.522
X-6.098 Y9.269
X-5.649 Y9.033
X-5.19 Y8.816
X-4.724 Y8.617
X-4.25 Y8.436
X-3.769 Y8.275
X-3.282 Y8.132
X-2.79 Y8.009
X-2.293 Y7.907
X-1.792 Y7.826
X-1.288 Y7.766
X-0.783 Y7.727
X-0.276 Y7.708
X0.232 Y7.71
X0.738 Y7.732
X1.244 Y7.774
X1.747 Y7.836
X2.248 Y7.917
X2.745 Y8.019
X3.238 Y8.14
X3.725 Y8.28
X4.207 Y8.439
X4.682 Y8.616
X5.15 Y8.813
X5.61 Y9.027
X6.061 Y9.259
X6.502 Y9.509
X6.934 Y9.776
X7.355 Y10.059
X7.764 Y10.359
X8.161 Y10.674
X8.546 Y11.004
X8.918 Y11.35
X9.275 Y11.71
X9.618 Y12.084
X9.944 Y12.472
X10.255 Y12.873
X10.548 Y13.287
X10.825 Y13.712
X11.084 Y14.148
X11.326 Y14.594
X11.551 Y15.049
X11.757 Y15.512
X11.946 Y15.983
X12.115 Y16.461
X12.267 Y16.946
X12.399 Y17.435
X12.512 Y17.93
X12.606 Y18.428
X12.68 Y18.93
X12.735 Y19.435
X12.77 Y19.941
X12.786 Y20.448
X12.782 Y20.955
X12.758 Y21.462
X12.715 Y21.967
X12.652 Y22.47
X12.569 Y22.971
X12.467 Y23.468
X12.346 Y23.96
X12.205 Y24.448
X12.044 Y24.929
X11.863 Y25.403
X11.663 Y25.869
X11.443 Y26.326
X11.206 Y26.775
X10.951 Y27.213
X10.679 Y27.641
X10.391 Y28.059
X10.086 Y28.464
X9.766 Y28.858
X9.431 Y29.239
X9.081 Y29.606
X8.717 Y29.96
X8.34 Y30.299
X7.95 Y30.623
X7.548 Y30.932
X7.134 Y31.225
X6.708 Y31.502
X6.273 Y31.762
X5.828 Y32.005
X5.373 Y32.231
X4.911 Y32.439
X4.44 Y32.629
X3.963 Y32.8
X3.479 Y32.953
X2.99 Y33.087
X2.495 Y33.2
X1.997 Y33.294
X1.495 Y33.366
X0.99 Y33.418
X0.484 Y33.45
X-0.023 Y33.462
X-0.531 Y33.454
X-1.037 Y33.426
X-1.542 Y33.378
X-2.045 Y33.311
X-2.545 Y33.225
X-3.041 Y33.119
X-3.533 Y32.995
X-4.019 Y32.851
X-4.5 Y32.689
X-4.974 Y32.509
X-5.441 Y32.31
X-5.9 Y32.094
X-6.35 Y31.86
X-6.791 Y31.609
X-7.222 Y31.342
X-7.642 Y31.058
X-8.052 Y30.758
X-8.449 Y30.443
X-8.834 Y30.113
X-9.206 Y29.768
X-9.565 Y29.409
X-9.908 Y29.036
X-10.237 Y28.649
X-10.549 Y28.249
X-10.844 Y27.837
X-11.123 Y27.413
X-11.386 Y26.979
X-11.631 Y26.535
X-11.859 Y26.082
X-12.07 Y25.62
X-12.262 Y25.151
X-12.437 Y24.675
X-12.593 Y24.192
X-12.73 Y23.704
X-12.849 Y23.211
X-12.949 Y22.713
X-13.03 Y22.212
X-13.092 Y21.709
X-13.134 Y21.203
X-13.158 Y20.697
X-13.162 Y20.189
X-13.146 Y19.682
X-13.112 Y19.176
X-13.058 Y18.672
X-12.985 Y18.17
X-12.892 Y17.671
X-12.781 Y17.176
X-12.651 Y16.686
X-12.501 Y16.201
X-12.332 Y15.723
X-12.143 Y15.252
X-11.936 Y14.789
X-11.71 Y14.335
X-11.467 Y13.889
X-11.207 Y13.454
X-10.931 Y13.029
X-10.638 Y12.614
X-10.329 Y12.212
X-10.006 Y11.821
X-9.668 Y11.443
X-9.315 Y11.078
X-8.949 Y10.727
X-8.57 Y10.39
X-8.178 Y10.067
X-7.775 Y9.76
X-7.359 Y9.469
X-6.933 Y9.193
X-6.497 Y8.934
X-6.052 Y8.692
X-5.597 Y8.467
X-5.134 Y8.259
X-4.664 Y8.069
X-4.186 Y7.898
X-3.703 Y7.744
X-3.214 Y7.609
X-2.72 Y7.494
X-2.221 Y7.399
X-1.72 Y7.324
X-1.215 Y7.27
X-0.709 Y7.235
X-0.202 Y7.22
X0.305 Y7.225
X0.812 Y7.249
X1.317 Y7.292
X1.821 Y7.355
X2.321 Y7.436
X2.819 Y7.537
X3.312 Y7.656
X3.8 Y7.794
X4.282 Y7.95
X4.759 Y8.124
X5.228 Y8.316
X5.69 Y8.525
X6.144 Y8.752
X6.589 Y8.996
X7.025 Y9.256
X7.45 Y9.533
X7.865 Y9.825
X8.268 Y10.133
X8.659 Y10.455
X9.039 Y10.792
X9.405 Y11.143
X9.757 Y11.509
X10.094 Y11.888
X10.415 Y12.28
X10.721 Y12.685
X11.011 Y13.101
X11.284 Y13.529
X11.541 Y13.966
X11.781 Y14.413
X12.004 Y14.869
X12.21 Y15.332
X12.398 Y15.803
X12.568 Y16.281
X12.721 Y16.765
X12.855 Y17.254
X12.971 Y17.748
X13.068 Y18.246
X13.147 Y18.747
X13.207 Y19.251
X13.248 Y19.756
X13.27 Y20.263
X13.273 Y20.771
X13.257 Y21.278
X13.222 Y21.784
X13.169 Y22.288
X13.096 Y22.79
X13.005 Y23.289
X12.895 Y23.784
X12.766 Y24.275
X12.618 Y24.76
X12.45 Y25.239
X12.264 Y25.711
X12.059 Y26.175
X11.836 Y26.63
X11.595 Y27.077
X11.338 Y27.514
X11.065 Y27.942
X10.775 Y28.358
X10.47 Y28.764
X10.15 Y29.157
X9.816 Y29.539
X9.467 Y29.907
X9.105 Y30.263
X8.73 Y30.604
X8.343 Y30.932
X7.943 Y31.244
X7.532 Y31.542
X7.11 Y31.824
X6.679 Y32.09
X6.237 Y32.339
X5.786 Y32.572
X5.327 Y32.789
X4.861 Y32.988
X4.387 Y33.169
X3.907 Y33.332
X3.421 Y33.478
X2.93 Y33.604
X2.434 Y33.711
X1.934 Y33.798
X1.431 Y33.865
X0.926 Y33.913
X0.419 Y33.941
X-0.088 Y33.949
X-0.595 Y33.939
X-1.101 Y33.91
X-1.606 Y33.861
X-2.109 Y33.794
X-2.609 Y33.708
X-3.106 Y33.604
X-3.598 Y33.481
X-4.085 Y33.34
X-4.567 Y33.182
X-5.043 Y33.005
X-5.511 Y32.811
X-5.973 Y32.6
X-6.426 Y32.372
X-6.87 Y32.127
X-7.305 Y31.867
X-7.73 Y31.59
X-8.145 Y31.297
X-8.548 Y30.99
X-8.94 Y30.668
X-9.32 Y30.332
X-9.687 Y29.981
X-10.04 Y29.617
X-10.379 Y29.239
X-10.702 Y28.849
X-11.01 Y28.445
X-11.302 Y28.031
X-11.578 Y27.605
X-11.838 Y27.17
X-12.082 Y26.725
X-12.309 Y26.271
X-12.519 Y25.809
X-12.711 Y25.34
X-12.886 Y24.864
X-13.044 Y24.381
X-13.184 Y23.894
X-13.305 Y23.401
X-13.409 Y22.905
X-13.494 Y22.405
X-13.561 Y21.902
X-13.609 Y21.397
X-13.639 Y20.89
X-13.65 Y20.383
X-13.642 Y19.876
X-13.616 Y19.369
X-13.571 Y18.864
X-13.508 Y18.361
X-13.427 Y17.86
X-13.326 Y17.363
X-13.208 Y16.869
X-13.071 Y16.381
X-12.914 Y15.898
X-12.739 Y15.422
X-12.546 Y14.953
X-12.335 Y14.492
X-12.106 Y14.039
X-11.861 Y13.595
X-11.599 Y13.161
X-11.321 Y12.736
X-11.028 Y12.322
X-10.719 Y11.92
X-10.397 Y11.528
X-10.059 Y11.149
X-9.709 Y10.783
X-9.345 Y10.429
X-8.968 Y10.09
X-8.579 Y9.764
X-8.178 Y9.453
X-7.766 Y9.157
X-7.344 Y8.876
X-6.912 Y8.611
X-6.47 Y8.362
X-6.019 Y8.129
X-5.56 Y7.913
X-5.093 Y7.714
X-4.62 Y7.532
X-4.14 Y7.368
X-3.654 Y7.221
X-3.163 Y7.093
X-2.668 Y6.985
X-2.168 Y6.896
X-1.666 Y6.826
X-1.161 Y6.776
X-0.655 Y6.745
X-0.148 Y6.732
X0.36 Y6.739
X0.866 Y6.764
X1.372 Y6.808
X1.875 Y6.87
X2.376 Y6.951
X2.874 Y7.05
X3.367 Y7.167
X3.856 Y7.302
X4.34 Y7.455
X4.818 Y7.625
X5.289 Y7.812
X5.753 Y8.017
X6.21 Y8.238
X6.658 Y8.476
X7.098 Y8.729
X7.527 Y8.999
X7.947 Y9.283
X8.356 Y9.583
X8.755 Y9.897
X9.141 Y10.226
X9.515 Y10.569
X9.876 Y10.925
X10.223 Y11.295
X10.556 Y11.678
X10.873 Y12.074
X11.175 Y12.481
X11.462 Y12.9
X11.733 Y13.329
X11.988 Y13.767
X12.227 Y14.215
X12.449 Y14.671
X12.655 Y15.134
X12.844 Y15.605
X13.015 Y16.083
X13.17 Y16.566
X13.306 Y17.054
X13.426 Y17.547
X13.527 Y18.044
X13.61 Y18.545
X13.675 Y19.048
X13.722 Y19.553
X13.751 Y20.06
X13.762 Y20.567
X13.754 Y21.074
X13.728 Y21.581
X13.684 Y22.086
X13.621 Y22.589
X13.54 Y23.09
X13.442 Y23.588
X13.325 Y24.081
X13.189 Y24.57
X13.035 Y25.053
X12.862 Y25.53
X12.671 Y26.
X12.462 Y26.463
X12.236 Y26.917
X11.994 Y27.363
X11.735 Y27.799
X11.461 Y28.226
X11.171 Y28.642
X10.867 Y29.048
X10.547 Y29.442
X10.214 Y29.824
X9.867 Y30.195
X9.508 Y30.552
X9.135 Y30.897
X8.75 Y31.227
X8.354 Y31.544
X7.946 Y31.846
X7.528 Y32.133
X7.1 Y32.405
X6.662 Y32.662
X6.216 Y32.902
X5.761 Y33.127
X5.298 Y33.335
X4.828 Y33.526
X4.352 Y33.7
X3.869 Y33.857
X3.381 Y33.995
X2.888 Y34.115
X2.391 Y34.216
X1.891 Y34.298
X1.387 Y34.361
X0.882 Y34.405
X0.375 Y34.43
X-0.132 Y34.437
X-0.639 Y34.425
X-1.146 Y34.395
X-1.651 Y34.347
X-2.153 Y34.28
X-2.654 Y34.196
X-3.151 Y34.093
X-3.643 Y33.973
X-4.132 Y33.836
X-4.615 Y33.681
X-5.092 Y33.509
X-5.563 Y33.32
X-6.026 Y33.114
X-6.482 Y32.892
X-6.93 Y32.654
X-7.369 Y32.4
X-7.799 Y32.13
X-8.219 Y31.845
X-8.629 Y31.546
X-9.027 Y31.232
X-9.415 Y30.905
X-9.79 Y30.563
X-10.152 Y30.208
X-10.5 Y29.839
X-10.834 Y29.458
X-11.154 Y29.064
X-11.459 Y28.658
X-11.748 Y28.242
X-12.022 Y27.815
X-12.281 Y27.378
X-12.523 Y26.933
X-12.75 Y26.479
X-12.96 Y26.017
X-13.153 Y25.548
X-13.33 Y25.072
X-13.489 Y24.591
X-13.632 Y24.104
X-13.757 Y23.612
X-13.864 Y23.116
X-13.954 Y22.617
X-14.026 Y22.115
X-14.08 Y21.611
X-14.117 Y21.105
X-14.135 Y20.598
X-14.136 Y20.09
X-14.118 Y19.583
X-14.083 Y19.077
X-14.03 Y18.573
X-13.959 Y18.071
X-13.87 Y17.571
X-13.763 Y17.075
X-13.638 Y16.584
X-13.495 Y16.097
X-13.333 Y15.616
X-13.153 Y15.142
X-12.956 Y14.674
X-12.742 Y14.214
X-12.511 Y13.763
X-12.264 Y13.32
X-12.002 Y12.886
X-11.723 Y12.461
X-11.43 Y12.047
X-11.123 Y11.644
X-10.801 Y11.252
X-10.466 Y10.871
X-10.117 Y10.503
X-9.755 Y10.147
X-9.381 Y9.804
X-8.996 Y9.475
X-8.598 Y9.159
X-8.19 Y8.858
X-7.771 Y8.572
X-7.343 Y8.3
X-6.905 Y8.044
X-6.458 Y7.804
X-6.003 Y7.579
X-5.541 Y7.371
X-5.071 Y7.179
X-4.595 Y7.004
X-4.113 Y6.846
X-3.625 Y6.706
X-3.133 Y6.584
X-2.636 Y6.481
X-2.136 Y6.397
X-1.633 Y6.331
X-1.128 Y6.284
X-0.621 Y6.255
X-0.114 Y6.244
X0.393 Y6.252
X0.9 Y6.278
X1.405 Y6.321
X1.909 Y6.383
X2.41 Y6.462
X2.908 Y6.559
X3.402 Y6.673
X3.892 Y6.805
X4.377 Y6.954
X4.856 Y7.119
X5.329 Y7.302
X5.796 Y7.501
X6.256 Y7.716
X6.707 Y7.947
X7.15 Y8.193
X7.585 Y8.455
X8.01 Y8.733
X8.425 Y9.024
X8.829 Y9.33
X9.223 Y9.65
X9.605 Y9.984
X9.975 Y10.332
X10.331 Y10.692
X10.674 Y11.066
X11.003 Y11.453
X11.317 Y11.851
X11.617 Y12.26
X11.901 Y12.68
X12.171 Y13.11
X12.425 Y13.549
X12.663 Y13.997
X12.886 Y14.453
X13.092 Y14.916
X13.282 Y15.386
X13.456 Y15.863
X13.612 Y16.346
X13.752 Y16.833
X13.875 Y17.325
X13.981 Y17.821
X14.069 Y18.321
X14.14 Y18.823
X14.193 Y19.328
X14.229 Y19.834
X14.247 Y20.341
X14.248 Y20.848
X14.231 Y21.355
X14.196 Y21.861
X14.144 Y22.366
X14.074 Y22.868
X13.987 Y23.368
X13.882 Y23.864
X13.758 Y24.356
X13.617 Y24.843
X13.457 Y25.325
X13.28 Y25.8
X13.086 Y26.269
X12.875 Y26.73
X12.647 Y27.184
X12.404 Y27.629
X12.144 Y28.065
X11.87 Y28.491
X11.581 Y28.908
X11.277 Y29.314
X10.959 Y29.71
X10.628 Y30.094
X10.283 Y30.466
X9.926 Y30.826
X9.556 Y31.173
X9.175 Y31.508
X8.782 Y31.829
X8.378 Y32.136
X7.964 Y32.429
X7.54 Y32.707
X7.106 Y32.97
X6.664 Y33.219
X6.213 Y33.451
X5.754 Y33.668
X5.288 Y33.869
X4.816 Y34.054
X4.337 Y34.221
X3.853 Y34.372
X3.363 Y34.505
X2.869 Y34.619
X2.371 Y34.716
X1.87 Y34.794
X1.366 Y34.853
X0.86 Y34.895
X0.354 Y34.919
X-0.154 Y34.924
X-0.661 Y34.912
X-1.167 Y34.882
X-1.672 Y34.835
X-2.175 Y34.77
X-2.676 Y34.687
X-3.173 Y34.588
X-3.667 Y34.471
X-4.156 Y34.337
X-4.641 Y34.186
X-5.12 Y34.019
X-5.592 Y33.835
X-6.059 Y33.636
X-6.518 Y33.42
X-6.969 Y33.188
X-7.412 Y32.942
X-7.847 Y32.68
X-8.272 Y32.403
X-8.687 Y32.112
X-9.093 Y31.807
X-9.487 Y31.488
X-9.87 Y31.155
X-10.241 Y30.809
X-10.599 Y30.449
X-10.944 Y30.077
X-11.274 Y29.693
X-11.591 Y29.296
X-11.894 Y28.889
X-12.181 Y28.471
X-12.454 Y28.044
X-12.712 Y27.607
X-12.954 Y27.161
X-13.181 Y26.707
X-13.392 Y26.246
X-13.587 Y25.778
X-13.765 Y25.303
X-13.928 Y24.822
X-14.073 Y24.336
X-14.202 Y23.846
X-14.314 Y23.351
X-14.409 Y22.852
X-14.487 Y22.351
X-14.548 Y21.848
X-14.591 Y21.342
X-14.618 Y20.836
X-14.626 Y20.328
X-14.618 Y19.821
X-14.592 Y19.314
X-14.549 Y18.809
X-14.488 Y18.305
X-14.411 Y17.804
X-14.316 Y17.306
X-14.203 Y16.811
X-14.072 Y16.321
X-13.924 Y15.836
X-13.758 Y15.356
X-13.575 Y14.883
X-13.376 Y14.417
X-13.16 Y13.958
X-12.928 Y13.507
X-12.68 Y13.064
X-12.417 Y12.63
X-12.139 Y12.206
X-11.847 Y11.791
X-11.541 Y11.387
X-11.221 Y10.993
X-10.888 Y10.611
X-10.541 Y10.24
X-10.183 Y9.881
X-9.812 Y9.535
X-9.43 Y9.201
X-9.036 Y8.881
X-8.632 Y8.575
X-8.217 Y8.283
X-7.793 Y8.005
X-7.359 Y7.741
X-6.917 Y7.493
X-6.466 Y7.26
X-6.008 Y7.042
X-5.543 Y6.84
X-5.071 Y6.655
X-4.592 Y6.486
X-4.108 Y6.334
X-3.619 Y6.199
X-3.126 Y6.082
X-2.628 Y5.983
X-2.127 Y5.902
X-1.624 Y5.839
X-1.119 Y5.794
X-0.612 Y5.766
X-0.105 Y5.757
X0.402 Y5.764
X0.909 Y5.789
X1.414 Y5.832
X1.918 Y5.892
X2.42 Y5.969
X2.918 Y6.063
X3.413 Y6.174
X3.904 Y6.301
X4.39 Y6.446
X4.872 Y6.606
X5.347 Y6.783
X5.816 Y6.976
X6.279 Y7.185
X6.734 Y7.409
X7.181 Y7.648
X7.62 Y7.903
X8.05 Y8.172
X8.47 Y8.456
X8.881 Y8.753
X9.282 Y9.064
X9.671 Y9.389
X10.049 Y9.728
X10.415 Y10.079
X10.768 Y10.443
X11.108 Y10.82
X11.434 Y11.209
X11.746 Y11.609
X12.044 Y12.019
X12.327 Y12.44
X12.596 Y12.87
X12.85 Y13.309
X13.089 Y13.757
X13.312 Y14.212
X13.52 Y14.675
X13.712 Y15.145
X13.888 Y15.621
X14.048 Y16.102
X14.191 Y16.589
X14.318 Y17.08
X14.429 Y17.575
X14.523 Y18.073
X14.6 Y18.575
X14.66 Y19.078
X14.703 Y19.584
X14.73 Y20.09
X14.739 Y20.598
X14.731 Y21.105
X14.706 Y21.612
X14.664 Y22.117
X14.605 Y22.621
X14.529 Y23.122
X14.436 Y23.621
X14.325 Y24.116
X14.196 Y24.607
X14.051 Y25.093
X13.888 Y25.573
X13.708 Y26.047
X13.511 Y26.515
X13.299 Y26.976
X13.07 Y27.429
X12.826 Y27.873
X12.567 Y28.309
X12.293 Y28.736
X12.005 Y29.154
X11.702 Y29.561
X11.387 Y29.958
X11.057 Y30.344
X10.716 Y30.719
X10.361 Y31.082
X9.995 Y31.433
X9.617 Y31.772
X9.228 Y32.097
X8.828 Y32.409
X8.418 Y32.708
X7.999 Y32.993
X7.569 Y33.263
X7.131 Y33.519
X6.685 Y33.761
X6.231 Y33.987
X5.77 Y34.197
X5.301 Y34.392
X4.827 Y34.571
X4.346 Y34.733
X3.86 Y34.879
X3.369 Y35.007
X2.874 Y35.117
X2.375 Y35.21
X1.874 Y35.286
X1.37 Y35.343
X0.864 Y35.384
X0.357 Y35.407
X-0.15 Y35.412
X-0.657 Y35.401
X-1.164 Y35.372
X-1.669 Y35.326
X-2.172 Y35.263
X-2.673 Y35.184
X-3.171 Y35.087
X-3.666 Y34.974
X-4.156 Y34.845
X-4.642 Y34.699
X-5.123 Y34.537
X-5.598 Y34.359
X-6.067 Y34.166
X-6.529 Y33.957
X-6.984 Y33.732
X-7.432 Y33.493
X-7.871 Y33.239
X-8.301 Y32.971
X-8.722 Y32.688
X-9.134 Y32.391
X-9.535 Y32.081
X-9.926 Y31.758
X-10.305 Y31.421
X-10.673 Y31.071
X-11.027 Y30.708
X-11.369 Y30.333
X-11.698 Y29.947
X-12.013 Y29.549
X-12.314 Y29.141
X-12.601 Y28.723
X-12.873 Y28.295
X-13.131 Y27.858
X-13.374 Y27.412
X-13.601 Y26.959
X-13.814 Y26.498
X-14.011 Y26.031
X-14.192 Y25.557
X-14.358 Y25.078
X-14.508 Y24.593
X-14.641 Y24.104
X-14.739 Y23.69
X-14.743 Y23.664
X-14.747 Y23.639
X-14.835 Y22.889
X-14.869 Y22.543
X-14.879 Y22.428
X-14.956 Y21.391
X-14.963 Y21.276
X-14.975 Y20.93
X-14.993 Y20.238
X-14.994 Y20.123
X-14.979 Y19.777
X-14.836 Y17.934
X-14.825 Y17.818
X-14.765 Y17.473
X-14.74 Y17.357
X-14.384 Y15.859
X-14.301 Y15.514
X-14.176 Y15.168
X-14.131 Y15.053
X-13.8 Y14.246
X-13.585 Y13.787
X-13.371 Y13.327
X-13.131 Y12.88
X-12.873 Y12.443
X-12.599 Y12.016
X-12.31 Y11.599
X-12.008 Y11.192
X-11.692 Y10.795
X-11.362 Y10.409
X-11.021 Y10.034
X-10.667 Y9.671
X-10.301 Y9.32
X-9.923 Y8.981
X-9.535 Y8.654
X-9.136 Y8.341
X-8.727 Y8.041
X-8.308 Y7.754
X-7.88 Y7.482
X-7.444 Y7.224
X-6.998 Y6.981
X-6.545 Y6.753
X-6.085 Y6.54
X-5.618 Y6.342
X-5.144 Y6.16
X-4.665 Y5.995
X-4.18 Y5.846
X-3.69 Y5.713
X-3.196 Y5.598
X-2.698 Y5.5
X-2.197 Y5.42
X-1.694 Y5.356
X-1.189 Y5.31
X-0.682 Y5.281
X-0.175 Y5.269
X0.332 Y5.274
X0.839 Y5.296
X1.345 Y5.335
X1.849 Y5.39
X2.351 Y5.462
X2.85 Y5.551
X3.347 Y5.656
X3.839 Y5.778
X4.328 Y5.915
X4.811 Y6.068
X5.289 Y6.238
X5.762 Y6.422
X6.228 Y6.623
X6.687 Y6.838
X7.139 Y7.068
X7.584 Y7.313
X8.019 Y7.573
X8.447 Y7.846
X8.864 Y8.134
X9.273 Y8.435
X9.671 Y8.75
X10.058 Y9.077
X10.434 Y9.418
X10.798 Y9.771
X11.15 Y10.137
X11.488 Y10.514
X11.814 Y10.903
X12.127 Y11.303
X12.425 Y11.713
X12.71 Y12.133
X12.98 Y12.562
X13.236 Y13.
X13.315 Y13.145
X13.33 Y13.177
X14.009 Y14.707
X14.117 Y14.982
X14.145 Y15.053
X14.184 Y15.168
X14.693 Y17.068
X14.735 Y17.242
X14.754 Y17.357
X14.964 Y19.316
X14.972 Y19.432
X14.98 Y19.777
X14.884 Y21.736
X14.861 Y22.082
X14.752 Y23.235
X14.738 Y23.35
X14.601 Y24.387
X14.552 Y24.733
X14.45 Y25.229
X14.362 Y25.575
X14.224 Y26.016
X14.046 Y26.491
X13.845 Y26.956
X13.626 Y27.414
X13.391 Y27.864
X13.141 Y28.305
X12.876 Y28.738
X12.597 Y29.161
X12.304 Y29.575
X11.998 Y29.98
X11.678 Y30.374
X11.346 Y30.757
X11.001 Y31.129
X10.645 Y31.49
X10.277 Y31.839
X9.897 Y32.176
X9.507 Y32.5
X9.107 Y32.812
X8.696 Y33.11
X8.277 Y33.395
X7.848 Y33.666
X7.411 Y33.923
X6.965 Y34.165
X6.512 Y34.393
X6.052 Y34.607
X5.585 Y34.805
X5.111 Y34.987
X4.632 Y35.154
X4.148 Y35.304
X3.658 Y35.438
X3.165 Y35.555
X2.667 Y35.655
X2.167 Y35.738
X1.664 Y35.804
X1.159 Y35.853
X0.653 Y35.885
X0.146 Y35.901
X-0.362 Y35.9
X-0.869 Y35.882
X-1.375 Y35.847
X-1.879 Y35.796
X-2.382 Y35.728
X-2.882 Y35.644
X-3.38 Y35.543
X-3.873 Y35.427
X-4.363 Y35.295
X-4.848 Y35.147
X-5.329 Y34.983
X-5.803 Y34.804
X-6.272 Y34.61
X-6.734 Y34.401
X-7.189 Y34.177
X-7.637 Y33.938
X-8.077 Y33.685
X-8.508 Y33.418
X-8.931 Y33.138
X-9.344 Y32.844
X-9.748 Y32.536
X-10.141 Y32.216
X-10.523 Y31.882
X-10.894 Y31.536
X-11.253 Y31.178
X-11.6 Y30.808
X-11.934 Y30.426
X-12.255 Y30.034
X-12.563 Y29.63
X-12.857 Y29.217
X-13.138 Y28.794
X-13.404 Y28.362
X-13.656 Y27.922
X-13.893 Y27.474
X-14.116 Y27.018
X-14.216 Y26.795
X-14.235 Y26.748
X-14.251 Y26.7
X-14.262 Y26.65
X-14.389 Y26.
X-14.41 Y25.885
X-14.469 Y25.539
X-14.65 Y24.387
X-14.699 Y24.041
X-14.747 Y23.639
Z5.
X-13.852 Y15.225
Z-2.1
Z-2.3
X-13.853 Y15.218 Z-2.352
X-13.856 Y15.199 Z-2.4
X-13.861 Y15.167 Z-2.441
X-13.867 Y15.126 Z-2.473
X-13.874 Y15.078 Z-2.493
X-13.881 Y15.027 Z-2.5
G3 X-13.8 Y14.246 I1.565 J-0.232
G1 X-13.541 Y13.613
X-13.516 Y13.555
X-13.362 Y13.209
X-13.31 Y13.115
X-12.389 Y11.594
X-12.176 Y11.25
X-12.158 Y11.225
X-10.722 Y9.521
X-10.66 Y9.458
X-10.472 Y9.291
X-8.931 Y7.954
X-8.816 Y7.88
X-8.355 Y7.591
X-7.02 Y6.756
X-6.972 Y6.728
X-6.626 Y6.572
X-4.897 Y5.834
X-4.783 Y5.79
X-4.667 Y5.759
X-2.823 Y5.292
X-2.708 Y5.264
X-2.362 Y5.206
X-2.247 Y5.192
X-0.403 Y5.022
X-0.173 Y5.02
X-0.058 Y5.019
X0.058 Y5.022
X1.901 Y5.139
X1.942 Y5.142
X2.247 Y5.189
X2.362 Y5.208
X4.206 Y5.619
X4.322 Y5.651
X4.667 Y5.769
X6.165 Y6.358
X6.57 Y6.525
X6.626 Y6.553
X8.47 Y7.634
X8.542 Y7.677
X8.586 Y7.71
X8.701 Y7.8
X10.24 Y9.06
X10.314 Y9.126
X10.482 Y9.291
X11.82 Y10.789
X11.912 Y10.904
X12.043 Y11.088
X13.115 Y12.748
X13.188 Y12.863
X13.195 Y12.875
X13.33 Y13.177
G3 X12.958 Y13.326 I-0.186 J0.075
X12.96 Y13.173 I0.186 J-0.075
G1 X12.98 Y13.125 Z-2.493
X12.999 Y13.081 Z-2.473
X13.015 Y13.043 Z-2.441
X13.028 Y13.014 Z-2.4
X13.036 Y12.995 Z-2.352
X13.038 Y12.989 Z-2.3
Z5.
X14.362 Y23.771
Z-2.1
Z-2.3
X14.365 Y23.777 Z-2.352
X14.373 Y23.796 Z-2.4
X14.385 Y23.825 Z-2.441
X14.401 Y23.863 Z-2.473
X14.419 Y23.908 Z-2.493
X14.439 Y23.955 Z-2.5
G3 X14.552 Y24.733 I-1.461 J0.609
G1 X14.534 Y24.848
X14.348 Y25.956
X14.277 Y26.346
X14.117 Y27.134
X14.062 Y27.351
X13.999 Y27.551
X13.894 Y27.825
X13.751 Y28.147
X13.53 Y28.576
X13.273 Y29.013
X12.997 Y29.438
X12.705 Y29.854
X12.4 Y30.259
X12.081 Y30.653
X11.75 Y31.038
X11.407 Y31.411
X11.052 Y31.774
X10.686 Y32.125
X10.31 Y32.465
X9.922 Y32.793
X9.525 Y33.108
X9.118 Y33.41
X8.701 Y33.7
X8.276 Y33.976
X7.842 Y34.239
X7.4 Y34.488
X6.95 Y34.723
X6.493 Y34.944
X6.03 Y35.15
X5.56 Y35.341
X5.084 Y35.517
X4.603 Y35.678
X4.117 Y35.823
X3.626 Y35.951
X3.131 Y36.063
X2.633 Y36.158
X2.132 Y36.237
X1.629 Y36.3
X1.123 Y36.347
X0.617 Y36.377
X0.11 Y36.39
X-0.397 Y36.388
X-0.904 Y36.369
X-1.41 Y36.334
X-1.915 Y36.283
X-2.418 Y36.217
X-2.918 Y36.134
X-3.416 Y36.035
X-3.91 Y35.921
X-4.401 Y35.792
X-4.887 Y35.647
X-5.368 Y35.487
X-5.845 Y35.313
X-6.315 Y35.123
X-6.78 Y34.919
X-7.237 Y34.7
X-7.688 Y34.467
X-8.131 Y34.22
X-8.567 Y33.96
X-8.994 Y33.686
X-9.412 Y33.399
X-9.821 Y33.099
X-10.22 Y32.786
X-10.609 Y32.461
X-10.987 Y32.123
X-11.355 Y31.772
X-11.71 Y31.41
X-12.053 Y31.037
X-12.384 Y30.652
X-12.702 Y30.257
X-13.007 Y29.852
X-13.299 Y29.437
X-13.578 Y29.013
X-13.793 Y28.663
X-13.827 Y28.6
X-13.854 Y28.534
X-13.874 Y28.466
X-14.018 Y27.844
X-14.096 Y27.498
X-14.262 Y26.65
G3 X-13.867 Y26.587 I0.198 J-0.032
X-13.903 Y26.736 I-0.198 J0.032
G1 X-13.933 Y26.778 Z-2.493
X-13.962 Y26.817 Z-2.473
X-13.986 Y26.851 Z-2.441
X-14.004 Y26.876 Z-2.4
X-14.016 Y26.892 Z-2.352
X-14.02 Y26.898 Z-2.3
Z-2.1
X13.984 Y26.163
Z-2.3
X13.986 Y26.169 Z-2.352
X13.993 Y26.188 Z-2.4
X14.003 Y26.218 Z-2.441
X14.017 Y26.257 Z-2.473
X14.033 Y26.303 Z-2.493
X14.05 Y26.352 Z-2.5
G3 X14.117 Y27.134 I-1.494 J0.522
G1 X13.996 Y27.729
X13.972 Y27.844
X13.771 Y28.694
X13.708 Y28.912
X13.653 Y29.069
X13.578 Y29.251
X13.462 Y29.489
X13.303 Y29.775
X13.07 Y30.144
X12.775 Y30.557
X12.461 Y30.955
X12.132 Y31.342
X11.791 Y31.717
X11.437 Y32.081
X11.073 Y32.434
X10.698 Y32.775
X10.312 Y33.105
X9.917 Y33.423
X9.512 Y33.728
X9.098 Y34.022
X8.675 Y34.302
X8.244 Y34.569
X7.805 Y34.823
X7.359 Y35.064
X6.905 Y35.291
X6.444 Y35.504
X5.978 Y35.702
X5.505 Y35.886
X5.027 Y36.055
X4.543 Y36.209
X4.055 Y36.347
X3.563 Y36.47
X3.067 Y36.576
X2.568 Y36.667
X2.066 Y36.741
X1.562 Y36.8
X1.056 Y36.843
X0.55 Y36.869
X0.043 Y36.881
X-0.465 Y36.876
X-0.971 Y36.856
X-1.477 Y36.82
X-1.982 Y36.768
X-2.485 Y36.701
X-2.986 Y36.619
X-3.483 Y36.521
X-3.978 Y36.408
X-4.469 Y36.281
X-4.956 Y36.138
X-5.438 Y35.981
X-5.915 Y35.809
X-6.387 Y35.623
X-6.853 Y35.422
X-7.313 Y35.208
X-7.766 Y34.98
X-8.212 Y34.738
X-8.65 Y34.483
X-9.081 Y34.214
X-9.503 Y33.933
X-9.916 Y33.639
X-10.32 Y33.332
X-10.715 Y33.013
X-11.099 Y32.682
X-11.473 Y32.339
X-11.836 Y31.985
X-12.187 Y31.619
X-12.526 Y31.242
X-12.853 Y30.854
X-13.168 Y30.456
X-13.416 Y30.121
X-13.462 Y30.051
X-13.498 Y29.976
X-13.525 Y29.897
X-13.611 Y29.573
X-13.656 Y29.399
X-13.874 Y28.466
G3 X-13.481 Y28.389 I0.196 J-0.039
X-13.511 Y28.539 I-0.196 J0.039
G1 X-13.54 Y28.582 Z-2.493
X-13.567 Y28.622 Z-2.473
X-13.59 Y28.656 Z-2.441
X-13.608 Y28.683 Z-2.4
X-13.619 Y28.699 Z-2.352
X-13.623 Y28.705 Z-2.3
Z-2.1
X13.68 Y27.915
Z-2.3
X13.682 Y27.922 Z-2.352
X13.688 Y27.941 Z-2.4
X13.697 Y27.971 Z-2.441
X13.71 Y28.011 Z-2.473
X13.724 Y28.057 Z-2.493
X13.74 Y28.106 Z-2.5
G3 X13.771 Y28.694 I-1.132 J0.356
G1 X13.591 Y29.457
X13.501 Y29.803
X13.44 Y30.034
X13.379 Y30.223
X13.325 Y30.363
X13.25 Y30.525
X13.151 Y30.712
X13.007 Y30.95
X12.811 Y31.236
X12.523 Y31.61
X12.191 Y31.994
X11.842 Y32.363
X11.481 Y32.719
X11.109 Y33.063
X10.726 Y33.396
X10.334 Y33.718
X9.932 Y34.027
X9.521 Y34.324
X9.101 Y34.609
X8.673 Y34.882
X8.237 Y35.142
X7.794 Y35.388
X7.344 Y35.622
X6.886 Y35.842
X6.423 Y36.048
X5.954 Y36.24
X5.478 Y36.418
X4.998 Y36.581
X4.513 Y36.73
X4.024 Y36.863
X3.53 Y36.98
X3.033 Y37.082
X2.533 Y37.169
X2.031 Y37.24
X1.527 Y37.295
X1.021 Y37.336
X0.514 Y37.361
X0.007 Y37.37
X-0.5 Y37.365
X-1.007 Y37.344
X-1.513 Y37.308
X-2.018 Y37.257
X-2.521 Y37.19
X-3.021 Y37.109
X-3.519 Y37.013
X-4.015 Y36.903
X-4.506 Y36.778
X-4.994 Y36.638
X-5.477 Y36.484
X-5.956 Y36.316
X-6.429 Y36.134
X-6.897 Y35.938
X-7.359 Y35.729
X-7.815 Y35.505
X-8.264 Y35.269
X-8.705 Y35.02
X-9.14 Y34.757
X-9.566 Y34.482
X-9.984 Y34.195
X-10.393 Y33.895
X-10.793 Y33.583
X-11.184 Y33.26
X-11.565 Y32.924
X-11.935 Y32.577
X-12.294 Y32.219
X-12.641 Y31.85
X-12.977 Y31.47
X-13.068 Y31.36
X-13.124 Y31.282
X-13.168 Y31.198
X-13.199 Y31.107
X-13.525 Y29.897
G3 X-13.135 Y29.807 I0.195 J-0.045
X-13.16 Y29.958 I-0.195 J0.045
G1 X-13.187 Y30.002 Z-2.493
X-13.213 Y30.042 Z-2.473
X-13.235 Y30.078 Z-2.441
X-13.252 Y30.105 Z-2.4
X-13.262 Y30.122 Z-2.352
X-13.266 Y30.127 Z-2.3
Z-2.1
X13.367 Y29.056
Z-2.3
X13.369 Y29.062 Z-2.352
X13.374 Y29.082 Z-2.4
X13.383 Y29.112 Z-2.441
X13.394 Y29.152 Z-2.473
X13.407 Y29.199 Z-2.493
X13.421 Y29.248 Z-2.5
G3 X13.44 Y30.034 I-1.523 J0.429
G1 X13.131 Y31.186
X13.084 Y31.329
X13.03 Y31.468
X12.962 Y31.609
X12.876 Y31.765
X12.757 Y31.954
X12.592 Y32.186
X12.355 Y32.483
X12.027 Y32.85
X11.668 Y33.209
X11.295 Y33.552
X10.909 Y33.882
X10.514 Y34.2
X10.11 Y34.506
X9.696 Y34.8
X9.275 Y35.082
X8.845 Y35.352
X8.408 Y35.609
X7.963 Y35.854
X7.512 Y36.085
X7.054 Y36.304
X6.59 Y36.509
X6.121 Y36.701
X5.645 Y36.878
X5.165 Y37.042
X4.68 Y37.191
X4.191 Y37.325
X3.698 Y37.444
X3.201 Y37.548
X2.702 Y37.637
X2.2 Y37.711
X1.696 Y37.77
X1.191 Y37.815
X0.685 Y37.844
X0.177 Y37.858
X-0.33
X-0.837 Y37.843
X-1.343 Y37.813
X-1.849 Y37.768
X-2.352 Y37.709
X-2.854 Y37.635
X-3.354 Y37.547
X-3.851 Y37.444
X-4.344 Y37.327
X-4.834 Y37.196
X-5.321 Y37.052
X-5.802 Y36.893
X-6.279 Y36.72
X-6.751 Y36.534
X-7.217 Y36.334
X-7.678 Y36.121
X-8.132 Y35.895
X-8.579 Y35.656
X-9.02 Y35.404
X-9.453 Y35.14
X-9.878 Y34.863
X-10.295 Y34.575
X-10.704 Y34.274
X-11.104 Y33.962
X-11.495 Y33.638
X-11.875 Y33.303
X-12.246 Y32.957
X-12.606 Y32.599
X-12.724 Y32.475
X-12.789 Y32.395
X-12.841 Y32.306
X-12.878 Y32.21
X-13.014 Y31.762
X-13.081 Y31.532
X-13.147 Y31.301
X-13.199 Y31.107
G3 X-12.809 Y31.017 I0.195 J-0.045
X-12.835 Y31.168 I-0.195 J0.045
G1 X-12.862 Y31.212 Z-2.493
X-12.888 Y31.253 Z-2.473
X-12.909 Y31.288 Z-2.441
X-12.926 Y31.315 Z-2.4
X-12.937 Y31.332 Z-2.352
X-12.94 Y31.338 Z-2.3
Z-2.1
X13.058 Y30.208
Z-2.3
X13.06 Y30.215 Z-2.352
X13.065 Y30.234 Z-2.4
X13.074 Y30.265 Z-2.441
X13.085 Y30.305 Z-2.473
X13.098 Y30.351 Z-2.493
X13.112 Y30.401 Z-2.5
G3 X13.131 Y31.186 I-1.523 J0.429
G1 X13.1 Y31.301
X12.999 Y31.647
X12.807 Y32.287
X12.757 Y32.428
X12.696 Y32.565
X12.625 Y32.697
X12.529 Y32.852
X12.403 Y33.032
X12.232 Y33.25
X12. Y33.513
X11.665 Y33.852
X11.289 Y34.192
X10.899 Y34.516
X10.498 Y34.827
X10.087 Y35.124
X9.668 Y35.41
X9.241 Y35.684
X8.806 Y35.945
X8.364 Y36.195
X7.916 Y36.431
X7.46 Y36.655
X6.999 Y36.867
X6.532 Y37.065
X6.06 Y37.249
X5.582 Y37.42
X5.1 Y37.577
X4.613 Y37.72
X4.122 Y37.848
X3.628 Y37.962
X3.13 Y38.061
X2.63 Y38.146
X2.128 Y38.216
X1.623 Y38.271
X1.118 Y38.312
X0.611 Y38.338
X0.104 Y38.35
X-0.403 Y38.347
X-0.91 Y38.33
X-1.417 Y38.299
X-1.922 Y38.253
X-2.426 Y38.194
X-2.927 Y38.12
X-3.427 Y38.032
X-3.924 Y37.93
X-4.418 Y37.814
X-4.908 Y37.685
X-5.395 Y37.541
X-5.878 Y37.385
X-6.355 Y37.215
X-6.828 Y37.031
X-7.296 Y36.835
X-7.758 Y36.625
X-8.214 Y36.403
X-8.664 Y36.168
X-9.107 Y35.921
X-9.543 Y35.661
X-9.971 Y35.39
X-10.392 Y35.106
X-10.805 Y34.812
X-11.209 Y34.505
X-11.604 Y34.187
X-11.99 Y33.858
X-12.367 Y33.518
X-12.402 Y33.485
X-12.477 Y33.4
X-12.536 Y33.303
X-12.578 Y33.197
X-12.878 Y32.21
G3 X-12.492 Y32.107 I0.193 J-0.051
X-12.512 Y32.259 I-0.193 J0.051
G1 X-12.538 Y32.303 Z-2.493
X-12.562 Y32.345 Z-2.473
X-12.583 Y32.381 Z-2.441
X-12.599 Y32.409 Z-2.4
X-12.609 Y32.426 Z-2.352
X-12.612 Y32.432 Z-2.3
Z-2.1
X12.763 Y31.307
Z-2.3
X12.765 Y31.314 Z-2.352
X12.769 Y31.333 Z-2.4
X12.777 Y31.364 Z-2.441
X12.787 Y31.404 Z-2.473
X12.799 Y31.451 Z-2.493
X12.811 Y31.501 Z-2.5
G3 X12.807 Y32.287 I-1.535 J0.385
G1 X12.531 Y33.208
X12.481 Y33.35
X12.42 Y33.487
X12.348 Y33.618
X12.268 Y33.745
X12.153 Y33.907
X12.009 Y34.087
X11.804 Y34.315
X11.539 Y34.579
X11.16 Y34.916
X10.764 Y35.232
X10.355 Y35.532
X9.936 Y35.819
X9.509 Y36.093
X9.075 Y36.356
X8.634 Y36.606
X8.186 Y36.844
X7.731 Y37.069
X7.271 Y37.282
X6.805 Y37.482
X6.333 Y37.67
X5.857 Y37.843
X5.376 Y38.004
X4.89 Y38.151
X4.4 Y38.284
X3.907 Y38.402
X3.411 Y38.507
X2.912 Y38.597
X2.41 Y38.673
X1.907 Y38.735
X1.402 Y38.783
X0.895 Y38.817
X0.388 Y38.836
X-0.119 Y38.842
X-0.626 Y38.833
X-1.133 Y38.811
X-1.639 Y38.774
X-2.144 Y38.724
X-2.647 Y38.66
X-3.148 Y38.582
X-3.647 Y38.49
X-4.143 Y38.384
X-4.636 Y38.266
X-5.126 Y38.133
X-5.612 Y37.988
X-6.094 Y37.829
X-6.571 Y37.658
X-7.044 Y37.473
X-7.511 Y37.276
X-7.973 Y37.066
X-8.429 Y36.844
X-8.879 Y36.609
X-9.322 Y36.363
X-9.758 Y36.104
X-10.188 Y35.834
X-10.61 Y35.552
X-11.024 Y35.259
X-11.429 Y34.954
X-11.827 Y34.639
X-12.077 Y34.429
X-12.162 Y34.343
X-12.23 Y34.242
X-12.279 Y34.132
X-12.417 Y33.721
X-12.454 Y33.606
X-12.578 Y33.197
G3 X-12.192 Y33.094 I0.193 J-0.051
X-12.212 Y33.246 I-0.193 J0.051
G1 X-12.238 Y33.291 Z-2.493
X-12.262 Y33.333 Z-2.473
X-12.283 Y33.368 Z-2.441
X-12.299 Y33.396 Z-2.4
X-12.309 Y33.413 Z-2.352
X-12.312 Y33.419 Z-2.3
Z-2.1
X12.489 Y32.229
Z-2.3
X12.49 Y32.236 Z-2.352
X12.495 Y32.255 Z-2.4
X12.503 Y32.286 Z-2.441
X12.513 Y32.326 Z-2.473
X12.525 Y32.373 Z-2.493
X12.537 Y32.423 Z-2.5
G3 X12.531 Y33.208 I-1.536 J0.382
G1 X12.504 Y33.298
X12.443 Y33.491
X12.214 Y34.182
X12.159 Y34.322
X12.091 Y34.456
X12.012 Y34.583
X11.912 Y34.725
X11.795 Y34.872
X11.622 Y35.065
X11.414 Y35.274
X11.11 Y35.546
X10.714 Y35.862
X10.302 Y36.158
X9.879 Y36.438
X9.447 Y36.704
X9.008 Y36.959
X8.562 Y37.201
X8.11 Y37.431
X7.652 Y37.648
X7.188 Y37.854
X6.719 Y38.046
X6.245 Y38.226
X5.765 Y38.393
X5.282 Y38.547
X4.795 Y38.687
X4.303 Y38.814
X3.809 Y38.927
X3.311 Y39.026
X2.811 Y39.111
X2.309 Y39.183
X1.805 Y39.24
X1.3 Y39.284
X0.793 Y39.314
X0.286 Y39.33
X-0.221 Y39.332
X-0.728 Y39.321
X-1.235 Y39.297
X-1.741 Y39.258
X-2.245 Y39.206
X-2.749 Y39.141
X-3.25 Y39.062
X-3.748 Y38.97
X-4.245 Y38.864
X-4.738 Y38.746
X-5.228 Y38.614
X-5.714 Y38.47
X-6.196 Y38.313
X-6.674 Y38.143
X-7.148 Y37.96
X-7.616 Y37.765
X-8.079 Y37.558
X-8.536 Y37.338
X-8.988 Y37.107
X-9.433 Y36.864
X-9.872 Y36.609
X-10.303 Y36.343
X-10.728 Y36.065
X-11.145 Y35.776
X-11.554 Y35.476
X-11.762 Y35.315
X-11.856 Y35.226
X-11.932 Y35.12
X-11.985 Y35.002
X-12.279 Y34.132
G3 X-11.896 Y34.017 I0.192 J-0.057
X-11.912 Y34.169 I-0.192 J0.057
G1 X-11.936 Y34.215 Z-2.493
X-11.959 Y34.257 Z-2.473
X-11.979 Y34.294 Z-2.441
X-11.994 Y34.322 Z-2.4
X-12.003 Y34.339 Z-2.352
X-12.007 Y34.345 Z-2.3
Z-2.1
X12.191 Y33.398
Z-2.3
X12.192 Y33.405 Z-2.352
X12.197 Y33.424 Z-2.4
X12.203 Y33.455 Z-2.441
X12.212 Y33.496 Z-2.473
X12.223 Y33.543 Z-2.493
X12.234 Y33.593 Z-2.5
G3 X12.214 Y34.182 I-1.159 J0.255
G1 X11.947 Y34.989
X11.892 Y35.129
X11.827 Y35.263
X11.749 Y35.392
X11.663 Y35.515
X11.544 Y35.664
X11.409 Y35.814
X11.215 Y36.008
X10.972 Y36.225
X10.622 Y36.504
X10.208 Y36.797
X9.781 Y37.071
X9.344 Y37.33
X8.901 Y37.576
X8.45 Y37.809
X7.994 Y38.03
X7.532 Y38.24
X7.064 Y38.437
X6.592 Y38.621
X6.114 Y38.793
X5.633 Y38.952
X5.147 Y39.098
X4.657 Y39.231
X4.165 Y39.351
X3.669 Y39.457
X3.17 Y39.55
X2.669 Y39.63
X2.166 Y39.695
X1.661 Y39.748
X1.155 Y39.787
X0.649 Y39.812
X0.142 Y39.824
X-0.366 Y39.823
X-0.873 Y39.808
X-1.379 Y39.78
X-1.885 Y39.739
X-2.389 Y39.684
X-2.892 Y39.616
X-3.393 Y39.536
X-3.891 Y39.442
X-4.387 Y39.336
X-4.88 Y39.216
X-5.37 Y39.084
X-5.856 Y38.94
X-6.339 Y38.783
X-6.817 Y38.613
X-7.291 Y38.432
X-7.759 Y38.238
X-8.223 Y38.032
X-8.681 Y37.814
X-9.134 Y37.585
X-9.58 Y37.344
X-10.02 Y37.091
X-10.454 Y36.828
X-10.88 Y36.553
X-11.299 Y36.268
X-11.466 Y36.148
X-11.569 Y36.056
X-11.651 Y35.945
X-11.709 Y35.82
X-11.985 Y35.002
G3 X-11.602 Y34.887 I0.192 J-0.057
X-11.617 Y35.039 I-0.192 J0.057
G1 X-11.642 Y35.085 Z-2.493
X-11.665 Y35.127 Z-2.473
X-11.685 Y35.164 Z-2.441
X-11.7 Y35.192 Z-2.4
X-11.709 Y35.209 Z-2.352
X-11.712 Y35.215 Z-2.3
Z-2.1
X11.93 Y34.009
Z-2.3
X11.932 Y34.015 Z-2.352
X11.936 Y34.035 Z-2.4
X11.943 Y34.066 Z-2.441
X11.952 Y34.106 Z-2.473
X11.962 Y34.153 Z-2.493
X11.973 Y34.204 Z-2.5
G3 X11.947 Y34.989 I-1.546 J0.34
G1 X11.831 Y35.335
X11.752 Y35.565
X11.645 Y35.859
X11.587 Y35.997
X11.515 Y36.129
X11.431 Y36.253
X11.337 Y36.374
X11.223 Y36.507
X11.059 Y36.676
X10.871 Y36.849
X10.597 Y37.074
X10.224 Y37.346
X9.799 Y37.622
X9.361 Y37.879
X8.916 Y38.121
X8.463 Y38.35
X8.004 Y38.567
X7.54 Y38.772
X7.071 Y38.964
X6.596 Y39.144
X6.118 Y39.312
X5.635 Y39.467
X5.148 Y39.609
X4.657 Y39.739
X4.164 Y39.855
X3.667 Y39.959
X3.168 Y40.049
X2.666 Y40.126
X2.163 Y40.19
X1.658 Y40.241
X1.153 Y40.279
X0.646 Y40.304
X0.139 Y40.315
X-0.369 Y40.314
X-0.876 Y40.299
X-1.382 Y40.272
X-1.888 Y40.231
X-2.392 Y40.178
X-2.895 Y40.112
X-3.396 Y40.033
X-3.895 Y39.942
X-4.392 Y39.838
X-4.886 Y39.721
X-5.376 Y39.592
X-5.864 Y39.451
X-6.347 Y39.298
X-6.827 Y39.132
X-7.302 Y38.955
X-7.773 Y38.765
X-8.238 Y38.564
X-8.699 Y38.352
X-9.154 Y38.127
X-9.603 Y37.892
X-10.046 Y37.645
X-10.483 Y37.387
X-10.914 Y37.119
X-11.154 Y36.96
X-11.262 Y36.871
X-11.349 Y36.762
X-11.412 Y36.637
X-11.553 Y36.256
X-11.678 Y35.911
X-11.709 Y35.82
G3 X-11.325 Y35.705 I0.192 J-0.057
X-11.341 Y35.858 I-0.192 J0.057
G1 X-11.365 Y35.903 Z-2.493
X-11.388 Y35.946 Z-2.473
X-11.408 Y35.982 Z-2.441
X-11.423 Y36.01 Z-2.4
X-11.433 Y36.028 Z-2.352
X-11.436 Y36.034 Z-2.3
Z-2.1
X11.657 Y34.879
Z-2.3
X11.659 Y34.885 Z-2.352
X11.662 Y34.905 Z-2.4
X11.668 Y34.936 Z-2.441
X11.676 Y34.977 Z-2.473
X11.685 Y35.024 Z-2.493
X11.695 Y35.075 Z-2.5
G3 X11.645 Y35.859 I-1.555 J0.296
G1 X11.375 Y36.602
X11.317 Y36.74
X11.248 Y36.874
X11.167 Y37.
X11.076 Y37.119
X10.966 Y37.246
X10.834 Y37.381
X10.647 Y37.554
X10.427 Y37.735
X10.114 Y37.964
X9.689 Y38.24
X9.249 Y38.493
X8.799 Y38.728
X8.343 Y38.95
X7.881 Y39.159
X7.413 Y39.356
X6.941 Y39.54
X6.464 Y39.713
X5.982 Y39.873
X5.497 Y40.021
X5.008 Y40.156
X4.516 Y40.279
X4.021 Y40.389
X3.523 Y40.486
X3.023 Y40.571
X2.52 Y40.642
X2.017 Y40.701
X1.511 Y40.747
X1.005 Y40.781
X0.498 Y40.801
X-0.009 Y40.808
X-0.516 Y40.803
X-1.023 Y40.785
X-1.529 Y40.755
X-2.035 Y40.711
X-2.539 Y40.656
X-3.042 Y40.587
X-3.543 Y40.507
X-4.041 Y40.414
X-4.538 Y40.309
X-5.031 Y40.191
X-5.522 Y40.062
X-6.009 Y39.921
X-6.492 Y39.767
X-6.972 Y39.602
X-7.447 Y39.425
X-7.918 Y39.237
X-8.385 Y39.037
X-8.846 Y38.825
X-9.302 Y38.603
X-9.752 Y38.369
X-10.196 Y38.125
X-10.635 Y37.869
X-10.851 Y37.736
X-10.967 Y37.646
X-11.06 Y37.533
X-11.126 Y37.402
X-11.412 Y36.637
Z-2.1
X11.387 Y35.622
Z-2.3
X11.389 Y35.629 Z-2.352
X11.392 Y35.648 Z-2.4
X11.398 Y35.679 Z-2.441
X11.406 Y35.72 Z-2.473
X11.415 Y35.768 Z-2.493
X11.425 Y35.818 Z-2.5
G3 X11.375 Y36.602 I-1.555 J0.296
G1 X11.1 Y37.361
X11.042 Y37.499
X10.971 Y37.632
X10.886 Y37.756
X10.793 Y37.873
X10.687 Y37.991
X10.536 Y38.14
X10.373 Y38.284
X10.135 Y38.472
X9.843 Y38.677
X9.423 Y38.937
X8.977 Y39.18
X8.523 Y39.404
X8.061 Y39.615
X7.594 Y39.812
X7.121 Y39.997
X6.644 Y40.17
X6.163 Y40.331
X5.678 Y40.479
X5.19 Y40.616
X4.698 Y40.74
X4.203 Y40.852
X3.706 Y40.952
X3.206 Y41.039
X2.704 Y41.113
X2.201 Y41.175
X1.696 Y41.225
X1.19 Y41.262
X0.683 Y41.286
X0.176 Y41.298
X-0.331
X-0.839 Y41.285
X-1.345 Y41.26
X-1.851 Y41.222
X-2.356 Y41.172
X-2.859 Y41.11
X-3.361 Y41.036
X-3.861 Y40.95
X-4.359 Y40.851
X-4.854 Y40.741
X-5.346 Y40.619
X-5.836 Y40.485
X-6.322 Y40.34
X-6.804 Y40.183
X-7.282 Y40.014
X-7.756 Y39.833
X-8.226 Y39.642
X-8.691 Y39.439
X-9.151 Y39.225
X-9.606 Y39.001
X-10.055 Y38.765
X-10.499 Y38.519
X-10.572 Y38.475
X-10.69 Y38.384
X-10.785 Y38.27
X-10.852 Y38.137
X-11.126 Y37.402
Z-2.1
X11.112 Y36.381
Z-2.3
X11.113 Y36.388 Z-2.352
X11.117 Y36.407 Z-2.4
X11.123 Y36.438 Z-2.441
X11.13 Y36.479 Z-2.473
X11.139 Y36.527 Z-2.493
X11.149 Y36.577 Z-2.5
G3 X11.1 Y37.361 I-1.555 J0.296
G1 X11.006 Y37.615
X10.91 Y37.87
X10.806 Y38.134
X10.744 Y38.27
X10.668 Y38.4
X10.579 Y38.521
X10.483 Y38.636
X10.366 Y38.757
X10.214 Y38.897
X10.039 Y39.042
X9.795 Y39.222
X9.473 Y39.432
X9.04 Y39.682
X8.587 Y39.91
X8.125 Y40.12
X7.657 Y40.315
X7.184 Y40.498
X6.706 Y40.669
X6.224 Y40.827
X5.738 Y40.974
X5.249 Y41.109
X4.757 Y41.231
X4.262 Y41.342
X3.764 Y41.441
X3.265 Y41.527
X2.763 Y41.601
X2.259 Y41.663
X1.754 Y41.713
X1.249 Y41.751
X0.742 Y41.776
X0.235 Y41.789
X-0.273 Y41.79
X-0.78 Y41.779
X-1.286 Y41.755
X-1.793 Y41.72
X-2.298 Y41.673
X-2.801 Y41.614
X-3.304 Y41.543
X-3.804 Y41.46
X-4.303 Y41.365
X-4.799 Y41.259
X-5.292 Y41.141
X-5.782 Y41.011
X-6.27 Y40.87
X-6.754 Y40.718
X-7.234 Y40.554
X-7.71 Y40.379
X-8.182 Y40.193
X-8.649 Y39.996
X-9.112 Y39.788
X-9.57 Y39.569
X-10.022 Y39.34
X-10.265 Y39.21
X-10.39 Y39.123
X-10.493 Y39.009
X-10.567 Y38.874
X-10.66 Y38.646
X-10.779 Y38.331
X-10.852 Y38.137
Z-2.1
X10.844 Y37.154
Z-2.3
X10.846 Y37.161 Z-2.352
X10.849 Y37.181 Z-2.4
X10.854 Y37.212 Z-2.441
X10.86 Y37.253 Z-2.473
X10.868 Y37.3 Z-2.493
X10.876 Y37.351 Z-2.5
G3 X10.806 Y38.134 I-1.562 J0.253
G1 X10.52 Y38.856
X10.458 Y38.993
X10.38 Y39.121
X10.29 Y39.241
X10.191 Y39.354
X10.082 Y39.463
X9.929 Y39.601
X9.756 Y39.74
X9.517 Y39.91
X9.225 Y40.094
X8.809 Y40.325
X8.353 Y40.546
X7.887 Y40.748
X7.415 Y40.934
X6.939 Y41.107
X6.458 Y41.268
X5.973 Y41.417
X5.484 Y41.555
X4.993 Y41.68
X4.498 Y41.794
X4.002 Y41.896
X3.502 Y41.986
X3.001 Y42.064
X2.498 Y42.131
X1.994 Y42.185
X1.488 Y42.227
X0.982 Y42.258
X0.475 Y42.276
X-0.032 Y42.283
X-0.54 Y42.278
X-1.047 Y42.261
X-1.553 Y42.232
X-2.059 Y42.191
X-2.563 Y42.139
X-3.066 Y42.075
X-3.568 Y42.
X-4.068 Y41.913
X-4.566 Y41.814
X-5.061 Y41.704
X-5.553 Y41.583
X-6.043 Y41.45
X-6.529 Y41.306
X-7.012 Y41.151
X-7.492 Y40.985
X-7.967 Y40.808
X-8.438 Y40.62
X-8.905 Y40.421
X-9.367 Y40.212
X-9.824 Y39.993
X-9.969 Y39.918
X-10.099 Y39.83
X-10.204 Y39.715
X-10.28 Y39.577
X-10.567 Y38.874
Z-2.1
X10.559 Y37.877
Z-2.3
X10.56 Y37.883 Z-2.352
X10.563 Y37.903 Z-2.4
X10.569 Y37.935 Z-2.441
X10.575 Y37.975 Z-2.473
X10.583 Y38.023 Z-2.493
X10.591 Y38.074 Z-2.5
G3 X10.52 Y38.856 I-1.562 J0.253
G1 X10.248 Y39.547
X10.186 Y39.683
X10.107 Y39.811
X10.016 Y39.93
X9.915 Y40.041
X9.805 Y40.149
X9.652 Y40.283
X9.489 Y40.41
X9.251 Y40.575
X8.973 Y40.745
X8.577 Y40.958
X8.117 Y41.172
X7.648 Y41.366
X7.173 Y41.543
X6.693 Y41.707
X6.209 Y41.859
X5.721 Y41.999
X5.23 Y42.128
X4.737 Y42.245
X4.24 Y42.35
X3.742 Y42.444
X3.241 Y42.526
X2.739 Y42.596
X2.235 Y42.655
X1.73 Y42.702
X1.224 Y42.738
X0.717 Y42.761
X0.21 Y42.774
X-0.297
X-0.804 Y42.763
X-1.311 Y42.741
X-1.817 Y42.706
X-2.323 Y42.661
X-2.827 Y42.604
X-3.329 Y42.536
X-3.83 Y42.456
X-4.329 Y42.365
X-4.826 Y42.263
X-5.321 Y42.149
X-5.812 Y42.025
X-6.301 Y41.889
X-6.787 Y41.742
X-7.269 Y41.585
X-7.748 Y41.416
X-8.222 Y41.237
X-8.693 Y41.048
X-9.159 Y40.848
X-9.62 Y40.637
X-9.69 Y40.602
X-9.82 Y40.514
X-9.926 Y40.398
X-10.002 Y40.261
X-10.28 Y39.577
Z-2.1
X10.287 Y38.567
Z-2.3
X10.288 Y38.574 Z-2.352
X10.291 Y38.593 Z-2.4
X10.296 Y38.625 Z-2.441
X10.303 Y38.666 Z-2.473
X10.31 Y38.713 Z-2.493
X10.319 Y38.764 Z-2.5
G3 X10.248 Y39.547 I-1.562 J0.253
G1 X10.045 Y40.059
X9.998 Y40.175
X9.968 Y40.245
X9.903 Y40.38
X9.821 Y40.506
X9.727 Y40.622
X9.624 Y40.732
X9.506 Y40.842
X9.355 Y40.967
X9.181 Y41.096
X8.941 Y41.253
X8.644 Y41.425
X8.245 Y41.627
X7.78 Y41.83
X7.307 Y42.012
X6.828 Y42.178
X6.344 Y42.331
X5.857 Y42.472
X5.366 Y42.601
X4.872 Y42.718
X4.376 Y42.824
X3.878 Y42.919
X3.378 Y43.002
X2.876 Y43.074
X2.372 Y43.135
X1.867 Y43.184
X1.361 Y43.222
X0.855 Y43.248
X0.347 Y43.263
X-0.16 Y43.267
X-0.667 Y43.259
X-1.174 Y43.24
X-1.68 Y43.21
X-2.186 Y43.169
X-2.691 Y43.116
X-3.194 Y43.052
X-3.695 Y42.977
X-4.195 Y42.891
X-4.693 Y42.794
X-5.189 Y42.686
X-5.682 Y42.567
X-6.173 Y42.438
X-6.66 Y42.297
X-7.144 Y42.146
X-7.625 Y41.984
X-8.102 Y41.811
X-8.575 Y41.628
X-9.044 Y41.435
X-9.382 Y41.288
X-9.414 Y41.271
X-9.545 Y41.183
X-9.653 Y41.067
X-9.73 Y40.928
X-10.002 Y40.261
Z-2.1
X10.033 Y39.267
Z-2.3
X10.034 Y39.274 Z-2.352
X10.037 Y39.293 Z-2.4
X10.041 Y39.325 Z-2.441
X10.046 Y39.366 Z-2.473
X10.053 Y39.414 Z-2.493
X10.06 Y39.465 Z-2.5
G3 X9.968 Y40.245 I-1.568 J0.212
G1 X9.69 Y40.901
X9.624 Y41.036
X9.543 Y41.162
X9.448 Y41.279
X9.345 Y41.387
X9.235 Y41.489
X9.084 Y41.612
X8.924 Y41.73
X8.693 Y41.879
X8.427 Y42.031
X8.052 Y42.218
X7.586 Y42.419
X7.11 Y42.595
X6.629 Y42.755
X6.143 Y42.901
X5.653 Y43.034
X5.161 Y43.156
X4.666 Y43.267
X4.168 Y43.366
X3.669 Y43.454
X3.167 Y43.531
X2.664 Y43.597
X2.16 Y43.652
X1.655 Y43.695
X1.148 Y43.728
X0.642 Y43.749
X0.134 Y43.759
X-0.373 Y43.758
X-0.88 Y43.746
X-1.387 Y43.723
X-1.893 Y43.689
X-2.398 Y43.644
X-2.902 Y43.588
X-3.405 Y43.521
X-3.906 Y43.443
X-4.406 Y43.354
X-4.903 Y43.254
X-5.398 Y43.144
X-5.891 Y43.023
X-6.381 Y42.891
X-6.868 Y42.749
X-7.352 Y42.596
X-7.832 Y42.433
X-8.309 Y42.26
X-8.782 Y42.076
X-9.089 Y41.95
X-9.126 Y41.931
X-9.259 Y41.847
X-9.368 Y41.734
X-9.448 Y41.598
X-9.567 Y41.327
X-9.73 Y40.928
Z-2.1
X9.754 Y39.923
Z-2.3
X9.755 Y39.929 Z-2.352
X9.758 Y39.949 Z-2.4
X9.762 Y39.981 Z-2.441
X9.767 Y40.022 Z-2.473
X9.774 Y40.07 Z-2.493
X9.781 Y40.121 Z-2.5
G3 X9.69 Y40.901 I-1.568 J0.212
G1 X9.41 Y41.557
X9.345 Y41.692
X9.262 Y41.817
X9.166 Y41.933
X9.061 Y42.04
X8.945 Y42.144
X8.803 Y42.256
X8.634 Y42.376
X8.404 Y42.519
X8.133 Y42.668
X7.768 Y42.842
X7.298 Y43.035
X6.82 Y43.203
X6.336 Y43.354
X5.847 Y43.491
X5.355 Y43.615
X4.861 Y43.728
X4.364 Y43.83
X3.865 Y43.92
X3.364 Y44.
X2.861 Y44.069
X2.357 Y44.127
X1.852 Y44.174
X1.346 Y44.21
X0.839 Y44.235
X0.332 Y44.249
X-0.175 Y44.252
X-0.682 Y44.245
X-1.189 Y44.227
X-1.696 Y44.198
X-2.201 Y44.158
X-2.706 Y44.107
X-3.21 Y44.045
X-3.712 Y43.973
X-4.212 Y43.891
X-4.711 Y43.797
X-5.207 Y43.693
X-5.702 Y43.579
X-6.193 Y43.454
X-6.682 Y43.319
X-7.168 Y43.173
X-7.651 Y43.017
X-8.13 Y42.851
X-8.606 Y42.675
X-8.802 Y42.596
X-8.951 Y42.512
X-9.074 Y42.393
X-9.163 Y42.246
X-9.448 Y41.598
G3 X-9.076 Y41.45 I0.186 J-0.074
X-9.079 Y41.603 I-0.186 J0.074
G1 X-9.099 Y41.651 Z-2.493
X-9.118 Y41.695 Z-2.473
X-9.135 Y41.733 Z-2.441
X-9.147 Y41.762 Z-2.4
X-9.155 Y41.781 Z-2.352
X-9.158 Y41.787 Z-2.3
Z-2.1
X9.475 Y40.579
Z-2.3
X9.476 Y40.586 Z-2.352
X9.478 Y40.606 Z-2.4
X9.483 Y40.637 Z-2.441
X9.488 Y40.678 Z-2.473
X9.495 Y40.726 Z-2.493
X9.502 Y40.777 Z-2.5
G3 X9.41 Y41.557 I-1.568 J0.212
G1 X9.137 Y42.201
X9.071 Y42.336
X8.986 Y42.459
X8.888 Y42.573
X8.782 Y42.678
X8.665 Y42.779
X8.522 Y42.89
X8.352 Y43.005
X8.122 Y43.145
X7.854 Y43.286
X7.493 Y43.452
X7.021 Y43.638
X6.54 Y43.798
X6.053 Y43.941
X5.562 Y44.069
X5.068 Y44.185
X4.572 Y44.29
X4.074 Y44.384
X3.573 Y44.466
X3.071 Y44.538
X2.567 Y44.599
X2.063 Y44.65
X1.557 Y44.69
X1.05 Y44.719
X0.543 Y44.737
X0.036 Y44.745
X-0.471 Y44.742
X-0.978 Y44.729
X-1.485 Y44.705
X-1.991 Y44.67
X-2.496 Y44.625
X-3.001 Y44.569
X-3.503 Y44.503
X-4.005 Y44.426
X-4.505 Y44.339
X-5.002 Y44.242
X-5.498 Y44.134
X-5.992 Y44.016
X-6.482 Y43.887
X-6.97 Y43.749
X-7.455 Y43.6
X-7.937 Y43.441
X-8.416 Y43.273
X-8.529 Y43.225
X-8.676 Y43.141
X-8.797 Y43.023
X-8.884 Y42.879
X-9.163 Y42.246
G3 X-8.791 Y42.098 I0.186 J-0.074
X-8.793 Y42.251 I-0.186 J0.074
G1 X-8.813 Y42.299 Z-2.493
X-8.832 Y42.343 Z-2.473
X-8.849 Y42.381 Z-2.441
X-8.861 Y42.41 Z-2.4
X-8.869 Y42.428 Z-2.352
X-8.872 Y42.435 Z-2.3
Z-2.1
X9.201 Y41.222
Z-2.3
X9.202 Y41.229 Z-2.352
X9.205 Y41.249 Z-2.4
X9.209 Y41.28 Z-2.441
X9.215 Y41.322 Z-2.473
X9.221 Y41.369 Z-2.493
X9.228 Y41.421 Z-2.5
G3 X9.137 Y42.201 I-1.568 J0.212
G1 X8.969 Y42.595
X8.868 Y42.825
X8.8 Y42.959
X8.714 Y43.082
X8.616 Y43.195
X8.509 Y43.3
X8.394 Y43.397
X8.252 Y43.504
X8.087 Y43.615
X7.859 Y43.75
X7.604 Y43.882
X7.254 Y44.039
X6.78 Y44.22
X6.297 Y44.375
X5.808 Y44.511
X5.316 Y44.632
X4.82 Y44.741
X4.323 Y44.839
X3.823 Y44.925
X3.321 Y45.001
X2.818 Y45.066
X2.314 Y45.121
X1.808 Y45.166
X1.302 Y45.199
X0.796 Y45.223
X0.288 Y45.236
X-0.219 Y45.238
X-0.726 Y45.23
X-1.233 Y45.212
X-1.74 Y45.183
X-2.245 Y45.144
X-2.75 Y45.095
X-3.254 Y45.035
X-3.756 Y44.965
X-4.257 Y44.885
X-4.756 Y44.794
X-5.254 Y44.693
X-5.749 Y44.583
X-6.241 Y44.462
X-6.731 Y44.331
X-7.219 Y44.19
X-7.703 Y44.039
X-8.126 Y43.897
X-8.247 Y43.85
X-8.397 Y43.766
X-8.521 Y43.646
X-8.61 Y43.499
X-8.884 Y42.879
G3 X-8.512 Y42.73 I0.186 J-0.074
X-8.514 Y42.883 I-0.186 J0.074
G1 X-8.535 Y42.931 Z-2.493
X-8.554 Y42.975 Z-2.473
X-8.57 Y43.013 Z-2.441
X-8.583 Y43.042 Z-2.4
X-8.59 Y43.061 Z-2.352
X-8.593 Y43.067 Z-2.3
Z-2.1
X8.941 Y41.847
Z-2.3
X8.942 Y41.854 Z-2.352
X8.944 Y41.874 Z-2.4
X8.948 Y41.905 Z-2.441
X8.954 Y41.947 Z-2.473
X8.96 Y41.994 Z-2.493
X8.966 Y42.046 Z-2.5
G3 X8.868 Y42.825 I-1.57 J0.199
G1 X8.586 Y43.449
X8.517 Y43.582
X8.43 Y43.704
X8.331 Y43.817
X8.222 Y43.92
X8.104 Y44.018
X7.969 Y44.118
X7.799 Y44.228
X7.577 Y44.356
X7.319 Y44.485
X6.979 Y44.633
X6.515 Y44.803
X6.03 Y44.952
X5.539 Y45.08
X5.045 Y45.195
X4.548 Y45.296
X4.049 Y45.386
X3.548 Y45.466
X3.045 Y45.535
X2.541 Y45.593
X2.036 Y45.641
X1.53 Y45.679
X1.024 Y45.707
X0.517 Y45.724
X0.01 Y45.731
X-0.498 Y45.728
X-1.005 Y45.715
X-1.511 Y45.691
X-2.018 Y45.658
X-2.523 Y45.614
X-3.027 Y45.56
X-3.531 Y45.496
X-4.032 Y45.422
X-4.533 Y45.338
X-5.031 Y45.244
X-5.528 Y45.139
X-6.022 Y45.025
X-6.514 Y44.901
X-7.003 Y44.767
X-7.49 Y44.624
X-7.838 Y44.513
X-7.968 Y44.463
X-8.123 Y44.38
X-8.25 Y44.259
X-8.341 Y44.11
X-8.61 Y43.499
G3 X-8.239 Y43.351 I0.186 J-0.074
X-8.241 Y43.504 I-0.186 J0.074
G1 X-8.261 Y43.551 Z-2.493
X-8.28 Y43.596 Z-2.473
X-8.296 Y43.634 Z-2.441
X-8.309 Y43.663 Z-2.4
X-8.317 Y43.681 Z-2.352
X-8.32 Y43.687 Z-2.3
Z-2.1
X8.674 Y42.472
Z-2.3
X8.675 Y42.479 Z-2.352
X8.677 Y42.499 Z-2.4
X8.68 Y42.53 Z-2.441
X8.685 Y42.572 Z-2.473
X8.69 Y42.62 Z-2.493
X8.696 Y42.671 Z-2.5
G3 X8.586 Y43.449 I-1.573 J0.174
G1 X8.316 Y44.041
X8.248 Y44.174
X8.162 Y44.297
X8.063 Y44.41
X7.955 Y44.514
X7.84 Y44.61
X7.706 Y44.707
X7.545 Y44.812
X7.33 Y44.935
X7.09 Y45.054
X6.764 Y45.195
X6.332 Y45.352
X5.847 Y45.499
X5.355 Y45.625
X4.86 Y45.734
X4.362 Y45.831
X3.862 Y45.916
X3.36 Y45.99
X2.857 Y46.054
X2.352 Y46.108
X1.847 Y46.152
X1.341 Y46.185
X0.834 Y46.209
X0.327 Y46.222
X-0.18 Y46.225
X-0.688 Y46.218
X-1.195 Y46.202
X-1.701 Y46.175
X-2.207 Y46.138
X-2.712 Y46.091
X-3.216 Y46.035
X-3.719 Y45.968
X-4.221 Y45.892
X-4.721 Y45.805
X-5.219 Y45.709
X-5.715 Y45.603
X-6.209 Y45.488
X-6.7 Y45.362
X-7.189 Y45.227
X-7.541 Y45.122
X-7.679 Y45.072
X-7.833 Y44.993
X-7.962 Y44.876
X-8.056 Y44.73
X-8.194 Y44.438
X-8.246 Y44.323
X-8.341 Y44.11
G3 X-7.97 Y43.961 I0.186 J-0.074
X-7.971 Y44.114 I-0.186 J0.074
G1 X-7.992 Y44.162 Z-2.493
X-8.011 Y44.206 Z-2.473
X-8.027 Y44.244 Z-2.441
X-8.039 Y44.273 Z-2.4
X-8.047 Y44.292 Z-2.352
X-8.05 Y44.298 Z-2.3
Z-2.1
X8.405 Y43.064
Z-2.3
Y43.071 Z-2.352
X8.408 Y43.091 Z-2.4
X8.411 Y43.123 Z-2.441
X8.416 Y43.164 Z-2.473
X8.421 Y43.212 Z-2.493
X8.427 Y43.263 Z-2.5
G3 X8.316 Y44.041 I-1.573 J0.174
G1 X8.055 Y44.617
X7.986 Y44.75
X7.903 Y44.875
X7.805 Y44.989
X7.697 Y45.094
X7.582 Y45.189
X7.458 Y45.28
X7.3 Y45.383
X7.102 Y45.496
X6.868 Y45.613
X6.564 Y45.744
X6.164 Y45.891
X5.679 Y46.038
X5.187 Y46.161
X4.69 Y46.267
X4.192 Y46.36
X3.691 Y46.441
X3.188 Y46.511
X2.685 Y46.57
X2.18 Y46.62
X1.674 Y46.659
X1.168 Y46.689
X0.661 Y46.708
X0.154 Y46.718
X-0.354
X-0.861 Y46.708
X-1.368 Y46.688
X-1.874 Y46.659
X-2.38 Y46.619
X-2.885 Y46.57
X-3.389 Y46.511
X-3.891 Y46.442
X-4.393 Y46.364
X-4.892 Y46.276
X-5.39 Y46.178
X-5.886 Y46.071
X-6.379 Y45.954
X-6.871 Y45.827
X-7.236 Y45.726
X-7.385 Y45.675
X-7.544 Y45.596
X-7.677 Y45.478
X-7.773 Y45.329
X-8.056 Y44.73
G3 X-7.689 Y44.572 I0.184 J-0.079
X-7.686 Y44.725 I-0.184 J0.079
G1 X-7.706 Y44.773 Z-2.493
X-7.723 Y44.818 Z-2.473
X-7.739 Y44.856 Z-2.441
X-7.75 Y44.886 Z-2.4
X-7.758 Y44.904 Z-2.352
X-7.76 Y44.911 Z-2.3
Z-2.1
X8.143 Y43.641
Z-2.3
X8.144 Y43.647 Z-2.352
X8.146 Y43.667 Z-2.4
X8.149 Y43.699 Z-2.441
X8.154 Y43.74 Z-2.473
X8.159 Y43.788 Z-2.493
X8.165 Y43.839 Z-2.5
G3 X8.055 Y44.617 I-1.573 J0.174
G1 X7.779 Y45.224
X7.71 Y45.357
X7.623 Y45.48
X7.523 Y45.591
X7.413 Y45.693
X7.296 Y45.787
X7.168 Y45.877
X6.994 Y45.986
X6.81 Y46.087
X6.545 Y46.214
X6.254 Y46.333
X5.849 Y46.473
X5.361 Y46.612
X4.867 Y46.727
X4.369 Y46.825
X3.869 Y46.91
X3.367 Y46.983
X2.864 Y47.046
X2.359 Y47.098
X1.854 Y47.141
X1.347 Y47.173
X0.841 Y47.196
X0.333 Y47.209
X-0.174 Y47.213
X-0.681 Y47.206
X-1.188 Y47.19
X-1.695 Y47.165
X-2.201 Y47.129
X-2.706 Y47.084
X-3.21 Y47.03
X-3.714 Y46.966
X-4.216 Y46.892
X-4.716 Y46.809
X-5.215 Y46.717
X-5.712 Y46.615
X-6.207 Y46.503
X-6.699 Y46.383
X-6.991 Y46.303
X-7.105 Y46.264
X-7.265 Y46.185
X-7.398 Y46.067
X-7.495 Y45.917
X-7.773 Y45.329
G3 X-7.406 Y45.17 I0.184 J-0.079
X-7.404 Y45.324 I-0.184 J0.079
G1 X-7.423 Y45.372 Z-2.493
X-7.441 Y45.416 Z-2.473
X-7.456 Y45.455 Z-2.441
X-7.468 Y45.484 Z-2.4
X-7.475 Y45.503 Z-2.352
X-7.478 Y45.509 Z-2.3
Z-2.1
X7.867 Y44.247
Z-2.3
X7.868 Y44.254 Z-2.352
X7.87 Y44.274 Z-2.4
X7.874 Y44.306 Z-2.441
X7.878 Y44.347 Z-2.473
X7.883 Y44.395 Z-2.493
X7.889 Y44.446 Z-2.5
G3 X7.779 Y45.224 I-1.573 J0.174
G1 X7.664 Y45.477
X7.611 Y45.591
X7.5 Y45.821
X7.429 Y45.953
X7.34 Y46.074
X7.238 Y46.184
X7.127 Y46.285
X7.008 Y46.377
X6.882 Y46.463
X6.709 Y46.569
X6.522 Y46.668
X6.261 Y46.789
X5.968 Y46.905
X5.562 Y47.04
X5.073 Y47.172
X4.577 Y47.28
X4.078 Y47.372
X3.577 Y47.45
X3.074 Y47.517
X2.57 Y47.573
X2.065 Y47.619
X1.559 Y47.655
X1.052 Y47.681
X0.545 Y47.698
X0.038 Y47.706
X-0.47 Y47.704
X-0.977 Y47.692
X-1.484 Y47.671
X-1.99 Y47.64
X-2.496 Y47.6
X-3. Y47.55
X-3.504 Y47.492
X-4.007 Y47.423
X-4.508 Y47.346
X-5.008 Y47.259
X-5.506 Y47.163
X-6.002 Y47.057
X-6.497 Y46.942
X-6.736 Y46.877
X-6.828 Y46.847
X-6.989 Y46.768
X-7.123 Y46.649
X-7.22 Y46.499
X-7.495 Y45.917
G3 X-7.128 Y45.759 I0.184 J-0.079
X-7.126 Y45.912 I-0.184 J0.079
