
( Post script version:  V0.1.0 )
( ================================================ )
( File:   WaterNecklace_V1.3_Base__ALU )
( Author: Ziga Miklosic )
( Date:   Tuesday, February 08, 2022 )
( Time:   10:20:44 )
( Brief:  Jewellery Project - Water Necklace. Material: ALU )
( ================================================ )

( ================================================ )
(        List of needed tools                      )
( ================================================ )
(T4  D=2. CR=0. - ZMIN=-4.1 - FLAT END MILL)

( ================================================ )
(            Save Starup Line                      )
( ================================================ )
(    G90  - ABSOLUTE POSITION )
(    G94  - FEEDRATE PER MINUTE )
(    91.1 - INCREMENTAL ARC POSITION )
(    G40  - TOOL RADIUS COMPENSATION OFF )
(    G49  - TOOL HEIGHT COMPENSATION OFF )
(    G17  - XY WORKPLANE )
(    G21  - USING MILIMITERS )
G90 G94 G91.1 G40 G49 G17 G21

( ================================================ )
(       CAM Features Start Code                    )
( ================================================ )
(WHEN USING FUSION 360 FOR PERSONAL USE, THE FEEDRATE OF)
(RAPID MOVES IS REDUCED TO MATCH THE FEEDRATE OF CUTTING)
(MOVES, WHICH CAN INCREASE MACHINING TIME. UNRESTRICTED RAPID)
(MOVES ARE AVAILABLE WITH A FUSION 360 SUBSCRIPTION.)

(2D ADAPTIVE3)
M5
T4 M6
(ALU ONLY)
S6000 M3
G54
G0 X-0.763 Y19.757
G1 Z15.1 F200.
Z5.1
Z2.6
G3 X0.719 Y20.945 Z2.496 I0.741 J0.594 F100.
X-0.763 Y19.757 Z2.392 I-0.741 J-0.594
X0.719 Y20.945 Z2.287 I0.741 J0.594
X-0.763 Y19.757 Z2.183 I-0.741 J-0.594
X0.719 Y20.945 Z2.079 I0.741 J0.594
X-0.763 Y19.757 Z1.975 I-0.741 J-0.594
X0.719 Y20.945 Z1.87 I0.741 J0.594
X-0.763 Y19.757 Z1.766 I-0.741 J-0.594
X0.719 Y20.945 Z1.662 I0.741 J0.594
X-0.763 Y19.757 Z1.558 I-0.741 J-0.594
X0.719 Y20.945 Z1.454 I0.741 J0.594
X-0.763 Y19.757 Z1.349 I-0.741 J-0.594
X0.719 Y20.945 Z1.245 I0.741 J0.594
X-0.763 Y19.757 Z1.141 I-0.741 J-0.594
X0.719 Y20.945 Z1.037 I0.741 J0.594
X-0.763 Y19.757 Z0.932 I-0.741 J-0.594
X0.719 Y20.945 Z0.828 I0.741 J0.594
X-0.763 Y19.757 Z0.724 I-0.741 J-0.594
X0.719 Y20.945 Z0.62 I0.741 J0.594
X-0.763 Y19.757 Z0.516 I-0.741 J-0.594
X0.719 Y20.945 Z0.411 I0.741 J0.594
X-0.763 Y19.757 Z0.307 I-0.741 J-0.594
X0.719 Y20.945 Z0.203 I0.741 J0.594
X-0.763 Y19.757 Z0.099 I-0.741 J-0.594
X0.719 Y20.945 Z-0.006 I0.741 J0.594
X-0.763 Y19.757 Z-0.11 I-0.741 J-0.594
X0.719 Y20.945 Z-0.214 I0.741 J0.594
X-0.763 Y19.757 Z-0.318 I-0.741 J-0.594
X0.928 Y20.351 Z-0.4 I0.741 J0.594
X-0.972 I-0.95 J0.
X0.928 I0.95 J0.
G1 X0.949 Y20.767 F200.
X0.948 Y20.917
X0.904 Y21.061
X0.831 Y21.192
X0.735 Y21.307
X0.622 Y21.405
X0.495 Y21.486
X0.359 Y21.548
X0.215 Y21.592
X0.067 Y21.616
X-0.083 Y21.622
X-0.232 Y21.609
X-0.379 Y21.577
X-0.521 Y21.529
X-0.656 Y21.464
X-0.782 Y21.383
X-0.898 Y21.287
X-1.002 Y21.179
X-1.092 Y21.059
X-1.168 Y20.93
X-1.228 Y20.792
X-1.271 Y20.649
X-1.298 Y20.501
X-1.306 Y20.351
X-1.298 Y20.202
X-1.272 Y20.054
X-1.229 Y19.91
X-1.169 Y19.773
X-1.094 Y19.643
X-1.004 Y19.523
X-0.901 Y19.414
X-0.785 Y19.318
X-0.66 Y19.236
X-0.525 Y19.169
X-0.384 Y19.119
X-0.238 Y19.085
X-0.089 Y19.068
X0.061 Y19.069
X0.21 Y19.088
X0.355 Y19.123
X0.496 Y19.176
X0.63 Y19.244
X0.754 Y19.328
X0.868 Y19.425
X0.97 Y19.535
X1.058 Y19.657
X1.132 Y19.787
X1.191 Y19.925
X1.239 Y20.067
X1.278 Y20.212
X1.309 Y20.359
X1.329 Y20.507
X1.335 Y20.657
X1.324 Y20.807
X1.297 Y20.955
X1.253 Y21.098
X1.192 Y21.235
X1.115 Y21.364
X1.024 Y21.483
X0.92 Y21.591
X0.805 Y21.687
X0.68 Y21.77
X0.546 Y21.839
X0.407 Y21.894
X0.262 Y21.934
X0.115 Y21.959
X-0.035 Y21.97
X-0.185 Y21.966
X-0.334 Y21.948
X-0.48 Y21.915
X-0.623 Y21.868
X-0.76 Y21.809
X-0.892 Y21.737
X-1.016 Y21.652
X-1.132 Y21.557
X-1.238 Y21.451
X-1.334 Y21.336
X-1.419 Y21.212
X-1.492 Y21.081
X-1.553 Y20.944
X-1.601 Y20.802
X-1.636 Y20.656
X-1.658 Y20.508
X-1.665 Y20.358
X-1.659 Y20.208
X-1.639 Y20.059
X-1.606 Y19.913
X-1.56 Y19.77
X-1.5 Y19.633
X-1.428 Y19.501
X-1.345 Y19.376
X-1.251 Y19.259
X-1.146 Y19.152
X-1.032 Y19.055
X-0.91 Y18.968
X-0.78 Y18.892
X-0.644 Y18.829
X-0.503 Y18.779
X-0.357 Y18.742
X-0.209 Y18.718
X-0.06 Y18.708
X0.09 Y18.711
X0.239 Y18.728
X0.386 Y18.759
X0.53 Y18.803
X0.668 Y18.859
X0.801 Y18.929
X0.928 Y19.01
X1.046 Y19.102
X1.156 Y19.204
X1.255 Y19.316
X1.345 Y19.437
X1.425 Y19.564
X1.496 Y19.696
X1.558 Y19.833
X1.61 Y19.973
X1.652 Y20.117
X1.684 Y20.264
X1.704 Y20.412
X1.713 Y20.562
X1.709 Y20.712
X1.693 Y20.861
X1.664 Y21.008
X1.622 Y21.152
X1.568 Y21.292
X1.502 Y21.427
X1.424 Y21.555
X1.335 Y21.676
X1.236 Y21.789
X1.128 Y21.893
X1.012 Y21.987
X0.887 Y22.071
X0.756 Y22.144
X0.62 Y22.206
X0.479 Y22.257
X0.334 Y22.296
X0.186 Y22.323
X0.037 Y22.338
X-0.113 Y22.341
X-0.263 Y22.333
X-0.411 Y22.313
X-0.558 Y22.281
X-0.702 Y22.238
X-0.842 Y22.184
X-0.977 Y22.12
X-1.107 Y22.045
X-1.231 Y21.961
X-1.349 Y21.868
X-1.459 Y21.765
X-1.56 Y21.655
X-1.654 Y21.538
X-1.738 Y21.414
X-1.813 Y21.284
X-1.878 Y21.149
X-1.932 Y21.009
X-1.976 Y20.865
X-2.01 Y20.719
X-2.032 Y20.571
X-2.043 Y20.421
X-2.042 Y20.271
X-2.031 Y20.122
X-2.009 Y19.973
X-1.976 Y19.827
X-1.931 Y19.684
X-1.877 Y19.544
X-1.812 Y19.409
X-1.737 Y19.279
X-1.653 Y19.154
X-1.56 Y19.037
X-1.458 Y18.927
X-1.349 Y18.824
X-1.232 Y18.73
X-1.109 Y18.644
X-0.979 Y18.569
X-0.845 Y18.503
X-0.705 Y18.447
X-0.562 Y18.402
X-0.416 Y18.367
X-0.268 Y18.343
X-0.119 Y18.33
X0.031 Y18.329
X0.181 Y18.338
X0.329 Y18.359
X0.476 Y18.39
X0.62 Y18.433
X0.76 Y18.486
X0.896 Y18.549
X1.027 Y18.622
X1.153 Y18.704
X1.272 Y18.795
X1.384 Y18.895
X1.489 Y19.003
X1.586 Y19.117
X1.676 Y19.237
X1.758 Y19.362
X1.832 Y19.493
X1.898 Y19.628
X1.955 Y19.766
X2.003 Y19.908
X2.042 Y20.053
X2.072 Y20.2
X2.092 Y20.349
X2.102 Y20.498
Y20.648
X2.092 Y20.798
X2.072 Y20.947
X2.041 Y21.094
X2. Y21.238
X1.949 Y21.379
X1.888 Y21.516
X1.818 Y21.648
X1.738 Y21.776
X1.65 Y21.897
X1.553 Y22.012
X1.449 Y22.119
X1.337 Y22.219
X1.219 Y22.311
X1.094 Y22.395
X0.965 Y22.47
X0.83 Y22.536
X0.691 Y22.592
X0.548 Y22.639
X0.403 Y22.677
X0.256 Y22.705
X0.107 Y22.722
X-0.043 Y22.73
X-0.193 Y22.728
X-0.343 Y22.716
X-0.491 Y22.695
X-0.638 Y22.664
X-0.782 Y22.623
X-0.924 Y22.574
X-1.062 Y22.515
X-1.196 Y22.447
X-1.325 Y22.371
X-1.45 Y22.288
X-1.568 Y22.196
X-1.681 Y22.097
X-1.787 Y21.991
X-1.887 Y21.879
X-1.979 Y21.76
X-2.063 Y21.637
X-2.14 Y21.508
X-2.208 Y21.374
X-2.268 Y21.236
X-2.319 Y21.095
X-2.361 Y20.951
X-2.394 Y20.805
X-2.419 Y20.657
X-2.433 Y20.508
X-2.438 Y20.358
X-2.434 Y20.208
X-2.421 Y20.059
X-2.399 Y19.91
X-2.367 Y19.764
X-2.326 Y19.619
X-2.276 Y19.478
X-2.218 Y19.34
X-2.151 Y19.205
X-2.076 Y19.075
X-1.993 Y18.95
X-1.902 Y18.831
X-1.804 Y18.717
X-1.7 Y18.61
X-1.588 Y18.509
X-1.471 Y18.416
X-1.349 Y18.329
X-1.221 Y18.251
X-1.088 Y18.181
X-0.952 Y18.119
X-0.811 Y18.066
X-0.668 Y18.021
X-0.522 Y17.985
X-0.375 Y17.959
X-0.226 Y17.942
X-0.076 Y17.934
X0.074 Y17.935
X0.224 Y17.946
X0.372 Y17.965
X0.52 Y17.994
X0.665 Y18.033
X0.807 Y18.08
X0.946 Y18.136
X1.082 Y18.2
X1.213 Y18.272
X1.34 Y18.352
X1.462 Y18.44
X1.578 Y18.535
X1.688 Y18.636
X1.794 Y18.745
X1.894 Y18.86
X1.987 Y18.981
X2.073 Y19.105
X2.152 Y19.235
X2.224 Y19.371
X2.289 Y19.511
X2.345 Y19.654
X2.394 Y19.8
X2.433 Y19.947
X2.464 Y20.093
X2.487 Y20.242
X2.501 Y20.391
X2.507 Y20.541
X2.503 Y20.691
X2.492 Y20.84
X2.472 Y20.989
X2.443 Y21.136
X2.405 Y21.281
X2.359 Y21.424
X2.305 Y21.564
X2.243 Y21.7
X2.172 Y21.833
X2.094 Y21.961
X2.009 Y22.084
X1.916 Y22.202
X1.817 Y22.315
X1.711 Y22.421
X1.599 Y22.521
X1.482 Y22.614
X1.359 Y22.701
X1.231 Y22.779
X1.1 Y22.851
X0.964 Y22.914
X0.824 Y22.97
X0.682 Y23.018
X0.538 Y23.058
X0.391 Y23.089
X0.243 Y23.112
X0.092 Y23.127
X-0.061 Y23.133
X-0.214 Y23.131
X-0.366 Y23.12
X-0.516 Y23.1
X-0.664 Y23.073
X-0.812 Y23.036
X-0.959 Y22.991
X-1.105 Y22.937
X-1.248 Y22.875
X-1.387 Y22.805
X-1.522 Y22.727
X-1.651 Y22.642
X-1.775 Y22.551
X-1.895 Y22.452
X-2.009 Y22.346
X-2.118 Y22.233
X-2.22 Y22.113
X-2.316 Y21.988
X-2.405 Y21.857
X-2.487 Y21.721
X-2.561 Y21.582
X-2.626 Y21.439
X-2.682 Y21.294
X-2.731 Y21.145
X-2.771 Y20.992
X-2.803 Y20.837
X-2.827 Y20.68
X-2.841 Y20.52
X-2.846 Y20.361
X-2.843 Y20.201
X-2.83 Y20.043
X-2.809 Y19.888
X-2.779 Y19.733
X-2.741 Y19.58
X-2.693 Y19.428
X-2.637 Y19.28
X-2.573 Y19.134
X-2.5 Y18.992
X-2.419 Y18.854
X-2.331 Y18.721
X-2.235 Y18.593
X-2.133 Y18.471
X-2.025 Y18.356
X-1.911 Y18.248
X-1.79 Y18.146
X-1.663 Y18.05
X-1.531 Y17.961
X-1.393 Y17.879
X-1.251 Y17.806
X-1.105 Y17.74
X-0.956 Y17.683
X-0.804 Y17.635
X-0.65 Y17.595
X-0.495 Y17.564
X-0.339 Y17.542
X-0.181 Y17.529
X-0.022 Y17.524
X0.137 Y17.529
X0.296 Y17.542
X0.455 Y17.565
X0.612 Y17.597
X0.768 Y17.637
X0.922 Y17.686
X1.071 Y17.744
X1.218 Y17.81
X1.361 Y17.884
X1.502 Y17.968
X1.64 Y18.061
X1.774 Y18.162
X1.904 Y18.273
X2.027 Y18.39
X2.145 Y18.516
X2.256 Y18.648
X2.36 Y18.788
X2.456 Y18.933
X2.544 Y19.085
X2.624 Y19.241
X2.695 Y19.401
X2.756 Y19.564
X2.808 Y19.73
X2.85 Y19.897
X2.882 Y20.067
X2.905 Y20.238
X2.919 Y20.409
X2.922 Y20.579
X2.916 Y20.749
X2.901 Y20.917
X2.876 Y21.084
X2.842 Y21.249
X2.798 Y21.412
X2.746 Y21.572
X2.685 Y21.727
X2.616 Y21.879
X2.537 Y22.027
X2.451 Y22.17
X2.357 Y22.309
X2.254 Y22.442
X2.145 Y22.569
X2.029 Y22.689
X1.906 Y22.803
X1.777 Y22.91
X1.641 Y23.01
X1.499 Y23.102
X1.351 Y23.187
X1.2 Y23.263
X1.044 Y23.331
X0.883 Y23.39
X0.719 Y23.44
X0.551 Y23.481
X0.381 Y23.513
X0.208 Y23.535
X0.034 Y23.547
X-0.14 Y23.55
X-0.314 Y23.543
X-0.488 Y23.525
X-0.662 Y23.498
X-0.835 Y23.461
X-1.006 Y23.415
X-1.175 Y23.358
X-1.34 Y23.292
X-1.501 Y23.217
X-1.658 Y23.133
X-1.81 Y23.04
X-1.958 Y22.938
X-2.099 Y22.828
X-2.235 Y22.71
X-2.363 Y22.584
X-2.485 Y22.45
X-2.6 Y22.31
X-2.706 Y22.164
X-2.804 Y22.012
X-2.892 Y21.855
X-2.973 Y21.693
X-3.043 Y21.526
X-3.105 Y21.356
X-3.157 Y21.182
X-3.199 Y21.004
X-3.231 Y20.825
X-3.253 Y20.644
X-3.265 Y20.462
X-3.267 Y20.28
X-3.258 Y20.099
X-3.239 Y19.918
X-3.21 Y19.738
X-3.17 Y19.56
X-3.121 Y19.384
X-3.062 Y19.211
X-2.993 Y19.042
X-2.915 Y18.877
X-2.827 Y18.716
X-2.731 Y18.561
X-2.626 Y18.411
X-2.513 Y18.268
X-2.393 Y18.132
X-2.264 Y18.002
X-2.129 Y17.88
X-1.986 Y17.765
X-1.837 Y17.658
X-1.682 Y17.56
X-1.522 Y17.471
X-1.358 Y17.391
X-1.189 Y17.32
X-1.017 Y17.26
X-0.842 Y17.209
X-0.664 Y17.167
X-0.484 Y17.136
X-0.303 Y17.116
X-0.12 Y17.105
X0.063
X0.247 Y17.115
X0.429 Y17.135
X0.611 Y17.166
X0.79 Y17.206
X0.967 Y17.257
X1.142 Y17.318
X1.314 Y17.389
X1.483 Y17.471
X1.648 Y17.562
X1.809 Y17.664
X1.965 Y17.774
X2.116 Y17.895
X2.26 Y18.024
X2.398 Y18.162
X2.528 Y18.308
X2.65 Y18.462
X2.764 Y18.623
X2.869 Y18.791
X2.964 Y18.964
X3.049 Y19.142
X3.124 Y19.324
X3.188 Y19.51
X3.242 Y19.7
X3.285 Y19.891
X3.317 Y20.084
X3.338 Y20.278
X3.348 Y20.472
X3.347 Y20.666
X3.335 Y20.86
X3.313 Y21.052
X3.279 Y21.242
X3.236 Y21.429
X3.181 Y21.614
X3.117 Y21.794
X3.042 Y21.971
X2.958 Y22.144
X2.864 Y22.311
X2.761 Y22.472
X2.649 Y22.628
X2.528 Y22.777
X2.4 Y22.919
X2.263 Y23.054
X2.118 Y23.181
X1.966 Y23.3
X1.808 Y23.41
X1.643 Y23.512
X1.472 Y23.604
X1.296 Y23.687
X1.115 Y23.76
X0.93 Y23.823
X0.74 Y23.875
X0.548 Y23.917
X0.353 Y23.948
X0.157 Y23.968
X-0.041 Y23.977
X-0.24 Y23.975
X-0.439 Y23.961
X-0.637 Y23.937
X-0.835 Y23.901
X-1.03 Y23.854
X-1.222 Y23.796
X-1.411 Y23.727
X-1.597 Y23.647
X-1.778 Y23.557
X-1.954 Y23.457
X-2.124 Y23.347
X-2.289 Y23.227
X-2.446 Y23.097
X-2.596 Y22.959
X-2.739 Y22.813
X-2.873 Y22.659
X-2.998 Y22.497
X-3.114 Y22.328
X-3.22 Y22.153
X-3.317 Y21.972
X-3.403 Y21.786
X-3.479 Y21.594
X-3.543 Y21.399
X-3.597 Y21.2
X-3.64 Y20.998
X-3.671 Y20.795
X-3.69 Y20.589
X-3.698 Y20.383
X-3.695 Y20.177
X-3.68 Y19.971
X-3.653 Y19.767
X-3.614 Y19.564
X-3.565 Y19.363
X-3.504 Y19.165
X-3.432 Y18.971
X-3.349 Y18.781
X-3.256 Y18.597
X-3.152 Y18.418
X-3.039 Y18.245
X-2.916 Y18.079
X-2.783 Y17.92
X-2.642 Y17.768
X-2.493 Y17.625
X-2.335 Y17.49
X-2.171 Y17.364
X-1.999 Y17.248
X-1.821 Y17.142
X-1.638 Y17.045
X-1.449 Y16.96
X-1.257 Y16.885
X-1.06 Y16.821
X-0.859 Y16.768
X-0.656 Y16.727
X-0.451 Y16.697
X-0.244 Y16.678
X-0.037 Y16.671
X0.171 Y16.676
X0.378 Y16.693
X0.585 Y16.721
X0.79 Y16.762
X0.993 Y16.813
X1.193 Y16.876
X1.391 Y16.951
X1.585 Y17.037
X1.774 Y17.135
X1.959 Y17.243
X2.138 Y17.363
X2.312 Y17.493
X2.478 Y17.633
X2.637 Y17.782
X2.788 Y17.942
X2.93 Y18.11
X3.062 Y18.286
X3.185 Y18.469
X3.297 Y18.66
X3.399 Y18.856
X3.489 Y19.058
X3.568 Y19.265
X3.634 Y19.475
X3.689 Y19.689
X3.732 Y19.905
X3.762 Y20.122
X3.78 Y20.341
X3.786 Y20.56
X3.779 Y20.778
X3.761 Y20.995
X3.729 Y21.211
X3.686 Y21.424
X3.632 Y21.634
X3.565 Y21.841
X3.487 Y22.043
X3.398 Y22.24
X3.297 Y22.432
X3.187 Y22.618
X3.066 Y22.798
X2.934 Y22.97
X2.794 Y23.135
X2.644 Y23.292
X2.485 Y23.44
X2.318 Y23.58
X2.143 Y23.709
X1.961 Y23.83
X1.772 Y23.939
X1.577 Y24.039
X1.376 Y24.127
X1.169 Y24.204
X0.959 Y24.27
X0.744 Y24.323
X0.527 Y24.365
X0.307 Y24.394
X0.085 Y24.411
X-0.139 Y24.415
X-0.362 Y24.407
X-0.585 Y24.386
X-0.807 Y24.353
X-1.028 Y24.307
X-1.245 Y24.248
X-1.46 Y24.178
X-1.67 Y24.095
X-1.876 Y24.
X-2.077 Y23.894
X-2.272 Y23.776
X-2.46 Y23.647
X-2.641 Y23.508
X-2.813 Y23.359
X-2.978 Y23.2
X-3.133 Y23.032
X-3.279 Y22.855
X-3.414 Y22.67
X-3.539 Y22.477
X-3.654 Y22.278
X-3.756 Y22.072
X-3.848 Y21.861
X-3.927 Y21.644
X-3.994 Y21.424
X-4.048 Y21.199
X-4.09 Y20.973
X-4.119 Y20.744
X-4.135 Y20.513
X-4.138 Y20.282
X-4.128 Y20.051
X-4.105 Y19.821
X-4.069 Y19.593
X-4.021 Y19.366
X-3.959 Y19.143
X-3.885 Y18.924
X-3.799 Y18.709
X-3.701 Y18.499
X-3.591 Y18.295
X-3.47 Y18.098
X-3.338 Y17.907
X-3.195 Y17.724
X-3.043 Y17.55
X-2.88 Y17.384
X-2.709 Y17.228
X-2.529 Y17.082
X-2.341 Y16.946
X-2.146 Y16.821
X-1.944 Y16.707
X-1.736 Y16.605
X-1.522 Y16.514
X-1.304 Y16.436
X-1.082 Y16.37
X-0.856 Y16.316
X-0.627 Y16.276
X-0.397 Y16.248
X-0.165 Y16.233
X0.068 Y16.232
X0.301 Y16.243
X0.533 Y16.268
X0.764 Y16.306
X0.992 Y16.357
X1.219 Y16.421
X1.442 Y16.497
X1.661 Y16.587
X1.876 Y16.689
X2.086 Y16.804
X2.289 Y16.93
X2.486 Y17.069
X2.676 Y17.219
X2.858 Y17.38
X3.03 Y17.551
X3.193 Y17.733
X3.347 Y17.924
X3.489 Y18.123
X3.62 Y18.331
X3.739 Y18.545
X3.846 Y18.766
X3.941 Y18.993
X4.022 Y19.225
X4.09 Y19.46
X4.145 Y19.699
X4.186 Y19.94
X4.214 Y20.183
X4.228 Y20.427
Y20.67
X4.214 Y20.913
X4.187 Y21.155
X4.146 Y21.394
X4.092 Y21.63
X4.025 Y21.863
X3.945 Y22.091
X3.852 Y22.314
X3.747 Y22.532
X3.629 Y22.743
X3.5 Y22.948
X3.36 Y23.144
X3.209 Y23.333
X3.047 Y23.513
X2.875 Y23.684
X2.694 Y23.845
X2.504 Y23.996
X2.305 Y24.136
X2.098 Y24.264
X1.884 Y24.382
X1.663 Y24.487
X1.437 Y24.579
X1.205 Y24.659
X0.968 Y24.726
X0.727 Y24.78
X0.484 Y24.82
X0.238 Y24.846
X-0.01 Y24.859
X-0.258 Y24.857
X-0.507 Y24.841
X-0.754 Y24.812
X-1. Y24.768
X-1.244 Y24.711
X-1.484 Y24.64
X-1.72 Y24.555
X-1.952 Y24.457
X-2.178 Y24.346
X-2.398 Y24.222
X-2.611 Y24.086
X-2.816 Y23.938
X-3.012 Y23.778
X-3.2 Y23.607
X-3.377 Y23.426
X-3.545 Y23.235
X-3.701 Y23.035
X-3.847 Y22.826
X-3.98 Y22.609
X-4.101 Y22.384
X-4.209 Y22.153
X-4.304 Y21.916
X-4.386 Y21.674
X-4.454 Y21.428
X-4.508 Y21.178
X-4.548 Y20.925
X-4.573 Y20.67
X-4.585 Y20.414
X-4.581 Y20.158
X-4.564 Y19.902
X-4.532 Y19.648
X-4.485 Y19.396
X-4.425 Y19.146
X-4.35 Y18.901
X-4.262 Y18.66
X-4.161 Y18.424
X-4.046 Y18.194
X-3.919 Y17.971
X-3.779 Y17.756
X-3.627 Y17.549
X-3.464 Y17.35
X-3.289 Y17.161
X-3.105 Y16.982
X-2.91 Y16.814
X-2.707 Y16.657
X-2.495 Y16.512
X-2.275 Y16.379
X-2.048 Y16.258
X-1.814 Y16.151
X-1.575 Y16.057
X-1.331 Y15.976
X-1.083 Y15.909
X-0.831 Y15.856
X-0.576 Y15.818
X-0.319 Y15.794
X-0.062 Y15.784
X0.197 Y15.789
X0.454 Y15.809
X0.711 Y15.843
X0.966 Y15.891
X1.219 Y15.954
X1.469 Y16.032
X1.714 Y16.123
X1.955 Y16.229
X2.19 Y16.348
X2.419 Y16.481
X2.641 Y16.627
X2.855 Y16.786
X3.06 Y16.957
X3.256 Y17.14
X3.442 Y17.334
X3.617 Y17.539
X3.78 Y17.754
X3.931 Y17.977
X4.07 Y18.21
X4.195 Y18.449
X4.306 Y18.696
X4.404 Y18.948
X4.487 Y19.205
X4.556 Y19.467
X4.609 Y19.731
X4.648 Y19.998
X4.671 Y20.266
X4.679 Y20.535
X4.673 Y20.804
X4.651 Y21.072
X4.614 Y21.337
X4.562 Y21.6
X4.496 Y21.859
X4.415 Y22.114
X4.32 Y22.364
X4.211 Y22.608
X4.088 Y22.846
X3.953 Y23.076
X3.804 Y23.298
X3.644 Y23.512
X3.471 Y23.716
X3.287 Y23.911
X3.092 Y24.095
X2.887 Y24.267
X2.672 Y24.429
X2.449 Y24.578
X2.217 Y24.714
X1.977 Y24.837
X1.73 Y24.947
X1.477 Y25.043
X1.219 Y25.125
X0.955 Y25.192
X0.689 Y25.244
X0.419 Y25.282
X0.146 Y25.304
X-0.127 Y25.31
X-0.401 Y25.302
X-0.674 Y25.277
X-0.946 Y25.238
X-1.216 Y25.183
X-1.483 Y25.113
X-1.746 Y25.028
X-2.003 Y24.928
X-2.256 Y24.813
X-2.502 Y24.684
X-2.74 Y24.542
X-2.97 Y24.386
X-3.192 Y24.217
X-3.403 Y24.036
X-3.605 Y23.843
X-3.795 Y23.638
X-3.974 Y23.423
X-4.141 Y23.198
X-4.295 Y22.964
X-4.435 Y22.722
X-4.562 Y22.472
X-4.674 Y22.214
X-4.772 Y21.951
X-4.855 Y21.683
X-4.923 Y21.41
X-4.975 Y21.133
X-5.012 Y20.854
X-5.033 Y20.574
X-5.038 Y20.292
X-5.027 Y20.011
X-5. Y19.73
X-4.958 Y19.451
X-4.9 Y19.175
X-4.826 Y18.903
X-4.738 Y18.635
X-4.634 Y18.373
X-4.516 Y18.116
X-4.383 Y17.867
X-4.237 Y17.626
X-4.077 Y17.393
X-3.904 Y17.17
X-3.719 Y16.956
X-3.522 Y16.753
X-3.314 Y16.562
X-3.096 Y16.383
X-2.868 Y16.216
X-2.631 Y16.063
X-2.385 Y15.922
X-2.133 Y15.796
X-1.873 Y15.685
X-1.607 Y15.588
X-1.336 Y15.506
X-1.061 Y15.44
X-0.783 Y15.389
X-0.502 Y15.354
X-0.219 Y15.335
X0.065 Y15.331
X0.349 Y15.344
X0.632 Y15.373
X0.914 Y15.418
X1.193 Y15.478
X1.47 Y15.555
X1.742 Y15.647
X2.009 Y15.754
X2.271 Y15.877
X2.526 Y16.015
X2.774 Y16.168
X3.013 Y16.334
X3.243 Y16.514
X3.463 Y16.708
X3.673 Y16.914
X3.871 Y17.132
X4.056 Y17.361
X4.229 Y17.6
X4.388 Y17.849
X4.533 Y18.107
X4.663 Y18.373
X4.778 Y18.645
X4.878 Y18.924
X4.961 Y19.207
X5.029 Y19.495
X5.08 Y19.786
X5.115 Y20.079
X5.133 Y20.373
X5.134 Y20.667
X5.119 Y20.961
X5.088 Y21.254
X5.04 Y21.544
X4.976 Y21.83
X4.896 Y22.112
X4.8 Y22.389
X4.689 Y22.661
X4.562 Y22.925
X4.421 Y23.182
X4.266 Y23.431
X4.097 Y23.67
X3.915 Y23.9
X3.72 Y24.119
X3.513 Y24.327
X3.294 Y24.523
X3.064 Y24.707
X2.824 Y24.878
X2.575 Y25.035
X2.316 Y25.178
X2.05 Y25.307
X1.776 Y25.42
X1.496 Y25.518
X1.211 Y25.6
X0.921 Y25.666
X0.627 Y25.716
X0.33 Y25.749
X0.032 Y25.766
X-0.268 Y25.765
X-0.567 Y25.748
X-0.865 Y25.714
X-1.162 Y25.663
X-1.456 Y25.595
X-1.745 Y25.511
X-2.03 Y25.41
X-2.309 Y25.294
X-2.582 Y25.162
X-2.847 Y25.014
X-3.104 Y24.851
X-3.351 Y24.675
X-3.588 Y24.484
X-3.814 Y24.28
X-4.029 Y24.063
X-4.231 Y23.835
X-4.421 Y23.595
X-4.596 Y23.345
X-4.758 Y23.085
X-4.904 Y22.816
X-5.036 Y22.539
X-5.151 Y22.255
X-5.251 Y21.965
X-5.334 Y21.67
X-5.4 Y21.37
X-5.449 Y21.067
X-5.481 Y20.761
X-5.496 Y20.454
X-5.494 Y20.146
X-5.474 Y19.839
X-5.437 Y19.534
X-5.383 Y19.231
X-5.312 Y18.931
X-5.224 Y18.636
X-5.12 Y18.346
X-4.999 Y18.063
X-4.863 Y17.787
X-4.711 Y17.518
X-4.545 Y17.259
X-4.364 Y17.009
X-4.169 Y16.77
X-3.961 Y16.543
X-3.741 Y16.327
X-3.509 Y16.124
X-3.265 Y15.935
X-3.012 Y15.759
X-2.749 Y15.598
X-2.477 Y15.452
X-2.197 Y15.322
X-1.911 Y15.207
X-1.618 Y15.109
X-1.32 Y15.027
X-1.018 Y14.962
X-0.712 Y14.915
X-0.404 Y14.884
X-0.095 Y14.871
X0.215 Y14.876
X0.525 Y14.897
X0.834 Y14.937
X1.14 Y14.994
X1.444 Y15.068
X1.743 Y15.159
X2.038 Y15.267
X2.327 Y15.392
X2.609 Y15.534
X2.883 Y15.691
X3.149 Y15.864
X3.405 Y16.052
X3.651 Y16.255
X3.885 Y16.472
X4.107 Y16.702
X4.316 Y16.944
X4.512 Y17.199
X4.693 Y17.464
X4.859 Y17.739
X5.009 Y18.023
X5.143 Y18.316
X5.261 Y18.615
X5.361 Y18.921
X5.444 Y19.231
X5.509 Y19.546
X5.557 Y19.863
X5.586 Y20.183
X5.598 Y20.503
X5.591 Y20.824
X5.567 Y21.143
X5.524 Y21.46
X5.464 Y21.774
X5.386 Y22.084
X5.291 Y22.389
X5.179 Y22.688
X5.05 Y22.98
X4.905 Y23.264
X4.745 Y23.54
X4.569 Y23.807
X4.378 Y24.063
X4.173 Y24.308
X3.955 Y24.541
X3.723 Y24.762
X3.479 Y24.969
X3.224 Y25.163
X2.958 Y25.342
X2.682 Y25.506
X2.397 Y25.655
X2.103 Y25.787
X1.802 Y25.903
X1.495 Y26.002
X1.182 Y26.083
X0.864 Y26.147
X0.543 Y26.193
X0.22 Y26.221
X-0.105 Y26.23
X-0.431 Y26.222
X-0.756 Y26.194
X-1.079 Y26.149
X-1.4 Y26.085
X-1.717 Y26.003
X-2.03 Y25.904
X-2.337 Y25.787
X-2.637 Y25.652
X-2.929 Y25.501
X-3.213 Y25.333
X-3.487 Y25.149
X-3.75 Y24.951
X-4.003 Y24.737
X-4.243 Y24.509
X-4.47 Y24.268
X-4.683 Y24.014
X-4.882 Y23.749
X-5.065 Y23.472
X-5.233 Y23.186
X-5.385 Y22.89
X-5.519 Y22.586
X-5.637 Y22.275
X-5.737 Y21.957
X-5.819 Y21.634
X-5.882 Y21.307
X-5.927 Y20.977
X-5.954 Y20.644
X-5.961 Y20.311
X-5.95 Y19.977
X-5.92 Y19.645
X-5.872 Y19.315
X-5.804 Y18.988
X-5.719 Y18.665
X-5.615 Y18.347
X-5.494 Y18.036
X-5.356 Y17.732
X-5.2 Y17.436
X-5.028 Y17.149
X-4.84 Y16.872
X-4.637 Y16.607
X-4.419 Y16.353
X-4.187 Y16.112
X-3.942 Y15.884
X-3.685 Y15.671
X-3.416 Y15.472
X-3.136 Y15.289
X-2.846 Y15.121
X-2.547 Y14.971
X-2.24 Y14.837
X-1.926 Y14.721
X-1.606 Y14.622
X-1.281 Y14.542
X-0.951 Y14.48
X-0.618 Y14.437
X-0.283 Y14.413
X0.053 Y14.407
X0.389 Y14.421
X0.725 Y14.453
X1.059 Y14.504
X1.389 Y14.574
X1.717 Y14.663
X2.039 Y14.771
X2.355 Y14.896
X2.665 Y15.04
X2.967 Y15.201
X3.259 Y15.379
X3.542 Y15.574
X3.815 Y15.785
X4.075 Y16.011
X4.322 Y16.252
X4.556 Y16.507
X4.776 Y16.775
X4.98 Y17.056
X5.169 Y17.348
X5.34 Y17.65
X5.495 Y17.961
X5.632 Y18.281
X5.75 Y18.608
X5.85 Y18.94
X5.931 Y19.278
X5.993 Y19.62
X6.036 Y19.965
X6.059 Y20.311
X6.062 Y20.658
X6.046 Y21.004
X6.011 Y21.348
X5.956 Y21.69
X5.882 Y22.028
X5.789 Y22.361
X5.678 Y22.688
X5.548 Y23.008
X5.401 Y23.321
X5.236 Y23.625
X5.055 Y23.918
X4.857 Y24.202
X4.644 Y24.474
X4.415 Y24.733
X4.172 Y24.979
X3.915 Y25.212
X3.646 Y25.43
X3.364 Y25.632
X3.071 Y25.819
X2.768 Y25.989
X2.455 Y26.141
X2.134 Y26.276
X1.805 Y26.393
X1.47 Y26.491
X1.129 Y26.571
X0.784 Y26.631
X0.436 Y26.672
X0.085 Y26.693
X-0.266 Y26.694
X-0.618 Y26.676
X-0.968 Y26.637
X-1.317 Y26.579
X-1.662 Y26.501
X-2.002 Y26.404
X-2.337 Y26.288
X-2.665 Y26.153
X-2.985 Y25.999
X-3.297 Y25.828
X-3.598 Y25.639
X-3.889 Y25.433
X-4.168 Y25.211
X-4.434 Y24.973
X-4.687 Y24.721
X-4.925 Y24.454
X-5.148 Y24.174
X-5.355 Y23.882
X-5.546 Y23.579
X-5.719 Y23.265
X-5.874 Y22.942
X-6.011 Y22.61
X-6.129 Y22.271
X-6.228 Y21.926
X-6.308 Y21.575
X-6.367 Y21.221
X-6.407 Y20.863
X-6.426 Y20.504
X-6.425 Y20.144
X-6.404 Y19.785
X-6.362 Y19.427
X-6.3 Y19.072
X-6.219 Y18.721
X-6.118 Y18.375
X-5.997 Y18.036
X-5.858 Y17.703
X-5.7 Y17.379
X-5.524 Y17.064
X-5.331 Y16.76
X-5.12 Y16.467
X-4.894 Y16.186
X-4.652 Y15.919
X-4.396 Y15.665
X-4.125 Y15.426
X-3.841 Y15.203
X-3.546 Y14.996
X-3.239 Y14.807
X-2.922 Y14.634
X-2.595 Y14.48
X-2.261 Y14.344
X-1.919 Y14.228
X-1.571 Y14.131
X-1.218 Y14.053
X-0.86 Y13.995
X-0.5 Y13.958
X-0.138 Y13.941
X0.225 Y13.944
X0.587 Y13.968
X0.948 Y14.012
X1.307 Y14.077
X1.662 Y14.162
X2.012 Y14.267
X2.357 Y14.391
X2.694 Y14.536
X3.024 Y14.699
X3.345 Y14.881
X3.655 Y15.081
X3.955 Y15.299
X4.242 Y15.533
X4.516 Y15.784
X4.776 Y16.051
X5.02 Y16.332
X5.249 Y16.626
X5.461 Y16.933
X5.656 Y17.252
X5.832 Y17.582
X5.99 Y17.921
X6.128 Y18.268
X6.246 Y18.623
X6.345 Y18.984
X6.422 Y19.349
X6.479 Y19.718
X6.516 Y20.09
X6.531 Y20.463
X6.525 Y20.836
X6.498 Y21.208
X6.45 Y21.577
X6.382 Y21.943
X6.293 Y22.305
X6.184 Y22.66
X6.055 Y23.009
X5.907 Y23.35
X5.74 Y23.683
X5.554 Y24.005
X5.351 Y24.316
X5.13 Y24.616
X4.893 Y24.902
X4.639 Y25.175
X4.371 Y25.434
X4.088 Y25.677
X3.792 Y25.904
X3.483 Y26.114
X3.163 Y26.307
X2.832 Y26.481
X2.491 Y26.637
X2.142 Y26.773
X1.785 Y26.89
X1.422 Y26.986
X1.053 Y27.062
X0.68 Y27.117
X0.304 Y27.151
X-0.073 Y27.164
X-0.451 Y27.156
X-0.829 Y27.126
X-1.205 Y27.075
X-1.578 Y27.003
X-1.946 Y26.91
X-2.309 Y26.796
X-2.666 Y26.662
X-3.014 Y26.508
X-3.354 Y26.334
X-3.684 Y26.141
X-4.003 Y25.93
X-4.31 Y25.701
X-4.603 Y25.455
X-4.883 Y25.192
X-5.147 Y24.914
X-5.396 Y24.621
X-5.627 Y24.315
X-5.842 Y23.995
X-6.038 Y23.664
X-6.215 Y23.322
X-6.373 Y22.971
X-6.511 Y22.611
X-6.628 Y22.244
X-6.725 Y21.871
X-6.8 Y21.492
X-6.854 Y21.11
X-6.887 Y20.725
X-6.897 Y20.339
X-6.886 Y19.953
X-6.854 Y19.568
X-6.799 Y19.185
X-6.723 Y18.806
X-6.626 Y18.432
X-6.508 Y18.063
X-6.37 Y17.702
X-6.211 Y17.349
X-6.032 Y17.006
X-5.835 Y16.673
X-5.619 Y16.352
X-5.385 Y16.043
X-5.135 Y15.748
X-4.868 Y15.468
X-4.585 Y15.203
X-4.288 Y14.954
X-3.978 Y14.723
X-3.655 Y14.509
X-3.32 Y14.314
X-2.975 Y14.137
X-2.621 Y13.981
X-2.258 Y13.845
X-1.888 Y13.729
X-1.512 Y13.634
X-1.13 Y13.561
X-0.745 Y13.509
X-0.358 Y13.478
X0.031 Y13.47
X0.421 Y13.484
X0.809 Y13.519
X1.195 Y13.577
X1.579 Y13.656
X1.957 Y13.757
X2.33 Y13.879
X2.697 Y14.022
X3.055 Y14.186
X3.404 Y14.371
X3.743 Y14.575
X4.071 Y14.798
X4.386 Y15.04
X4.687 Y15.299
X4.973 Y15.575
X5.244 Y15.868
X5.499 Y16.175
X5.736 Y16.497
X5.954 Y16.832
X6.154 Y17.179
X6.333 Y17.536
X6.493 Y17.904
X6.631 Y18.279
X6.748 Y18.662
X6.843 Y19.051
X6.916 Y19.444
X6.967 Y19.841
X6.996 Y20.24
X7.002 Y20.639
X6.985 Y21.038
X6.946 Y21.435
X6.885 Y21.83
X6.802 Y22.22
X6.697 Y22.604
X6.57 Y22.982
X6.423 Y23.353
X6.254 Y23.714
X6.066 Y24.065
X5.858 Y24.405
X5.632 Y24.733
X5.387 Y25.048
X5.125 Y25.348
X4.846 Y25.634
X4.551 Y25.903
X4.242 Y26.156
X3.918 Y26.391
X3.582 Y26.608
X3.233 Y26.805
X2.874 Y26.983
X2.504 Y27.14
X2.127 Y27.277
X1.741 Y27.392
X1.349 Y27.485
X0.952 Y27.556
X0.552 Y27.605
X0.149 Y27.631
X-0.256 Y27.635
X-0.661 Y27.615
X-1.064 Y27.573
X-1.465 Y27.508
X-1.862 Y27.421
X-2.253 Y27.311
X-2.639 Y27.179
X-3.017 Y27.026
X-3.385 Y26.851
X-3.744 Y26.656
X-4.092 Y26.441
X-4.427 Y26.206
X-4.748 Y25.952
X-5.056 Y25.681
X-5.347 Y25.393
X-5.622 Y25.088
X-5.88 Y24.768
X-6.119 Y24.434
X-6.339 Y24.087
X-6.54 Y23.728
X-6.72 Y23.357
X-6.879 Y22.977
X-7.017 Y22.589
X-7.132 Y22.193
X-7.225 Y21.792
X-7.295 Y21.385
X-7.342 Y20.975
X-7.366 Y20.563
X-7.367 Y20.15
X-7.345 Y19.738
X-7.299 Y19.327
X-7.231 Y18.92
X-7.139 Y18.517
X-7.025 Y18.12
X-6.889 Y17.729
X-6.731 Y17.347
X-6.552 Y16.974
X-6.352 Y16.612
X-6.131 Y16.262
X-5.892 Y15.925
X-5.634 Y15.602
X-5.358 Y15.293
X-5.065 Y15.001
X-4.756 Y14.726
X-4.432 Y14.468
X-4.094 Y14.229
X-3.743 Y14.01
X-3.38 Y13.81
X-3.006 Y13.631
X-2.623 Y13.474
X-2.232 Y13.338
X-1.833 Y13.225
X-1.428 Y13.134
X-1.019 Y13.066
X-0.606 Y13.021
X-0.191 Y12.999
X0.225 Y13.001
X0.641 Y13.026
X1.055 Y13.075
X1.467 Y13.147
X1.874 Y13.242
X2.276 Y13.36
X2.671 Y13.501
X3.059 Y13.665
X3.437 Y13.85
X3.805 Y14.056
X4.161 Y14.283
X4.504 Y14.53
X4.834 Y14.797
X5.148 Y15.082
X5.447 Y15.385
X5.728 Y15.704
X5.991 Y16.039
X6.234 Y16.389
X6.458 Y16.752
X6.661 Y17.127
X6.843 Y17.514
X7.003 Y17.909
X7.14 Y18.314
X7.254 Y18.725
X7.345 Y19.142
X7.412 Y19.563
X7.456 Y19.987
X7.475 Y20.413
X7.471 Y20.839
X7.442 Y21.265
X7.39 Y21.687
X7.313 Y22.106
X7.214 Y22.52
X7.091 Y22.927
X6.946 Y23.327
X6.778 Y23.717
X6.589 Y24.098
X6.379 Y24.468
X6.148 Y24.825
X5.897 Y25.169
X5.627 Y25.498
X5.339 Y25.811
X5.034 Y26.108
X4.712 Y26.388
X4.375 Y26.649
X4.023 Y26.89
X3.658 Y27.112
X3.281 Y27.313
X2.893 Y27.493
X2.494 Y27.651
X2.087 Y27.786
X1.673 Y27.898
X1.253 Y27.987
X0.828 Y28.052
X0.399 Y28.093
X-0.032 Y28.11
X-0.463 Y28.103
X-0.894 Y28.071
X-1.323 Y28.015
X-1.748 Y27.935
X-2.169 Y27.831
X-2.583 Y27.703
X-2.991 Y27.552
X-3.389 Y27.378
X-3.777 Y27.182
X-4.154 Y26.964
X-4.518 Y26.725
X-4.869 Y26.466
X-5.205 Y26.187
X-5.524 Y25.89
X-5.827 Y25.574
X-6.112 Y25.242
X-6.377 Y24.895
X-6.623 Y24.532
X-6.848 Y24.156
X-7.052 Y23.768
X-7.233 Y23.369
X-7.392 Y22.96
X-7.528 Y22.543
X-7.64 Y22.119
X-7.728 Y21.688
X-7.792 Y21.254
X-7.831 Y20.816
X-7.845 Y20.377
X-7.835 Y19.937
X-7.8 Y19.499
X-7.74 Y19.063
X-7.656 Y18.631
X-7.547 Y18.204
X-7.415 Y17.785
X-7.259 Y17.373
X-7.081 Y16.971
X-6.879 Y16.579
X-6.657 Y16.199
X-6.413 Y15.832
X-6.149 Y15.48
X-5.865 Y15.143
X-5.563 Y14.822
X-5.243 Y14.519
X-4.906 Y14.234
X-4.555 Y13.969
X-4.188 Y13.724
X-3.809 Y13.5
X-3.417 Y13.297
X-3.014 Y13.117
X-2.602 Y12.96
X-2.182 Y12.827
X-1.754 Y12.717
X-1.321 Y12.631
X-0.883 Y12.57
X-0.442 Y12.533
X0.001 Y12.522
X0.444 Y12.535
X0.886 Y12.573
X1.325 Y12.636
X1.761 Y12.724
X2.192 Y12.837
X2.617 Y12.974
X3.034 Y13.134
X3.442 Y13.319
X3.839 Y13.526
X4.225 Y13.756
X4.598 Y14.007
X4.957 Y14.279
X5.3 Y14.572
X5.626 Y14.884
X5.935 Y15.214
X6.225 Y15.561
X6.495 Y15.924
X6.745 Y16.302
X6.973 Y16.694
X7.178 Y17.099
X7.361 Y17.514
X7.52 Y17.939
X7.654 Y18.372
X7.764 Y18.812
X7.85 Y19.257
X7.909 Y19.707
X7.944 Y20.159
X7.953 Y20.612
X7.936 Y21.064
X7.894 Y21.515
X7.827 Y21.963
X7.735 Y22.406
X7.618 Y22.842
X7.476 Y23.272
X7.311 Y23.693
X7.122 Y24.104
X6.911 Y24.503
X6.677 Y24.89
X6.421 Y25.264
X6.145 Y25.622
X5.85 Y25.965
X5.535 Y26.29
X5.202 Y26.597
X4.852 Y26.886
X4.487 Y27.154
X4.106 Y27.402
X3.712 Y27.627
X3.306 Y27.831
X2.888 Y28.011
X2.46 Y28.168
X2.024 Y28.301
X1.581 Y28.409
X1.132 Y28.491
X0.678 Y28.549
X0.221 Y28.581
X-0.237 Y28.587
X-0.695 Y28.567
X-1.152 Y28.522
X-1.606 Y28.451
X-2.055 Y28.354
X-2.499 Y28.232
X-2.936 Y28.085
X-3.364 Y27.913
X-3.783 Y27.718
X-4.19 Y27.499
X-4.584 Y27.257
X-4.964 Y26.994
X-5.329 Y26.709
X-5.678 Y26.404
X-6.009 Y26.079
X-6.322 Y25.736
X-6.615 Y25.376
X-6.887 Y25.
X-7.138 Y24.609
X-7.367 Y24.204
X-7.573 Y23.786
X-7.754 Y23.358
X-7.912 Y22.92
X-8.044 Y22.473
X-8.152 Y22.019
X-8.233 Y21.56
X-8.289 Y21.098
X-8.319 Y20.632
X-8.322 Y20.165
X-8.299 Y19.699
X-8.25 Y19.235
X-8.174 Y18.774
X-8.073 Y18.319
X-7.946 Y17.869
X-7.795 Y17.427
X-7.618 Y16.995
X-7.418 Y16.573
X-7.194 Y16.163
X-6.947 Y15.766
X-6.678 Y15.383
X-6.388 Y15.017
X-6.078 Y14.667
X-5.749 Y14.335
X-5.401 Y14.022
X-5.037 Y13.729
X-4.656 Y13.457
X-4.261 Y13.207
X-3.852 Y12.98
X-3.431 Y12.776
X-2.999 Y12.596
X-2.557 Y12.44
X-2.107 Y12.31
X-1.65 Y12.205
X-1.188 Y12.126
X-0.722 Y12.073
X-0.253 Y12.046
X0.217
X0.687 Y12.072
X1.155 Y12.125
X1.62 Y12.204
X2.08 Y12.309
X2.534 Y12.44
X2.981 Y12.597
X3.419 Y12.779
X3.847 Y12.986
X4.262 Y13.216
X4.665 Y13.47
X5.054 Y13.747
X5.426 Y14.046
X5.782 Y14.365
X6.12 Y14.704
X6.438 Y15.062
X6.736 Y15.438
X7.012 Y15.831
X7.266 Y16.238
X7.497 Y16.659
X7.703 Y17.093
X7.885 Y17.538
X8.042 Y17.992
X8.173 Y18.454
X8.278 Y18.923
X8.356 Y19.397
X8.407 Y19.875
X8.431 Y20.354
X8.428 Y20.834
X8.398 Y21.313
X8.342 Y21.79
X8.258 Y22.262
X8.148 Y22.729
X8.012 Y23.188
X7.851 Y23.64
X7.664 Y24.081
X7.453 Y24.511
X7.218 Y24.929
X6.96 Y25.333
X6.679 Y25.721
X6.377 Y26.094
X6.054 Y26.448
X5.711 Y26.785
X5.35 Y27.101
X4.972 Y27.397
X4.577 Y27.672
X4.167 Y27.924
X3.743 Y28.152
X3.307 Y28.357
X2.86 Y28.536
X2.402 Y28.691
X1.936 Y28.82
X1.464 Y28.922
X0.986 Y28.997
X0.504 Y29.046
X0.019 Y29.067
X-0.466 Y29.061
X-0.951 Y29.028
X-1.434 Y28.967
X-1.912 Y28.88
X-2.386 Y28.765
X-2.853 Y28.624
X-3.311 Y28.456
X-3.76 Y28.263
X-4.197 Y28.045
X-4.622 Y27.802
X-5.033 Y27.535
X-5.428 Y27.246
X-5.807 Y26.934
X-6.168 Y26.602
X-6.509 Y26.249
X-6.831 Y25.878
X-7.131 Y25.489
X-7.409 Y25.083
X-7.664 Y24.663
X-7.895 Y24.228
X-8.101 Y23.781
X-8.282 Y23.322
X-8.437 Y22.854
X-8.565 Y22.378
X-8.666 Y21.896
X-8.74 Y21.408
X-8.786 Y20.917
X-8.805 Y20.423
X-8.795 Y19.93
X-8.758 Y19.437
X-8.694 Y18.948
X-8.601 Y18.462
X-8.482 Y17.983
X-8.336 Y17.511
X-8.163 Y17.048
X-7.965 Y16.595
X-7.741 Y16.154
X-7.493 Y15.726
X-7.221 Y15.313
X-6.927 Y14.916
X-6.61 Y14.536
X-6.273 Y14.175
X-5.915 Y13.832
X-5.539 Y13.511
X-5.145 Y13.211
X-4.735 Y12.934
X-4.311 Y12.68
X-3.872 Y12.451
X-3.421 Y12.247
X-2.959 Y12.068
X-2.487 Y11.915
X-2.008 Y11.79
X-1.522 Y11.691
X-1.031 Y11.62
X-0.536 Y11.577
X-0.039 Y11.561
X0.458 Y11.574
X0.954 Y11.614
X1.448 Y11.683
X1.938 Y11.779
X2.422 Y11.903
X2.899 Y12.054
X3.367 Y12.232
X3.825 Y12.436
X4.272 Y12.666
X4.705 Y12.921
X5.124 Y13.201
X5.528 Y13.504
X5.913 Y13.83
X6.281 Y14.177
X6.628 Y14.545
X6.955 Y14.932
X7.259 Y15.337
X7.54 Y15.759
X7.797 Y16.196
X8.03 Y16.647
X8.236 Y17.11
X8.416 Y17.585
X8.569 Y18.068
X8.695 Y18.56
X8.793 Y19.058
X8.862 Y19.56
X8.903 Y20.066
X8.916 Y20.573
X8.9 Y21.08
X8.856 Y21.585
X8.783 Y22.086
X8.682 Y22.583
X8.554 Y23.073
X8.398 Y23.555
X8.215 Y24.027
X8.006 Y24.489
X7.771 Y24.937
X7.511 Y25.372
X7.227 Y25.792
X6.92 Y26.195
X6.591 Y26.58
X6.24 Y26.947
X5.87 Y27.293
X5.48 Y27.617
X5.072 Y27.92
X4.649 Y28.199
X4.21 Y28.453
X3.757 Y28.683
X3.293 Y28.887
X2.818 Y29.064
X2.333 Y29.215
X1.841 Y29.338
X1.343 Y29.434
X0.84 Y29.501
X0.335 Y29.541
X-0.173 Y29.552
X-0.68 Y29.535
X-1.185 Y29.49
X-1.687 Y29.416
X-2.184 Y29.315
X-2.675 Y29.186
X-3.157 Y29.03
X-3.631 Y28.848
X-4.093 Y28.64
X-4.544 Y28.406
X-4.98 Y28.148
X-5.402 Y27.866
X-5.808 Y27.561
X-6.196 Y27.235
X-6.565 Y26.887
X-6.915 Y26.52
X-7.244 Y26.134
X-7.551 Y25.73
X-7.836 Y25.31
X-8.097 Y24.875
X-8.334 Y24.427
X-8.545 Y23.966
X-8.731 Y23.494
X-8.891 Y23.012
X-9.025 Y22.523
X-9.131 Y22.027
X-9.21 Y21.526
X-9.261 Y21.021
X-9.284 Y20.514
X-9.28 Y20.007
X-9.248 Y19.501
X-9.188 Y18.997
X-9.1 Y18.497
X-8.986 Y18.003
X-8.844 Y17.516
X-8.677 Y17.037
X-8.483 Y16.568
X-8.263 Y16.111
X-8.02 Y15.666
X-7.752 Y15.235
X-7.461 Y14.82
X-7.147 Y14.421
X-6.812 Y14.04
X-6.457 Y13.677
X-6.083 Y13.335
X-5.69 Y13.014
X-5.281 Y12.715
X-4.855 Y12.439
X-4.415 Y12.186
X-3.962 Y11.958
X-3.497 Y11.756
X-3.021 Y11.579
X-2.537 Y11.428
X-2.045 Y11.304
X-1.547 Y11.207
X-1.045 Y11.137
X-0.539 Y11.095
X-0.032 Y11.08
X0.475 Y11.093
X0.981 Y11.133
X1.483 Y11.201
X1.982 Y11.296
X2.474 Y11.418
X2.959 Y11.566
X3.436 Y11.74
X3.902 Y11.94
X4.357 Y12.165
X4.799 Y12.414
X5.227 Y12.686
X5.64 Y12.98
X6.036 Y13.297
X6.415 Y13.634
X6.776 Y13.991
X7.116 Y14.367
X7.436 Y14.761
X7.733 Y15.172
X8.009 Y15.598
X8.261 Y16.038
X8.489 Y16.491
X8.693 Y16.956
X8.872 Y17.43
X9.025 Y17.914
X9.153 Y18.405
X9.254 Y18.902
X9.328 Y19.404
X9.376 Y19.909
X9.397 Y20.416
X9.39 Y20.923
X9.357 Y21.429
X9.297 Y21.933
X9.209 Y22.432
X9.096 Y22.927
X8.956 Y23.414
X8.789 Y23.894
X8.597 Y24.363
X8.38 Y24.822
X8.139 Y25.268
X7.874 Y25.701
X7.586 Y26.118
X7.277 Y26.52
X6.946 Y26.905
X6.596 Y27.272
X6.226 Y27.619
X5.839 Y27.947
X5.434 Y28.253
X5.014 Y28.537
X4.58 Y28.799
X4.132 Y29.037
X3.672 Y29.251
X3.201 Y29.44
X2.721 Y29.604
X2.233 Y29.742
X1.738 Y29.855
X1.238 Y29.94
X0.734 Y29.998
X0.228 Y30.029
X-0.279 Y30.034
X-0.786 Y30.012
X-1.291 Y29.962
X-1.793 Y29.887
X-2.29 Y29.785
X-2.781 Y29.657
X-3.264 Y29.503
X-3.739 Y29.324
X-4.203 Y29.121
X-4.657 Y28.893
X-5.098 Y28.642
X-5.525 Y28.368
X-5.937 Y28.072
X-6.333 Y27.755
X-6.712 Y27.418
X-7.072 Y27.061
X-7.414 Y26.686
X-7.735 Y26.294
X-8.035 Y25.885
X-8.313 Y25.46
X-8.568 Y25.022
X-8.8 Y24.571
X-9.009 Y24.108
X-9.193 Y23.636
X-9.352 Y23.154
X-9.486 Y22.665
X-9.594 Y22.169
X-9.676 Y21.668
X-9.732 Y21.164
X-9.762 Y20.658
X-9.766 Y20.151
X-9.743 Y19.644
X-9.694 Y19.139
X-9.619 Y18.637
X-9.518 Y18.14
X-9.391 Y17.649
X-9.239 Y17.165
X-9.061 Y16.69
X-8.858 Y16.225
X-8.632 Y15.771
X-8.382 Y15.329
X-8.11 Y14.901
X-7.815 Y14.488
X-7.5 Y14.091
X-7.164 Y13.71
X-6.81 Y13.348
X-6.437 Y13.004
X-6.046 Y12.68
X-5.639 Y12.377
X-5.217 Y12.096
X-4.781 Y11.837
X-4.332 Y11.601
X-3.871 Y11.389
X-3.4 Y11.201
X-2.92 Y11.037
X-2.432 Y10.899
X-1.937 Y10.786
X-1.437 Y10.699
X-0.934 Y10.638
X-0.428 Y10.604
X0.08 Y10.597
X0.587 Y10.615
X1.092 Y10.66
X1.594 Y10.73
X2.092 Y10.827
X2.585 Y10.948
X3.07 Y11.095
X3.548 Y11.267
X4.016 Y11.463
X4.473 Y11.682
X4.919 Y11.925
X5.351 Y12.19
X5.77 Y12.476
X6.173 Y12.784
X6.56 Y13.111
X6.931 Y13.458
X7.282 Y13.824
X7.615 Y14.207
X7.927 Y14.607
X8.217 Y15.023
X8.486 Y15.453
X8.733 Y15.896
X8.957 Y16.351
X9.158 Y16.817
X9.335 Y17.293
X9.488 Y17.776
X9.616 Y18.267
X9.719 Y18.764
X9.797 Y19.265
X9.849 Y19.77
X9.876 Y20.276
X9.877 Y20.784
X9.853 Y21.29
X9.803 Y21.795
X9.727 Y22.297
X9.626 Y22.794
X9.5 Y23.285
X9.349 Y23.77
X9.173 Y24.245
X8.972 Y24.711
X8.748 Y25.166
X8.5 Y25.609
X8.23 Y26.038
X7.939 Y26.454
X7.628 Y26.854
X7.296 Y27.238
X6.945 Y27.605
X6.577 Y27.953
X6.191 Y28.282
X5.789 Y28.592
X5.372 Y28.88
X4.94 Y29.148
X4.496 Y29.393
X4.04 Y29.615
X3.574 Y29.814
X3.098 Y29.99
X2.614 Y30.141
X2.122 Y30.268
X1.625 Y30.369
X1.124 Y30.444
X0.619 Y30.494
X0.112 Y30.517
X-0.395 Y30.515
X-0.902 Y30.488
X-1.406 Y30.435
X-1.908 Y30.357
X-2.404 Y30.254
X-2.895 Y30.126
X-3.379 Y29.974
X-3.855 Y29.797
X-4.321 Y29.598
X-4.777 Y29.375
X-5.221 Y29.13
X-5.652 Y28.863
X-6.07 Y28.575
X-6.473 Y28.266
X-6.86 Y27.938
X-7.23 Y27.592
X-7.582 Y27.227
X-7.916 Y26.844
X-8.229 Y26.446
X-8.522 Y26.031
X-8.793 Y25.603
X-9.043 Y25.161
X-9.271 Y24.708
X-9.476 Y24.244
X-9.658 Y23.77
X-9.816 Y23.288
X-9.95 Y22.799
X-10.059 Y22.304
X-10.144 Y21.804
X-10.205 Y21.3
X-10.24 Y20.794
X-10.25 Y20.287
X-10.235 Y19.78
X-10.196 Y19.274
X-10.131 Y18.771
X-10.041 Y18.271
X-9.927 Y17.777
X-9.789 Y17.289
X-9.627 Y16.808
X-9.44 Y16.337
X-9.229 Y15.875
X-8.996 Y15.425
X-8.74 Y14.987
X-8.463 Y14.562
X-8.166 Y14.151
X-7.849 Y13.755
X-7.512 Y13.375
X-7.157 Y13.013
X-6.785 Y12.668
X-6.396 Y12.342
X-5.992 Y12.036
X-5.572 Y11.751
X-5.14 Y11.486
X-4.694 Y11.243
X-4.238 Y11.022
X-3.77 Y10.825
X-3.294 Y10.65
X-2.81 Y10.499
X-2.319 Y10.372
X-1.822 Y10.27
X-1.32 Y10.193
X-0.816 Y10.141
X-0.309 Y10.115
X0.198 Y10.114
X0.705 Y10.138
X1.21 Y10.187
X1.712 Y10.26
X2.21 Y10.358
X2.702 Y10.48
X3.188 Y10.626
X3.666 Y10.795
X4.135 Y10.988
X4.595 Y11.203
X5.043 Y11.44
X5.48 Y11.699
X5.903 Y11.978
X6.312 Y12.278
X6.706 Y12.597
X7.085 Y12.935
X7.446 Y13.291
X7.79 Y13.664
X8.115 Y14.054
X8.419 Y14.459
X8.703 Y14.88
X8.966 Y15.314
X9.208 Y15.759
X9.428 Y16.217
X9.626 Y16.684
X9.801 Y17.16
X9.953 Y17.644
X10.081 Y18.135
X10.186 Y18.631
X10.266 Y19.132
X10.323 Y19.636
X10.355 Y20.142
X10.363 Y20.65
X10.346 Y21.157
X10.305 Y21.662
X10.239 Y22.165
X10.15 Y22.665
X10.036 Y23.159
X9.899 Y23.647
X9.737 Y24.128
X9.552 Y24.6
X9.343 Y25.063
X9.111 Y25.514
X8.858 Y25.954
X8.584 Y26.38
X8.29 Y26.794
X7.976 Y27.192
X7.643 Y27.575
X7.292 Y27.941
X6.924 Y28.29
X6.539 Y28.621
X6.139 Y28.933
X5.725 Y29.226
X5.297 Y29.498
X4.856 Y29.749
X4.404 Y29.979
X3.941 Y30.187
X3.469 Y30.372
X2.988 Y30.535
X2.501 Y30.674
X2.007 Y30.79
X1.508 Y30.881
X1.005 Y30.947
X0.499 Y30.988
X-0.008 Y31.004
X-0.515 Y30.996
X-1.021 Y30.964
X-1.526 Y30.907
X-2.026 Y30.827
X-2.523 Y30.722
X-3.014 Y30.595
X-3.498 Y30.443
X-3.975 Y30.27
X-4.442 Y30.073
X-4.9 Y29.855
X-5.347 Y29.615
X-5.782 Y29.354
X-6.205 Y29.073
X-6.613 Y28.772
X-7.007 Y28.453
X-7.385 Y28.114
X-7.747 Y27.759
X-8.091 Y27.386
X-8.417 Y26.998
X-8.723 Y26.593
X-9.009 Y26.174
X-9.275 Y25.742
X-9.52 Y25.298
X-9.743 Y24.842
X-9.945 Y24.377
X-10.124 Y23.902
X-10.281 Y23.42
X-10.415 Y22.93
X-10.526 Y22.435
X-10.613 Y21.936
X-10.677 Y21.433
X-10.717 Y20.927
X-10.733 Y20.42
X-10.726 Y19.913
X-10.694 Y19.406
X-10.639 Y18.902
X-10.56 Y18.401
X-10.457 Y17.904
X-10.332 Y17.413
X-10.183 Y16.928
X-10.011 Y16.45
X-9.815 Y15.982
X-9.597 Y15.524
X-9.357 Y15.077
X-9.097 Y14.642
X-8.816 Y14.22
X-8.516 Y13.811
X-8.196 Y13.417
X-7.859 Y13.038
X-7.504 Y12.675
X-7.132 Y12.33
X-6.745 Y12.003
X-6.342 Y11.694
X-5.926 Y11.404
X-5.496 Y11.135
X-5.054 Y10.886
X-4.601 Y10.658
X-4.138 Y10.451
X-3.665 Y10.267
X-3.184 Y10.105
X-2.697 Y9.965
X-2.203 Y9.849
X-1.704 Y9.757
X-1.201 Y9.689
X-0.696 Y9.646
X-0.189 Y9.627
X0.319 Y9.632
X0.825 Y9.661
X1.33 Y9.713
X1.831 Y9.789
X2.329 Y9.889
X2.821 Y10.011
X3.307 Y10.156
X3.786 Y10.324
X4.256 Y10.513
X4.718 Y10.724
X5.169 Y10.957
X5.608 Y11.21
X6.036 Y11.483
X6.45 Y11.775
X6.851 Y12.087
X7.236 Y12.416
X7.606 Y12.763
X7.96 Y13.127
X8.296 Y13.507
X8.613 Y13.903
X8.91 Y14.314
X9.188 Y14.739
X9.446 Y15.175
X9.683 Y15.624
X9.899 Y16.083
X10.094 Y16.551
X10.267 Y17.028
X10.418 Y17.512
X10.547 Y18.003
X10.653 Y18.499
X10.736 Y18.999
X10.796 Y19.503
X10.833 Y20.009
X10.847 Y20.516
X10.837 Y21.023
X10.804 Y21.53
X10.748 Y22.034
X10.668 Y22.535
X10.566 Y23.032
X10.441 Y23.523
X10.293 Y24.009
X10.122 Y24.486
X9.928 Y24.955
X9.712 Y25.414
X9.474 Y25.862
X9.216 Y26.299
X8.938 Y26.723
X8.64 Y27.134
X8.324 Y27.531
X7.99 Y27.912
X7.639 Y28.278
X7.271 Y28.628
X6.888 Y28.96
X6.49 Y29.275
X6.078 Y29.571
X5.653 Y29.847
X5.215 Y30.104
X4.766 Y30.341
X4.307 Y30.556
X3.839 Y30.751
X3.362 Y30.924
X2.877 Y31.074
X2.387 Y31.203
X1.89 Y31.308
X1.39 Y31.389
X0.886 Y31.447
X0.379 Y31.48
X-0.128 Y31.49
X-0.635 Y31.476
X-1.141 Y31.44
X-1.645 Y31.38
X-2.145 Y31.297
X-2.641 Y31.192
X-3.132 Y31.064
X-3.617 Y30.914
X-4.094 Y30.742
X-4.563 Y30.549
X-5.023 Y30.334
X-5.472 Y30.099
X-5.911 Y29.844
X-6.337 Y29.57
X-6.751 Y29.276
X-7.151 Y28.964
X-7.536 Y28.634
X-7.906 Y28.287
X-8.26 Y27.924
X-8.597 Y27.544
X-8.915 Y27.149
X-9.215 Y26.74
X-9.495 Y26.317
X-9.755 Y25.881
X-9.995 Y25.434
X-10.215 Y24.977
X-10.413 Y24.51
X-10.591 Y24.035
X-10.747 Y23.552
X-10.881 Y23.063
X-10.993 Y22.568
X-11.083 Y22.069
X-11.15 Y21.566
X-11.194 Y21.061
X-11.216 Y20.554
X-11.214 Y20.047
X-11.19 Y19.54
X-11.144 Y19.035
X-11.074 Y18.532
X-10.983 Y18.034
X-10.868 Y17.539
X-10.732 Y17.051
X-10.573 Y16.569
X-10.392 Y16.095
X-10.189 Y15.63
X-9.964 Y15.175
X-9.719 Y14.731
X-9.454 Y14.299
X-9.169 Y13.879
X-8.866 Y13.472
X-8.545 Y13.079
X-8.207 Y12.701
X-7.852 Y12.339
X-7.481 Y11.993
X-7.095 Y11.663
X-6.695 Y11.352
X-6.281 Y11.059
X-5.854 Y10.785
X-5.415 Y10.53
X-4.965 Y10.296
X-4.505 Y10.082
X-4.036 Y9.888
X-3.559 Y9.716
X-3.075 Y9.565
X-2.584 Y9.437
X-2.088 Y9.331
X-1.588 Y9.248
X-1.084 Y9.189
X-0.578 Y9.153
X-0.071 Y9.141
X0.437 Y9.151
X0.943 Y9.184
X1.447 Y9.24
X1.948 Y9.318
X2.445 Y9.418
X2.938 Y9.541
X3.424 Y9.685
X3.904 Y9.851
X4.375 Y10.038
X4.838 Y10.245
X5.291 Y10.473
X5.734 Y10.721
X6.165 Y10.988
X6.584 Y11.273
X6.991 Y11.577
X7.383 Y11.899
X7.76 Y12.238
X8.123 Y12.593
X8.469 Y12.964
X8.797 Y13.35
X9.107 Y13.752
X9.398 Y14.167
X9.671 Y14.595
X9.923 Y15.035
X10.156 Y15.486
X10.369 Y15.946
X10.562 Y16.416
X10.733 Y16.893
X10.884 Y17.378
X11.013 Y17.868
X11.12 Y18.364
X11.206 Y18.864
X11.269 Y19.367
X11.311 Y19.873
X11.33 Y20.38
X11.327 Y20.887
X11.301 Y21.394
X11.254 Y21.899
X11.184 Y22.401
X11.092 Y22.9
X10.978 Y23.394
X10.842 Y23.883
X10.685 Y24.365
X10.505 Y24.84
X10.303 Y25.305
X10.08 Y25.761
X9.837 Y26.206
X9.575 Y26.64
X9.293 Y27.062
X8.993 Y27.471
X8.675 Y27.867
X8.34 Y28.248
X7.989 Y28.614
X7.622 Y28.964
X7.24 Y29.298
X6.844 Y29.614
X6.434 Y29.913
X6.011 Y30.194
X5.577 Y30.456
X5.132 Y30.699
X4.676 Y30.922
X4.211 Y31.124
X3.738 Y31.307
X3.257 Y31.468
X2.769 Y31.608
X2.276 Y31.726
X1.778 Y31.822
X1.275 Y31.895
X0.771 Y31.944
X0.264 Y31.971
X-0.243 Y31.975
X-0.75 Y31.957
X-1.256 Y31.916
X-1.759 Y31.854
X-2.259 Y31.769
X-2.756 Y31.663
X-3.247 Y31.535
X-3.731 Y31.387
X-4.21 Y31.217
X-4.68 Y31.026
X-5.141 Y30.816
X-5.593 Y30.586
X-6.035 Y30.336
X-6.465 Y30.067
X-6.883 Y29.78
X-7.289 Y29.475
X-7.681 Y29.153
X-8.058 Y28.815
X-8.421 Y28.46
X-8.768 Y28.089
X-9.097 Y27.704
X-9.409 Y27.303
X-9.702 Y26.889
X-9.976 Y26.463
X-10.232 Y26.024
X-10.468 Y25.575
X-10.684 Y25.117
X-10.881 Y24.649
X-11.057 Y24.173
X-11.212 Y23.69
X-11.346 Y23.201
X-11.459 Y22.706
X-11.551 Y22.208
X-11.621 Y21.705
X-11.67 Y21.2
X-11.697 Y20.694
X-11.702 Y20.186
X-11.685 Y19.679
X-11.646 Y19.174
X-11.586 Y18.67
X-11.504 Y18.169
X-11.401 Y17.673
X-11.276 Y17.181
X-11.13 Y16.695
X-10.963 Y16.216
X-10.773 Y15.746
X-10.563 Y15.284
X-10.333 Y14.832
X-10.082 Y14.391
X-9.813 Y13.961
X-9.526 Y13.543
X-9.221 Y13.137
X-8.899 Y12.746
X-8.56 Y12.368
X-8.205 Y12.006
X-7.835 Y11.659
X-7.45 Y11.328
X-7.052 Y11.014
X-6.64 Y10.718
X-6.216 Y10.439
X-5.78 Y10.179
X-5.334 Y9.938
X-4.878 Y9.717
X-4.412 Y9.515
X-3.938 Y9.333
X-3.457 Y9.172
X-2.97 Y9.032
X-2.477 Y8.913
X-1.979 Y8.816
X-1.477 Y8.742
X-0.972 Y8.691
X-0.466 Y8.662
X0.041 Y8.655
X0.548 Y8.67
X1.054 Y8.706
X1.558 Y8.765
X2.059 Y8.845
X2.556 Y8.946
X3.049 Y9.068
X3.535 Y9.212
X4.015 Y9.375
X4.488 Y9.559
X4.953 Y9.763
X5.408 Y9.987
X5.854 Y10.229
X6.289 Y10.49
X6.712 Y10.77
X7.123 Y11.067
X7.522 Y11.381
X7.906 Y11.712
X8.276 Y12.058
X8.631 Y12.421
X8.97 Y12.798
X9.292 Y13.19
X9.596 Y13.597
X9.882 Y14.016
X10.149 Y14.447
X10.397 Y14.889
X10.627 Y15.342
X10.837 Y15.804
X11.027 Y16.274
X11.198 Y16.752
X11.348 Y17.236
X11.478 Y17.726
X11.587 Y18.222
X11.675 Y18.721
X11.742 Y19.224
X11.787 Y19.73
X11.812 Y20.236
X11.815 Y20.744
X11.797 Y21.25
X11.757 Y21.756
X11.697 Y22.26
X11.615 Y22.76
X11.512 Y23.257
X11.388 Y23.749
X11.243 Y24.235
X11.076 Y24.714
X10.889 Y25.186
X10.68 Y25.648
X10.451 Y26.101
X10.204 Y26.544
X9.937 Y26.975
X9.652 Y27.395
X9.35 Y27.803
X9.031 Y28.197
X8.696 Y28.578
X8.345 Y28.944
X7.979 Y29.295
X7.598 Y29.63
X7.204 Y29.949
X6.796 Y30.252
X6.376 Y30.536
X5.945 Y30.803
X5.503 Y31.052
X5.051 Y31.282
X4.589 Y31.492
X4.119 Y31.683
X3.642 Y31.855
X3.157 Y32.006
X2.667 Y32.136
X2.172 Y32.245
X1.672 Y32.332
X1.169 Y32.397
X0.663 Y32.44
X0.156 Y32.46
X-0.351 Y32.459
X-0.858 Y32.437
X-1.363 Y32.393
X-1.866 Y32.329
X-2.366 Y32.243
X-2.862 Y32.137
X-3.353 Y32.009
X-3.839 Y31.862
X-4.318 Y31.694
X-4.789 Y31.507
X-5.252 Y31.3
X-5.706 Y31.075
X-6.151 Y30.83
X-6.585 Y30.568
X-7.008 Y30.287
X-7.418 Y29.989
X-7.816 Y29.675
X-8.201 Y29.344
X-8.571 Y28.997
X-8.927 Y28.636
X-9.267 Y28.259
X-9.59 Y27.868
X-9.896 Y27.463
X-10.183 Y27.045
X-10.453 Y26.615
X-10.704 Y26.175
X-10.937 Y25.724
X-11.15 Y25.264
X-11.345 Y24.795
X-11.52 Y24.319
X-11.675 Y23.836
X-11.81 Y23.347
X-11.925 Y22.853
X-12.019 Y22.355
X-12.092 Y21.853
X-12.145 Y21.348
X-12.177 Y20.842
X-12.188 Y20.335
X-12.178 Y19.828
X-12.147 Y19.321
X-12.096 Y18.817
X-12.023 Y18.314
X-11.93 Y17.816
X-11.817 Y17.321
X-11.683 Y16.832
X-11.528 Y16.349
X-11.353 Y15.873
X-11.156 Y15.405
X-10.94 Y14.946
X-10.704 Y14.497
X-10.45 Y14.058
X-10.178 Y13.63
X-9.888 Y13.214
X-9.581 Y12.81
X-9.258 Y12.419
X-8.919 Y12.041
X-8.565 Y11.678
X-8.196 Y11.33
X-7.813 Y10.998
X-7.416 Y10.681
X-7.007 Y10.381
X-6.586 Y10.099
X-6.153 Y9.834
X-5.71 Y9.587
X-5.257 Y9.358
X-4.795 Y9.149
X-4.325 Y8.958
X-3.847 Y8.787
X-3.363 Y8.636
X-2.873 Y8.505
X-2.378 Y8.395
X-1.878 Y8.306
X-1.376 Y8.24
X-0.87 Y8.195
X-0.363 Y8.171
X0.144 Y8.169
X0.651 Y8.188
X1.156 Y8.228
X1.66 Y8.288
X2.161 Y8.37
X2.658 Y8.471
X3.15 Y8.593
X3.637 Y8.735
X4.118 Y8.896
X4.592 Y9.077
X5.058 Y9.278
X5.516 Y9.497
X5.964 Y9.734
X6.402 Y9.989
X6.83 Y10.262
X7.246 Y10.553
X7.65 Y10.859
X8.041 Y11.182
X8.419 Y11.521
X8.782 Y11.875
X9.131 Y12.243
X9.464 Y12.627
X9.779 Y13.024
X10.077 Y13.434
X10.358 Y13.857
X10.621 Y14.291
X10.866 Y14.735
X11.092 Y15.189
X11.3 Y15.651
X11.489 Y16.122
X11.659 Y16.6
X11.81 Y17.085
X11.941 Y17.575
X12.051 Y18.07
X12.142 Y18.569
X12.213 Y19.071
X12.263 Y19.576
X12.293 Y20.082
X12.302 Y20.59
X12.291 Y21.097
X12.259 Y21.603
X12.207 Y22.108
X12.135 Y22.61
X12.042 Y23.108
X11.929 Y23.603
X11.796 Y24.093
X11.643 Y24.576
X11.469 Y25.053
X11.274 Y25.521
X11.06 Y25.981
X10.827 Y26.431
X10.575 Y26.872
X10.305 Y27.301
X10.018 Y27.72
X9.715 Y28.126
X9.395 Y28.52
X9.059 Y28.9
X8.709 Y29.267
X8.344 Y29.619
X7.964 Y29.956
X7.572 Y30.278
X7.167 Y30.583
X6.75 Y30.872
X6.322 Y31.144
X5.883 Y31.398
X5.434 Y31.635
X4.976 Y31.853
X4.51 Y32.053
X4.036 Y32.233
X3.555 Y32.395
X3.068 Y32.536
X2.575 Y32.658
X2.078 Y32.759
X1.577 Y32.838
X1.073 Y32.896
X0.567 Y32.933
X0.06 Y32.949
X-0.447 Y32.944
X-0.954 Y32.918
X-1.459 Y32.872
X-1.962 Y32.806
X-2.462 Y32.719
X-2.958 Y32.613
X-3.449 Y32.487
X-3.935 Y32.341
X-4.415 Y32.176
X-4.888 Y31.992
X-5.353 Y31.79
X-5.809 Y31.568
X-6.256 Y31.329
X-6.694 Y31.072
X-7.121 Y30.798
X-7.536 Y30.508
X-7.94 Y30.2
X-8.331 Y29.877
X-8.709 Y29.539
X-9.073 Y29.186
X-9.423 Y28.818
X-9.757 Y28.436
X-10.074 Y28.04
X-10.374 Y27.631
X-10.657 Y27.21
X-10.922 Y26.778
X-11.17 Y26.335
X-11.4 Y25.883
X-11.612 Y25.422
X-11.805 Y24.953
X-11.98 Y24.477
X-12.135 Y23.994
X-12.271 Y23.505
X-12.388 Y23.011
X-12.484 Y22.514
X-12.562 Y22.012
X-12.619 Y21.508
X-12.656 Y21.002
X-12.673 Y20.495
X-12.67 Y19.988
X-12.647 Y19.481
X-12.604 Y18.976
X-12.541 Y18.472
X-12.458 Y17.972
X-12.355 Y17.475
X-12.232 Y16.983
X-12.09 Y16.496
X-11.928 Y16.015
X-11.745 Y15.542
X-11.543 Y15.077
X-11.321 Y14.621
X-11.081 Y14.173
X-10.824 Y13.736
X-10.549 Y13.31
X-10.257 Y12.895
X-9.95 Y12.492
X-9.626 Y12.101
X-9.287 Y11.724
X-8.934 Y11.36
X-8.566 Y11.01
X-8.185 Y10.676
X-7.79 Y10.356
X-7.384 Y10.053
X-6.965 Y9.766
X-6.536 Y9.496
X-6.096 Y9.243
X-5.647 Y9.007
X-5.189 Y8.79
X-4.722 Y8.591
X-4.248 Y8.41
X-3.767 Y8.249
X-3.28 Y8.106
X-2.788 Y7.984
X-2.291 Y7.881
X-1.79 Y7.8
X-1.287 Y7.74
X-0.781 Y7.701
X-0.274 Y7.683
X0.233 Y7.684
X0.74 Y7.706
X1.246 Y7.748
X1.749 Y7.81
X2.25 Y7.892
X2.747 Y7.993
X3.24 Y8.114
X3.727 Y8.254
X4.209 Y8.413
X4.684 Y8.591
X5.152 Y8.787
X5.611 Y9.001
X6.062 Y9.233
X6.504 Y9.483
X6.936 Y9.75
X7.356 Y10.033
X7.766 Y10.333
X8.163 Y10.648
X8.548 Y10.979
X8.919 Y11.324
X9.277 Y11.684
X9.62 Y12.058
X9.946 Y12.446
X10.256 Y12.848
X10.55 Y13.261
X10.826 Y13.687
X11.086 Y14.122
X11.328 Y14.568
X11.553 Y15.023
X11.759 Y15.487
X11.947 Y15.958
X12.117 Y16.436
X12.268 Y16.92
X12.4 Y17.41
X12.514 Y17.904
X12.607 Y18.403
X12.682 Y18.904
X12.737 Y19.409
X12.772 Y19.915
X12.788 Y20.422
X12.784 Y20.929
X12.76 Y21.436
X12.717 Y21.941
X12.654 Y22.445
X12.571 Y22.945
X12.469 Y23.442
X12.348 Y23.935
X12.207 Y24.422
X12.046 Y24.903
X11.865 Y25.377
X11.664 Y25.843
X11.445 Y26.3
X11.208 Y26.749
X10.953 Y27.187
X10.681 Y27.616
X10.392 Y28.033
X10.088 Y28.439
X9.768 Y28.832
X9.433 Y29.213
X9.083 Y29.58
X8.719 Y29.934
X8.342 Y30.273
X7.952 Y30.597
X7.549 Y30.906
X7.135 Y31.199
X6.71 Y31.476
X6.275 Y31.736
X5.829 Y31.979
X5.375 Y32.205
X4.912 Y32.413
X4.442 Y32.603
X3.964 Y32.774
X3.481 Y32.927
X2.991 Y33.061
X2.497 Y33.175
X1.998 Y33.268
X1.496 Y33.34
X0.992 Y33.393
X0.485 Y33.424
X-0.022 Y33.436
X-0.529 Y33.428
X-1.035 Y33.4
X-1.54 Y33.353
X-2.043 Y33.286
X-2.543 Y33.199
X-3.039 Y33.093
X-3.531 Y32.969
X-4.018 Y32.825
X-4.498 Y32.663
X-4.972 Y32.483
X-5.439 Y32.284
X-5.898 Y32.068
X-6.348 Y31.834
X-6.789 Y31.583
X-7.22 Y31.316
X-7.641 Y31.032
X-8.05 Y30.732
X-8.447 Y30.417
X-8.833 Y30.087
X-9.205 Y29.742
X-9.563 Y29.383
X-9.907 Y29.01
X-10.235 Y28.623
X-10.547 Y28.223
X-10.843 Y27.811
X-11.122 Y27.387
X-11.384 Y26.953
X-11.63 Y26.509
X-11.858 Y26.056
X-12.068 Y25.594
X-12.26 Y25.125
X-12.435 Y24.649
X-12.591 Y24.166
X-12.729 Y23.678
X-12.848 Y23.185
X-12.948 Y22.687
X-13.028 Y22.187
X-13.09 Y21.683
X-13.133 Y21.178
X-13.156 Y20.671
X-13.16 Y20.164
X-13.145 Y19.656
X-13.11 Y19.15
X-13.056 Y18.646
X-12.983 Y18.144
X-12.891 Y17.645
X-12.78 Y17.15
X-12.649 Y16.66
X-12.5 Y16.175
X-12.33 Y15.697
X-12.142 Y15.226
X-11.934 Y14.763
X-11.709 Y14.309
X-11.466 Y13.863
X-11.206 Y13.428
X-10.929 Y13.003
X-10.636 Y12.588
X-10.328 Y12.186
X-10.004 Y11.795
X-9.666 Y11.417
X-9.314 Y11.052
X-8.948 Y10.701
X-8.568 Y10.364
X-8.177 Y10.041
X-7.773 Y9.734
X-7.358 Y9.443
X-6.932 Y9.167
X-6.496 Y8.908
X-6.05 Y8.666
X-5.595 Y8.441
X-5.132 Y8.233
X-4.662 Y8.044
X-4.185 Y7.872
X-3.701 Y7.718
X-3.212 Y7.583
X-2.718 Y7.468
X-2.22 Y7.373
X-1.718 Y7.299
X-1.214 Y7.244
X-0.708 Y7.209
X-0.201 Y7.194
X0.307 Y7.199
X0.813 Y7.223
X1.319 Y7.266
X1.822 Y7.329
X2.323 Y7.41
X2.82 Y7.511
X3.313 Y7.63
X3.801 Y7.768
X4.284 Y7.924
X4.761 Y8.098
X5.23 Y8.29
X5.692 Y8.5
X6.146 Y8.726
X6.591 Y8.97
X7.026 Y9.23
X7.452 Y9.507
X7.866 Y9.799
X8.27 Y10.107
X8.661 Y10.429
X9.04 Y10.766
X9.406 Y11.118
X9.758 Y11.483
X10.095 Y11.862
X10.417 Y12.254
X10.723 Y12.659
X11.012 Y13.075
X11.286 Y13.503
X11.543 Y13.94
X11.783 Y14.387
X12.006 Y14.843
X12.211 Y15.306
X12.4 Y15.778
X12.57 Y16.255
X12.722 Y16.739
X12.857 Y17.228
X12.972 Y17.722
X13.07 Y18.22
X13.148 Y18.721
X13.208 Y19.225
X13.249 Y19.731
X13.271 Y20.237
X13.275 Y20.745
X13.259 Y21.252
X13.224 Y21.758
X13.17 Y22.262
X13.098 Y22.764
X13.007 Y23.263
X12.897 Y23.759
X12.768 Y24.249
X12.619 Y24.734
X12.452 Y25.213
X12.265 Y25.685
X12.06 Y26.149
X11.837 Y26.605
X11.597 Y27.051
X11.34 Y27.489
X11.066 Y27.916
X10.777 Y28.332
X10.472 Y28.738
X10.152 Y29.132
X9.817 Y29.513
X9.469 Y29.882
X9.107 Y30.237
X8.732 Y30.578
X8.344 Y30.906
X7.945 Y31.218
X7.534 Y31.516
X7.112 Y31.798
X6.68 Y32.064
X6.239 Y32.314
X5.788 Y32.547
X5.329 Y32.763
X4.862 Y32.962
X4.389 Y33.143
X3.908 Y33.307
X3.422 Y33.452
X2.931 Y33.578
X2.435 Y33.685
X1.935 Y33.772
X1.433 Y33.839
X0.928 Y33.887
X0.421 Y33.915
X-0.086 Y33.924
X-0.593 Y33.913
X-1.1 Y33.884
X-1.605 Y33.835
X-2.108 Y33.768
X-2.608 Y33.682
X-3.104 Y33.578
X-3.596 Y33.455
X-4.084 Y33.315
X-4.565 Y33.156
X-5.041 Y32.979
X-5.51 Y32.785
X-5.971 Y32.574
X-6.424 Y32.346
X-6.868 Y32.102
X-7.304 Y31.841
X-7.729 Y31.564
X-8.143 Y31.272
X-8.547 Y30.964
X-8.939 Y30.642
X-9.319 Y30.306
X-9.686 Y29.956
X-10.039 Y29.591
X-10.377 Y29.214
X-10.701 Y28.823
X-11.008 Y28.42
X-11.301 Y28.005
X-11.577 Y27.579
X-11.837 Y27.144
X-12.08 Y26.699
X-12.307 Y26.245
X-12.517 Y25.783
X-12.71 Y25.314
X-12.885 Y24.838
X-13.042 Y24.356
X-13.182 Y23.868
X-13.304 Y23.375
X-13.407 Y22.879
X-13.492 Y22.379
X-13.559 Y21.876
X-13.607 Y21.371
X-13.637 Y20.864
X-13.648 Y20.357
X-13.641 Y19.85
X-13.614 Y19.343
X-13.57 Y18.838
X-13.507 Y18.335
X-13.425 Y17.834
X-13.325 Y17.337
X-13.206 Y16.844
X-13.069 Y16.355
X-12.913 Y15.873
X-12.738 Y15.397
X-12.544 Y14.928
X-12.333 Y14.466
X-12.104 Y14.014
X-11.859 Y13.57
X-11.597 Y13.135
X-11.319 Y12.711
X-11.026 Y12.297
X-10.718 Y11.894
X-10.395 Y11.503
X-10.058 Y11.123
X-9.707 Y10.757
X-9.343 Y10.404
X-8.966 Y10.064
X-8.577 Y9.738
X-8.177 Y9.427
X-7.765 Y9.131
X-7.342 Y8.85
X-6.91 Y8.585
X-6.468 Y8.336
X-6.017 Y8.103
X-5.558 Y7.887
X-5.092 Y7.688
X-4.618 Y7.506
X-4.138 Y7.342
X-3.653 Y7.195
X-3.162 Y7.068
X-2.666 Y6.959
X-2.167 Y6.87
X-1.664 Y6.8
X-1.159 Y6.75
X-0.653 Y6.719
X-0.146 Y6.706
X0.361 Y6.713
X0.868 Y6.738
X1.373 Y6.782
X1.877 Y6.845
X2.378 Y6.925
X2.875 Y7.024
X3.369 Y7.141
X3.858 Y7.276
X4.342 Y7.429
X4.819 Y7.599
X5.291 Y7.787
X5.755 Y7.991
X6.212 Y8.212
X6.66 Y8.45
X7.099 Y8.703
X7.529 Y8.973
X7.949 Y9.257
X8.358 Y9.557
X8.756 Y9.872
X9.143 Y10.2
X9.517 Y10.543
X9.878 Y10.899
X10.225 Y11.269
X10.557 Y11.652
X10.875 Y12.048
X11.177 Y12.455
X11.464 Y12.874
X11.735 Y13.303
X11.99 Y13.741
X12.229 Y14.189
X12.451 Y14.645
X12.657 Y15.108
X12.845 Y15.579
X13.017 Y16.057
X13.171 Y16.54
X13.308 Y17.028
X13.427 Y17.522
X13.528 Y18.019
X13.612 Y18.519
X13.677 Y19.022
X13.724 Y19.527
X13.753 Y20.034
X13.763 Y20.541
X13.755 Y21.048
X13.729 Y21.555
X13.685 Y22.06
X13.623 Y22.564
X13.542 Y23.064
X13.443 Y23.562
X13.327 Y24.056
X13.191 Y24.544
X13.036 Y25.028
X12.863 Y25.504
X12.672 Y25.974
X12.464 Y26.437
X12.238 Y26.891
X11.996 Y27.337
X11.737 Y27.773
X11.463 Y28.2
X11.173 Y28.616
X10.868 Y29.022
X10.549 Y29.416
X10.216 Y29.799
X9.869 Y30.169
X9.509 Y30.526
X9.137 Y30.871
X8.752 Y31.201
X8.356 Y31.518
X7.948 Y31.82
X7.53 Y32.107
X7.102 Y32.379
X6.664 Y32.636
X6.217 Y32.876
X5.763 Y33.101
X5.3 Y33.309
X4.83 Y33.5
X4.353 Y33.674
X3.871 Y33.831
X3.383 Y33.969
X2.89 Y34.089
X2.393 Y34.19
X1.892 Y34.272
X1.389 Y34.335
X0.884 Y34.379
X0.377 Y34.404
X-0.13 Y34.411
X-0.638 Y34.399
X-1.144 Y34.369
X-1.649 Y34.321
X-2.152 Y34.254
X-2.652 Y34.17
X-3.149 Y34.067
X-3.642 Y33.947
X-4.13 Y33.81
X-4.613 Y33.655
X-5.09 Y33.483
X-5.561 Y33.294
X-6.025 Y33.088
X-6.481 Y32.866
X-6.929 Y32.628
X-7.368 Y32.374
X-7.798 Y32.104
X-8.218 Y31.82
X-8.627 Y31.52
X-9.026 Y31.207
X-9.413 Y30.879
X-9.788 Y30.537
X-10.15 Y30.182
X-10.499 Y29.813
X-10.833 Y29.432
X-11.152 Y29.038
X-11.457 Y28.632
X-11.747 Y28.216
X-12.021 Y27.789
X-12.279 Y27.352
X-12.522 Y26.907
X-12.748 Y26.453
X-12.958 Y25.991
X-13.151 Y25.522
X-13.328 Y25.046
X-13.488 Y24.565
X-13.63 Y24.078
X-13.755 Y23.586
X-13.862 Y23.091
X-13.952 Y22.591
X-14.024 Y22.089
X-14.079 Y21.585
X-14.115 Y21.079
X-14.134 Y20.572
Y20.065
X-14.117 Y19.558
X-14.081 Y19.052
X-14.028 Y18.547
X-13.957 Y18.045
X-13.868 Y17.545
X-13.761 Y17.049
X-13.636 Y16.558
X-13.493 Y16.071
X-13.331 Y15.59
X-13.152 Y15.116
X-12.955 Y14.649
X-12.74 Y14.189
X-12.51 Y13.737
X-12.263 Y13.294
X-12. Y12.86
X-11.722 Y12.436
X-11.429 Y12.021
X-11.121 Y11.618
X-10.799 Y11.226
X-10.464 Y10.845
X-10.115 Y10.477
X-9.754 Y10.121
X-9.38 Y9.778
X-8.994 Y9.449
X-8.597 Y9.134
X-8.188 Y8.832
X-7.77 Y8.546
X-7.341 Y8.274
X-6.903 Y8.018
X-6.457 Y7.778
X-6.002 Y7.553
X-5.539 Y7.345
X-5.07 Y7.153
X-4.593 Y6.978
X-4.111 Y6.82
X-3.624 Y6.68
X-3.131 Y6.559
X-2.635 Y6.456
X-2.134 Y6.371
X-1.631 Y6.305
X-1.126 Y6.258
X-0.62 Y6.229
X-0.113 Y6.219
X0.395 Y6.226
X0.901 Y6.252
X1.407 Y6.296
X1.91 Y6.357
X2.411 Y6.436
X2.909 Y6.533
X3.403 Y6.647
X3.893 Y6.779
X4.378 Y6.928
X4.858 Y7.093
X5.331 Y7.276
X5.798 Y7.475
X6.257 Y7.69
X6.709 Y7.921
X7.152 Y8.168
X7.586 Y8.43
X8.011 Y8.707
X8.426 Y8.998
X8.831 Y9.305
X9.225 Y9.625
X9.607 Y9.958
X9.976 Y10.306
X10.333 Y10.667
X10.676 Y11.04
X11.004 Y11.427
X11.319 Y11.825
X11.618 Y12.234
X11.903 Y12.654
X12.173 Y13.084
X12.427 Y13.523
X12.665 Y13.971
X12.887 Y14.427
X13.094 Y14.89
X13.284 Y15.361
X13.457 Y15.837
X13.614 Y16.32
X13.754 Y16.807
X13.877 Y17.299
X13.982 Y17.796
X14.071 Y18.295
X14.142 Y18.798
X14.195 Y19.302
X14.231 Y19.808
X14.249 Y20.315
X14.25 Y20.822
X14.232 Y21.329
X14.198 Y21.835
X14.145 Y22.34
X14.076 Y22.842
X13.988 Y23.342
X13.883 Y23.838
X13.76 Y24.33
X13.618 Y24.818
X13.459 Y25.299
X13.282 Y25.775
X13.088 Y26.243
X12.877 Y26.704
X12.649 Y27.158
X12.405 Y27.603
X12.146 Y28.039
X11.872 Y28.465
X11.582 Y28.882
X11.278 Y29.288
X10.961 Y29.684
X10.629 Y30.068
X10.285 Y30.44
X9.927 Y30.8
X9.558 Y31.148
X9.176 Y31.482
X8.783 Y31.803
X8.38 Y32.11
X7.965 Y32.403
X7.541 Y32.681
X7.108 Y32.945
X6.665 Y33.193
X6.214 Y33.425
X5.756 Y33.642
X5.29 Y33.843
X4.818 Y34.028
X4.339 Y34.196
X3.854 Y34.346
X3.365 Y34.479
X2.871 Y34.593
X2.373 Y34.69
X1.871 Y34.768
X1.368 Y34.828
X0.862 Y34.869
X0.355 Y34.893
X-0.152 Y34.899
X-0.659 Y34.886
X-1.166 Y34.857
X-1.671 Y34.809
X-2.174 Y34.744
X-2.674 Y34.662
X-3.172 Y34.562
X-3.665 Y34.445
X-4.155 Y34.311
X-4.639 Y34.161
X-5.118 Y33.993
X-5.591 Y33.81
X-6.057 Y33.61
X-6.516 Y33.394
X-6.968 Y33.163
X-7.411 Y32.916
X-7.845 Y32.654
X-8.27 Y32.377
X-8.686 Y32.086
X-9.091 Y31.781
X-9.485 Y31.462
X-9.868 Y31.129
X-10.239 Y30.783
X-10.597 Y30.423
X-10.942 Y30.051
X-11.273 Y29.667
X-11.59 Y29.271
X-11.892 Y28.863
X-12.18 Y28.446
X-12.453 Y28.018
X-12.71 Y27.581
X-12.953 Y27.135
X-13.179 Y26.681
X-13.39 Y26.22
X-13.585 Y25.752
X-13.764 Y25.277
X-13.926 Y24.796
X-14.072 Y24.31
X-14.201 Y23.82
X-14.313 Y23.325
X-14.408 Y22.827
X-14.486 Y22.325
X-14.546 Y21.822
X-14.59 Y21.316
X-14.616 Y20.81
X-14.625 Y20.303
X-14.616 Y19.795
X-14.59 Y19.289
X-14.547 Y18.783
X-14.487 Y18.28
X-14.409 Y17.778
X-14.314 Y17.28
X-14.201 Y16.785
X-14.071 Y16.295
X-13.922 Y15.81
X-13.757 Y15.331
X-13.574 Y14.857
X-13.374 Y14.391
X-13.158 Y13.932
X-12.926 Y13.481
X-12.678 Y13.038
X-12.416 Y12.604
X-12.138 Y12.18
X-11.846 Y11.765
X-11.539 Y11.361
X-11.219 Y10.967
X-10.886 Y10.585
X-10.54 Y10.214
X-10.181 Y9.855
X-9.81 Y9.509
X-9.428 Y9.176
X-9.034 Y8.856
X-8.63 Y8.549
X-8.216 Y8.257
X-7.791 Y7.979
X-7.358 Y7.715
X-6.915 Y7.467
X-6.465 Y7.234
X-6.006 Y7.016
X-5.541 Y6.815
X-5.069 Y6.629
X-4.591 Y6.46
X-4.107 Y6.308
X-3.618 Y6.173
X-3.124 Y6.056
X-2.626 Y5.958
X-2.126 Y5.877
X-1.622 Y5.813
X-1.117 Y5.768
X-0.611 Y5.741
X-0.103 Y5.731
X0.404 Y5.738
X0.911 Y5.764
X1.416 Y5.806
X1.92 Y5.866
X2.421 Y5.943
X2.92 Y6.037
X3.415 Y6.148
X3.906 Y6.276
X4.392 Y6.42
X4.873 Y6.581
X5.349 Y6.757
X5.818 Y6.95
X6.28 Y7.159
X6.735 Y7.383
X7.182 Y7.623
X7.621 Y7.877
X8.051 Y8.146
X8.472 Y8.43
X8.883 Y8.727
X9.283 Y9.038
X9.673 Y9.363
X10.051 Y9.702
X10.417 Y10.053
X10.77 Y10.418
X11.109 Y10.794
X11.436 Y11.183
X11.748 Y11.583
X12.046 Y11.993
X12.329 Y12.414
X12.598 Y12.844
X12.852 Y13.284
X13.09 Y13.731
X13.314 Y14.187
X13.521 Y14.649
X13.713 Y15.119
X13.889 Y15.595
X14.049 Y16.076
X14.193 Y16.563
X14.32 Y17.054
X14.431 Y17.549
X14.525 Y18.047
X14.602 Y18.549
X14.662 Y19.053
X14.705 Y19.558
X14.731 Y20.065
X14.74 Y20.572
X14.732 Y21.079
X14.708 Y21.586
X14.666 Y22.091
X14.607 Y22.595
X14.531 Y23.097
X14.437 Y23.595
X14.326 Y24.09
X14.198 Y24.581
X14.052 Y25.067
X13.889 Y25.547
X13.709 Y26.022
X13.513 Y26.489
X13.3 Y26.95
X13.072 Y27.403
X12.827 Y27.847
X12.568 Y28.284
X12.294 Y28.711
X12.006 Y29.128
X11.704 Y29.535
X11.388 Y29.932
X11.059 Y30.318
X10.717 Y30.693
X10.363 Y31.056
X9.997 Y31.407
X9.619 Y31.746
X9.23 Y32.071
X8.83 Y32.384
X8.42 Y32.682
X8. Y32.967
X7.571 Y33.238
X7.133 Y33.494
X6.687 Y33.735
X6.233 Y33.961
X5.771 Y34.171
X5.303 Y34.366
X4.828 Y34.545
X4.348 Y34.708
X3.861 Y34.853
X3.371 Y34.981
X2.876 Y35.091
X2.377 Y35.184
X1.875 Y35.26
X1.371 Y35.318
X0.866 Y35.358
X0.359 Y35.381
X-0.149 Y35.387
X-0.656 Y35.375
X-1.162 Y35.346
X-1.667 Y35.3
X-2.171 Y35.237
X-2.672 Y35.158
X-3.17 Y35.061
X-3.664 Y34.948
X-4.155 Y34.819
X-4.641 Y34.673
X-5.121 Y34.511
X-5.597 Y34.333
X-6.065 Y34.14
X-6.528 Y33.931
X-6.983 Y33.707
X-7.43 Y33.467
X-7.869 Y33.213
X-8.299 Y32.945
X-8.721 Y32.662
X-9.132 Y32.366
X-9.534 Y32.055
X-9.924 Y31.732
X-10.304 Y31.395
X-10.671 Y31.045
X-11.026 Y30.682
X-11.368 Y30.308
X-11.696 Y29.921
X-12.011 Y29.523
X-12.312 Y29.115
X-12.599 Y28.697
X-12.871 Y28.269
X-13.129 Y27.832
X-13.372 Y27.386
X-13.6 Y26.933
X-13.812 Y26.473
X-14.009 Y26.005
X-14.191 Y25.531
X-14.356 Y25.052
X-14.506 Y24.567
X-14.639 Y24.078
X-14.746 Y23.625
X-14.751 Y23.6
X-14.754 Y23.574
X-14.841 Y22.829
X-14.874 Y22.484
X-14.901 Y22.138
X-14.961 Y21.331
X-14.966 Y21.216
X-14.983 Y20.639
X-14.995 Y20.178
X-14.993 Y20.063
X-14.975 Y19.717
X-14.831 Y17.873
X-14.818 Y17.758
X-14.752 Y17.412
X-14.693 Y17.161
X-14.369 Y15.799
X-14.315 Y15.568
X-14.286 Y15.453
X-14.152 Y15.107
X-14.106 Y14.992
X-13.775 Y14.185
X-13.56 Y13.726
X-13.36 Y13.293
X-13.123 Y12.845
X-12.865 Y12.408
X-12.591 Y11.981
X-12.302 Y11.564
X-11.999 Y11.157
X-11.683 Y10.761
X-11.353 Y10.375
X-11.011 Y10.
X-10.657 Y9.637
X-10.291 Y9.286
X-9.913 Y8.947
X-9.524 Y8.621
X-9.125 Y8.308
X-8.716 Y8.008
X-8.297 Y7.722
X-7.869 Y7.451
X-7.432 Y7.193
X-6.987 Y6.95
X-6.533 Y6.722
X-6.073 Y6.509
X-5.605 Y6.312
X-5.132 Y6.13
X-4.652 Y5.965
X-4.167 Y5.816
X-3.677 Y5.685
X-3.183 Y5.57
X-2.685 Y5.472
X-2.184 Y5.392
X-1.681 Y5.329
X-1.176 Y5.283
X-0.669 Y5.255
X-0.162 Y5.243
X0.345 Y5.249
X0.852 Y5.271
X1.358 Y5.31
X1.862 Y5.366
X2.364 Y5.439
X2.863 Y5.528
X3.359 Y5.633
X3.852 Y5.755
X4.34 Y5.893
X4.824 Y6.046
X5.302 Y6.216
X5.774 Y6.401
X6.24 Y6.602
X6.699 Y6.817
X7.151 Y7.048
X7.595 Y7.293
X8.031 Y7.553
X8.458 Y7.827
X8.875 Y8.115
X9.283 Y8.416
X9.681 Y8.731
X10.068 Y9.059
X10.444 Y9.4
X10.808 Y9.753
X11.159 Y10.119
X11.498 Y10.497
X11.823 Y10.886
X12.135 Y11.286
X12.433 Y11.696
X12.491 Y11.782
X12.703 Y12.11
X13.149 Y12.802
X13.195 Y12.875
X13.982 Y14.646
X14.03 Y14.761
X14.125 Y14.992
X14.168 Y15.107
X14.662 Y16.951
X14.693 Y17.072
X14.748 Y17.297
X14.957 Y19.256
X14.968 Y19.372
X14.981 Y19.717
X14.978 Y19.833
X14.887 Y21.677
X14.866 Y22.022
X14.856 Y22.138
X14.758 Y23.175
X14.746 Y23.29
X14.593 Y24.443
X14.561 Y24.673
X14.463 Y25.171
X14.401 Y25.417
X14.288 Y25.805
X14.12 Y26.283
X13.926 Y26.752
X13.714 Y27.213
X13.484 Y27.666
X13.24 Y28.11
X12.98 Y28.546
X12.706 Y28.973
X12.419 Y29.391
X12.117 Y29.799
X11.803 Y30.197
X11.475 Y30.584
X11.136 Y30.961
X10.784 Y31.326
X10.42 Y31.68
X10.045 Y32.022
X9.659 Y32.351
X9.263 Y32.668
X8.857 Y32.971
X8.441 Y33.261
X8.015 Y33.538
X7.581 Y33.801
X7.139 Y34.049
X6.689 Y34.283
X6.231 Y34.502
X5.767 Y34.706
X5.296 Y34.895
X4.819 Y35.068
X4.336 Y35.224
X3.849 Y35.364
X3.357 Y35.487
X2.861 Y35.593
X2.361 Y35.683
X1.859 Y35.755
X1.355 Y35.81
X0.849 Y35.849
X0.342 Y35.87
X-0.165 Y35.875
X-0.672 Y35.863
X-1.179 Y35.835
X-1.684 Y35.79
X-2.187 Y35.728
X-2.689 Y35.65
X-3.187 Y35.556
X-3.682 Y35.446
X-4.174 Y35.32
X-4.661 Y35.179
X-5.143 Y35.021
X-5.62 Y34.848
X-6.091 Y34.66
X-6.556 Y34.457
X-7.014 Y34.239
X-7.465 Y34.006
X-7.908 Y33.759
X-8.342 Y33.497
X-8.769 Y33.222
X-9.186 Y32.933
X-9.593 Y32.631
X-9.991 Y32.316
X-10.377 Y31.988
X-10.753 Y31.646
X-11.116 Y31.293
X-11.467 Y30.927
X-11.806 Y30.549
X-12.132 Y30.16
X-12.445 Y29.761
X-12.744 Y29.351
X-13.029 Y28.932
X-13.301 Y28.503
X-13.558 Y28.066
X-13.801 Y27.621
X-14.029 Y27.167
X-14.223 Y26.749
X-14.244 Y26.699
X-14.26 Y26.648
X-14.273 Y26.596
X-14.401 Y25.941
X-14.463 Y25.577
X-14.641 Y24.443
X-14.658 Y24.328
X-14.706 Y23.982
X-14.754 Y23.574
Z5.1
X-13.827 Y15.164
Z0.
Z-0.2
X-13.828 Y15.157 Z-0.252
X-13.831 Y15.138 Z-0.3
X-13.836 Y15.106 Z-0.341
X-13.842 Y15.065 Z-0.373
X-13.849 Y15.017 Z-0.393
X-13.856 Y14.966 Z-0.4
G3 X-13.775 Y14.185 I1.565 J-0.232
G1 X-13.539 Y13.609
X-13.49 Y13.493
X-13.31 Y13.116
X-12.389 Y11.594
X-12.351 Y11.534
X-12.124 Y11.188
X-12.03 Y11.073
X-10.864 Y9.69
X-10.775 Y9.59
X-10.526 Y9.344
X-10.429 Y9.254
X-8.931 Y7.954
X-8.761 Y7.846
X-8.009 Y7.374
X-7.087 Y6.797
X-6.972 Y6.728
X-6.626 Y6.573
X-6.371 Y6.463
X-5.128 Y5.932
X-5.013 Y5.885
X-4.667 Y5.76
X-4.552 Y5.729
X-2.823 Y5.292
X-2.708 Y5.264
X-2.362 Y5.206
X-2.274 Y5.195
X-0.403 Y5.022
X-0.173 Y5.02
X-0.058 Y5.019
X0.058 Y5.022
X1.901 Y5.139
X2.017 Y5.154
X2.287 Y5.195
X2.362 Y5.208
X4.206 Y5.619
X4.322 Y5.65
X4.552 Y5.724
X6.05 Y6.313
X6.511 Y6.494
X6.626 Y6.553
X8.47 Y7.634
X8.586 Y7.712
X8.931 Y7.989
X10.084 Y8.932
X10.429 Y9.232
X11.812 Y10.78
X12.033 Y11.073
X12.491 Y11.782
G3 X12.148 Y11.987 I-0.172 J0.103
X12.126 Y11.836 I0.172 J-0.103
G1 X12.138 Y11.786 Z-0.393
X12.15 Y11.739 Z-0.373
X12.16 Y11.699 Z-0.341
X12.168 Y11.668 Z-0.3
X12.173 Y11.648 Z-0.252
X12.175 Y11.642 Z-0.2
Z5.1
X14.369 Y23.712
Z0.
Z-0.2
X14.371 Y23.718 Z-0.252
X14.379 Y23.737 Z-0.3
X14.392 Y23.766 Z-0.341
X14.408 Y23.804 Z-0.373
X14.426 Y23.849 Z-0.393
X14.446 Y23.896 Z-0.4
G3 X14.561 Y24.673 I-1.459 J0.613
G1 X14.544 Y24.789
X14.348 Y25.955
X14.289 Y26.287
X14.125 Y27.094
X14.071 Y27.305
X14.004 Y27.517
X13.906 Y27.776
X13.753 Y28.12
X13.531 Y28.551
X13.273 Y28.988
X12.997 Y29.414
X12.706 Y29.829
X12.4 Y30.234
X12.082 Y30.629
X11.751 Y31.013
X11.408 Y31.387
X11.053 Y31.75
X10.687 Y32.101
X10.31 Y32.44
X9.923 Y32.768
X9.525 Y33.083
X9.118 Y33.386
X8.702 Y33.675
X8.276 Y33.951
X7.842 Y34.214
X7.4 Y34.463
X6.951 Y34.698
X6.494 Y34.919
X6.03 Y35.125
X5.561 Y35.316
X5.085 Y35.492
X4.603 Y35.653
X4.117 Y35.797
X3.626 Y35.925
X3.131 Y36.037
X2.633 Y36.132
X2.132 Y36.211
X1.629 Y36.274
X1.124 Y36.32
X0.617 Y36.35
X0.11 Y36.364
X-0.397 Y36.362
X-0.904 Y36.343
X-1.41 Y36.308
X-1.915 Y36.257
X-2.418 Y36.191
X-2.918 Y36.108
X-3.416 Y36.009
X-3.91 Y35.895
X-4.401 Y35.766
X-4.887 Y35.621
X-5.368 Y35.461
X-5.845 Y35.286
X-6.315 Y35.097
X-6.779 Y34.892
X-7.237 Y34.674
X-7.688 Y34.441
X-8.131 Y34.194
X-8.566 Y33.934
X-8.993 Y33.66
X-9.412 Y33.373
X-9.821 Y33.072
X-10.22 Y32.76
X-10.609 Y32.434
X-10.987 Y32.096
X-11.354 Y31.745
X-11.709 Y31.383
X-12.052 Y31.01
X-12.383 Y30.625
X-12.701 Y30.23
X-13.006 Y29.825
X-13.298 Y29.41
X-13.577 Y28.986
X-13.804 Y28.615
X-13.838 Y28.553
X-13.865 Y28.487
X-13.885 Y28.418
X-14.005 Y27.901
X-14.083 Y27.555
X-14.108 Y27.44
X-14.273 Y26.596
G3 X-13.878 Y26.533 I0.198 J-0.032
X-13.913 Y26.682 I-0.198 J0.032
G1 X-13.944 Y26.724 Z-0.393
X-13.972 Y26.763 Z-0.373
X-13.996 Y26.796 Z-0.341
X-14.015 Y26.822 Z-0.3
X-14.027 Y26.838 Z-0.252
X-14.031 Y26.844 Z-0.2
Z0.
X14.009 Y26.318
Z-0.2
X14.011 Y26.325 Z-0.252
X14.018 Y26.343 Z-0.3
X14.028 Y26.373 Z-0.341
X14.042 Y26.413 Z-0.373
X14.058 Y26.458 Z-0.393
X14.075 Y26.507 Z-0.4
G3 X14.125 Y27.094 I-1.12 J0.392
G1 X13.985 Y27.785
X13.959 Y27.901
X13.771 Y28.694
X13.721 Y28.869
X13.665 Y29.028
X13.589 Y29.211
X13.472 Y29.452
X13.312 Y29.739
X13.077 Y30.112
X12.782 Y30.525
X12.468 Y30.923
X12.14 Y31.31
X11.798 Y31.685
X11.445 Y32.049
X11.081 Y32.402
X10.706 Y32.744
X10.321 Y33.074
X9.925 Y33.392
X9.521 Y33.698
X9.107 Y33.991
X8.684 Y34.272
X8.253 Y34.539
X7.814 Y34.794
X7.368 Y35.035
X6.914 Y35.262
X6.454 Y35.475
X5.987 Y35.674
X5.515 Y35.858
X5.036 Y36.027
X4.553 Y36.181
X4.065 Y36.319
X3.573 Y36.442
X3.077 Y36.548
X2.578 Y36.639
X2.076 Y36.714
X1.572 Y36.773
X1.067 Y36.816
X0.56 Y36.843
X0.053 Y36.854
X-0.454 Y36.85
X-0.961 Y36.83
X-1.467 Y36.794
X-1.972 Y36.743
X-2.475 Y36.677
X-2.976 Y36.595
X-3.473 Y36.497
X-3.968 Y36.385
X-4.459 Y36.257
X-4.946 Y36.115
X-5.428 Y35.958
X-5.906 Y35.786
X-6.378 Y35.6
X-6.844 Y35.4
X-7.304 Y35.186
X-7.757 Y34.958
X-8.203 Y34.716
X-8.641 Y34.461
X-9.072 Y34.193
X-9.494 Y33.912
X-9.908 Y33.618
X-10.312 Y33.312
X-10.707 Y32.993
X-11.091 Y32.662
X-11.465 Y32.32
X-11.828 Y31.965
X-12.179 Y31.599
X-12.519 Y31.222
X-12.846 Y30.834
X-13.161 Y30.436
X-13.428 Y30.076
X-13.474 Y30.006
X-13.51 Y29.931
X-13.537 Y29.852
X-13.596 Y29.629
X-13.656 Y29.398
X-13.885 Y28.418
G3 X-13.492 Y28.341 I0.196 J-0.039
X-13.522 Y28.491 I-0.196 J0.039
G1 X-13.551 Y28.534 Z-0.393
X-13.578 Y28.574 Z-0.373
X-13.601 Y28.609 Z-0.341
X-13.619 Y28.635 Z-0.3
X-13.63 Y28.652 Z-0.252
X-13.634 Y28.657 Z-0.2
Z0.
X13.669 Y27.719
Z-0.2
X13.671 Y27.726 Z-0.252
X13.677 Y27.745 Z-0.3
X13.687 Y27.775 Z-0.341
X13.699 Y27.815 Z-0.373
X13.714 Y27.861 Z-0.393
X13.729 Y27.91 Z-0.4
G3 X13.771 Y28.694 I-1.51 J0.475
G1 X13.605 Y29.399
X13.541 Y29.651
X13.486 Y29.86
X13.455 Y29.975
X13.386 Y30.19
X13.332 Y30.33
X13.257 Y30.493
X13.158 Y30.68
X13.014 Y30.918
X12.817 Y31.205
X12.528 Y31.581
X12.196 Y31.964
X11.848 Y32.333
X11.487 Y32.69
X11.115 Y33.034
X10.732 Y33.367
X10.34 Y33.689
X9.938 Y33.998
X9.527 Y34.296
X9.107 Y34.581
X8.68 Y34.853
X8.244 Y35.113
X7.801 Y35.36
X7.35 Y35.594
X6.893 Y35.814
X6.43 Y36.02
X5.961 Y36.213
X5.485 Y36.391
X5.005 Y36.554
X4.52 Y36.702
X4.031 Y36.835
X3.537 Y36.953
X3.04 Y37.055
X2.54 Y37.142
X2.038 Y37.213
X1.534 Y37.269
X1.028 Y37.309
X0.522 Y37.334
X0.014 Y37.344
X-0.493 Y37.339
X-1. Y37.318
X-1.506 Y37.282
X-2.011 Y37.231
X-2.514 Y37.166
X-3.014 Y37.085
X-3.512 Y36.989
X-4.008 Y36.879
X-4.499 Y36.754
X-4.987 Y36.614
X-5.47 Y36.46
X-5.949 Y36.293
X-6.423 Y36.111
X-6.891 Y35.915
X-7.353 Y35.705
X-7.808 Y35.482
X-8.257 Y35.246
X-8.699 Y34.997
X-9.133 Y34.735
X-9.56 Y34.46
X-9.978 Y34.173
X-10.387 Y33.873
X-10.787 Y33.561
X-11.178 Y33.238
X-11.559 Y32.902
X-11.929 Y32.555
X-12.288 Y32.197
X-12.636 Y31.828
X-12.972 Y31.448
X-13.079 Y31.318
X-13.135 Y31.24
X-13.179 Y31.155
X-13.211 Y31.065
X-13.537 Y29.852
G3 X-13.147 Y29.761 I0.195 J-0.045
X-13.172 Y29.912 I-0.195 J0.045
G1 X-13.2 Y29.956 Z-0.393
X-13.225 Y29.997 Z-0.373
X-13.247 Y30.032 Z-0.341
X-13.264 Y30.059 Z-0.3
X-13.274 Y30.076 Z-0.252
X-13.278 Y30.082 Z-0.2
Z0.
X13.382 Y28.998
Z-0.2
X13.384 Y29.004 Z-0.252
X13.39 Y29.023 Z-0.3
X13.398 Y29.054 Z-0.341
X13.41 Y29.094 Z-0.373
X13.423 Y29.14 Z-0.393
X13.437 Y29.19 Z-0.4
G3 X13.455 Y29.975 I-1.523 J0.429
G1 X13.146 Y31.128
X13.095 Y31.287
X13.041 Y31.427
X12.975 Y31.565
X12.89 Y31.721
X12.775 Y31.906
X12.613 Y32.137
X12.382 Y32.429
X12.067 Y32.785
X11.709 Y33.145
X11.337 Y33.49
X10.953 Y33.821
X10.559 Y34.14
X10.155 Y34.448
X9.743 Y34.743
X9.322 Y35.026
X8.893 Y35.297
X8.457 Y35.556
X8.013 Y35.802
X7.563 Y36.035
X7.105 Y36.255
X6.642 Y36.462
X6.173 Y36.655
X5.698 Y36.834
X5.219 Y36.999
X4.734 Y37.149
X4.245 Y37.285
X3.753 Y37.406
X3.257 Y37.511
X2.757 Y37.602
X2.256 Y37.678
X1.752 Y37.739
X1.247 Y37.785
X0.741 Y37.815
X0.234 Y37.832
X-0.274 Y37.833
X-0.781 Y37.819
X-1.287 Y37.791
X-1.793 Y37.748
X-2.297 Y37.691
X-2.799 Y37.619
X-3.299 Y37.532
X-3.796 Y37.431
X-4.29 Y37.316
X-4.78 Y37.186
X-5.267 Y37.042
X-5.749 Y36.885
X-6.226 Y36.713
X-6.699 Y36.528
X-7.166 Y36.33
X-7.627 Y36.118
X-8.082 Y35.894
X-8.53 Y35.656
X-8.971 Y35.406
X-9.405 Y35.143
X-9.831 Y34.868
X-10.249 Y34.581
X-10.659 Y34.281
X-11.06 Y33.97
X-11.451 Y33.648
X-11.833 Y33.314
X-12.205 Y32.969
X-12.566 Y32.612
X-12.735 Y32.435
X-12.801 Y32.355
X-12.853 Y32.265
X-12.891 Y32.168
X-13.032 Y31.704
X-13.131 Y31.358
X-13.211 Y31.065
G3 X-12.821 Y30.975 I0.195 J-0.045
X-12.846 Y31.126 I-0.195 J0.045
G1 X-12.873 Y31.17 Z-0.393
X-12.899 Y31.211 Z-0.373
X-12.921 Y31.246 Z-0.341
X-12.938 Y31.273 Z-0.3
X-12.948 Y31.29 Z-0.252
X-12.952 Y31.295 Z-0.2
Z0.
X13.073 Y30.15
Z-0.2
X13.075 Y30.157 Z-0.252
X13.081 Y30.176 Z-0.3
X13.089 Y30.207 Z-0.341
X13.1 Y30.246 Z-0.373
X13.114 Y30.293 Z-0.393
X13.128 Y30.343 Z-0.4
G3 X13.146 Y31.128 I-1.523 J0.429
G1 X13.083 Y31.358
X12.947 Y31.819
X12.825 Y32.229
X12.775 Y32.37
X12.715 Y32.508
X12.646 Y32.641
X12.554 Y32.792
X12.436 Y32.966
X12.274 Y33.176
X12.055 Y33.43
X11.74 Y33.756
X11.367 Y34.1
X10.979 Y34.427
X10.58 Y34.74
X10.171 Y35.04
X9.754 Y35.328
X9.328 Y35.604
X8.895 Y35.868
X8.455 Y36.12
X8.008 Y36.36
X7.554 Y36.586
X7.094 Y36.8
X6.628 Y37.001
X6.156 Y37.188
X5.68 Y37.362
X5.198 Y37.522
X4.712 Y37.667
X4.222 Y37.798
X3.728 Y37.914
X3.231 Y38.016
X2.732 Y38.103
X2.23 Y38.176
X1.726 Y38.234
X1.22 Y38.278
X0.714 Y38.307
X0.207 Y38.322
X-0.3 Y38.323
X-0.808 Y38.309
X-1.314 Y38.281
X-1.82 Y38.238
X-2.324 Y38.181
X-2.826 Y38.11
X-3.326 Y38.025
X-3.824 Y37.926
X-4.318 Y37.813
X-4.809 Y37.686
X-5.297 Y37.546
X-5.78 Y37.391
X-6.259 Y37.224
X-6.733 Y37.043
X-7.201 Y36.849
X-7.665 Y36.642
X-8.122 Y36.422
X-8.573 Y36.19
X-9.017 Y35.945
X-9.455 Y35.688
X-9.885 Y35.419
X-10.307 Y35.139
X-10.722 Y34.846
X-11.127 Y34.542
X-11.525 Y34.226
X-11.913 Y33.899
X-12.291 Y33.561
X-12.411 Y33.448
X-12.487 Y33.362
X-12.548 Y33.264
X-12.59 Y33.157
X-12.891 Y32.168
G3 X-12.504 Y32.066 I0.193 J-0.051
X-12.524 Y32.217 I-0.193 J0.051
G1 X-12.55 Y32.262 Z-0.393
X-12.575 Y32.304 Z-0.373
X-12.595 Y32.34 Z-0.341
X-12.611 Y32.367 Z-0.3
X-12.621 Y32.384 Z-0.252
X-12.625 Y32.39 Z-0.2
Z0.
X12.78 Y31.249
Z-0.2
X12.782 Y31.256 Z-0.252
X12.787 Y31.275 Z-0.3
X12.794 Y31.306 Z-0.341
X12.805 Y31.346 Z-0.373
X12.816 Y31.393 Z-0.393
X12.829 Y31.443 Z-0.4
G3 X12.825 Y32.229 I-1.535 J0.385
G1 X12.533 Y33.202
X12.482 Y33.343
X12.418 Y33.479
X12.345 Y33.61
X12.252 Y33.752
X12.128 Y33.92
X11.972 Y34.109
X11.753 Y34.346
X11.446 Y34.643
X11.062 Y34.974
X10.661 Y35.285
X10.25 Y35.582
X9.829 Y35.866
X9.401 Y36.137
X8.965 Y36.397
X8.522 Y36.644
X8.072 Y36.879
X7.616 Y37.101
X7.154 Y37.311
X6.687 Y37.508
X6.214 Y37.691
X5.736 Y37.862
X5.254 Y38.018
X4.767 Y38.161
X4.276 Y38.29
X3.782 Y38.404
X3.285 Y38.505
X2.785 Y38.591
X2.283 Y38.663
X1.779 Y38.722
X1.273 Y38.766
X0.767 Y38.796
X0.26 Y38.812
X-0.247 Y38.813
X-0.754 Y38.801
X-1.261 Y38.775
X-1.767 Y38.735
X-2.271 Y38.681
X-2.774 Y38.614
X-3.275 Y38.533
X-3.773 Y38.438
X-4.269 Y38.329
X-4.761 Y38.207
X-5.25 Y38.071
X-5.735 Y37.923
X-6.215 Y37.761
X-6.692 Y37.586
X-7.163 Y37.398
X-7.629 Y37.198
X-8.089 Y36.985
X-8.544 Y36.76
X-8.992 Y36.522
X-9.434 Y36.273
X-9.869 Y36.011
X-10.296 Y35.738
X-10.716 Y35.454
X-11.128 Y35.157
X-11.532 Y34.85
X-11.926 Y34.532
X-12.093 Y34.39
X-12.176 Y34.304
X-12.243 Y34.206
X-12.291 Y34.096
X-12.436 Y33.664
X-12.59 Y33.157
G3 X-12.204 Y33.055 I0.193 J-0.051
X-12.224 Y33.206 I-0.193 J0.051
G1 X-12.25 Y33.251 Z-0.393
X-12.274 Y33.293 Z-0.373
X-12.295 Y33.329 Z-0.341
X-12.311 Y33.356 Z-0.3
X-12.321 Y33.374 Z-0.252
X-12.324 Y33.379 Z-0.2
Z0.
X12.489 Y32.223
Z-0.2
X12.49 Y32.23 Z-0.252
X12.495 Y32.249 Z-0.3
X12.503 Y32.28 Z-0.341
X12.513 Y32.32 Z-0.373
X12.525 Y32.367 Z-0.393
X12.537 Y32.417 Z-0.4
G3 X12.533 Y33.202 I-1.535 J0.385
G1 X12.461 Y33.433
X12.385 Y33.664
X12.233 Y34.125
X12.179 Y34.264
X12.112 Y34.399
X12.036 Y34.528
X11.942 Y34.663
X11.821 Y34.819
X11.67 Y34.992
X11.459 Y35.208
X11.166 Y35.475
X10.773 Y35.796
X10.362 Y36.094
X9.941 Y36.376
X9.51 Y36.645
X9.073 Y36.901
X8.628 Y37.145
X8.176 Y37.376
X7.719 Y37.596
X7.256 Y37.802
X6.787 Y37.997
X6.313 Y38.178
X5.835 Y38.346
X5.352 Y38.501
X4.865 Y38.643
X4.374 Y38.771
X3.879 Y38.885
X3.382 Y38.985
X2.882 Y39.072
X2.38 Y39.145
X1.877 Y39.204
X1.371 Y39.25
X0.865 Y39.282
X0.358 Y39.3
X-0.149 Y39.304
X-0.656 Y39.295
X-1.163 Y39.273
X-1.669 Y39.236
X-2.174 Y39.187
X-2.677 Y39.123
X-3.179 Y39.047
X-3.678 Y38.957
X-4.175 Y38.854
X-4.668 Y38.737
X-5.159 Y38.608
X-5.646 Y38.465
X-6.129 Y38.31
X-6.607 Y38.142
X-7.082 Y37.961
X-7.551 Y37.768
X-8.015 Y37.563
X-8.473 Y37.346
X-8.925 Y37.116
X-9.371 Y36.875
X-9.811 Y36.622
X-10.244 Y36.357
X-10.669 Y36.081
X-11.087 Y35.793
X-11.498 Y35.495
X-11.771 Y35.284
X-11.866 Y35.195
X-11.942 Y35.089
X-11.996 Y34.969
X-12.291 Y34.096
G3 X-11.908 Y33.982 I0.192 J-0.057
X-11.924 Y34.134 I-0.192 J0.057
G1 X-11.948 Y34.179 Z-0.393
X-11.971 Y34.222 Z-0.373
X-11.991 Y34.258 Z-0.341
X-12.006 Y34.286 Z-0.3
X-12.015 Y34.304 Z-0.252
X-12.019 Y34.31 Z-0.2
Z0.
X12.21 Y33.341
Z-0.2
X12.211 Y33.347 Z-0.252
X12.216 Y33.367 Z-0.3
X12.222 Y33.398 Z-0.341
X12.231 Y33.438 Z-0.373
X12.242 Y33.485 Z-0.393
X12.253 Y33.536 Z-0.4
G3 X12.233 Y34.125 I-1.159 J0.255
G1 X11.945 Y34.995
X11.89 Y35.134
X11.82 Y35.267
X11.74 Y35.394
X11.642 Y35.527
X11.519 Y35.675
X11.367 Y35.84
X11.157 Y36.042
X10.87 Y36.29
X10.484 Y36.586
X10.065 Y36.871
X9.635 Y37.14
X9.196 Y37.394
X8.75 Y37.635
X8.297 Y37.864
X7.839 Y38.081
X7.374 Y38.286
X6.905 Y38.478
X6.43 Y38.658
X5.951 Y38.825
X5.468 Y38.979
X4.981 Y39.12
X4.49 Y39.247
X3.996 Y39.361
X3.498 Y39.462
X2.999 Y39.55
X2.497 Y39.624
X1.993 Y39.685
X1.488 Y39.733
X0.982 Y39.767
X0.475 Y39.788
X-0.032 Y39.795
X-0.539 Y39.789
X-1.046 Y39.77
X-1.552 Y39.738
X-2.058 Y39.693
X-2.562 Y39.634
X-3.064 Y39.562
X-3.564 Y39.478
X-4.062 Y39.38
X-4.557 Y39.27
X-5.049 Y39.147
X-5.538 Y39.011
X-6.023 Y38.862
X-6.504 Y38.701
X-6.981 Y38.528
X-7.453 Y38.342
X-7.92 Y38.145
X-8.382 Y37.935
X-8.838 Y37.714
X-9.289 Y37.481
X-9.733 Y37.236
X-10.171 Y36.98
X-10.602 Y36.712
X-11.026 Y36.433
X-11.442 Y36.144
X-11.483 Y36.114
X-11.583 Y36.023
X-11.662 Y35.914
X-11.718 Y35.791
X-11.996 Y34.969
G3 X-11.613 Y34.855 I0.192 J-0.057
X-11.628 Y35.007 I-0.192 J0.057
G1 X-11.653 Y35.053 Z-0.393
X-11.676 Y35.095 Z-0.373
X-11.696 Y35.131 Z-0.341
X-11.711 Y35.159 Z-0.3
X-11.72 Y35.177 Z-0.252
X-11.723 Y35.183 Z-0.2
Z0.
X11.928 Y34.014
Z-0.2
X11.93 Y34.021 Z-0.252
X11.934 Y34.04 Z-0.3
X11.941 Y34.072 Z-0.341
X11.95 Y34.112 Z-0.373
X11.96 Y34.159 Z-0.393
X11.971 Y34.21 Z-0.4
G3 X11.945 Y34.995 I-1.546 J0.34
G1 X11.889 Y35.162
X11.772 Y35.508
X11.697 Y35.717
X11.666 Y35.802
X11.608 Y35.94
X11.538 Y36.073
X11.458 Y36.199
X11.367 Y36.32
X11.249 Y36.46
X11.112 Y36.605
X10.915 Y36.791
X10.673 Y36.995
X10.332 Y37.252
X9.91 Y37.533
X9.475 Y37.794
X9.031 Y38.039
X8.58 Y38.271
X8.122 Y38.49
X7.659 Y38.698
X7.191 Y38.892
X6.718 Y39.075
X6.24 Y39.245
X5.757 Y39.403
X5.271 Y39.548
X4.782 Y39.68
X4.288 Y39.799
X3.792 Y39.905
X3.294 Y39.998
X2.793 Y40.079
X2.29 Y40.146
X1.786 Y40.2
X1.28 Y40.241
X0.773 Y40.269
X0.266 Y40.284
X-0.241 Y40.286
X-0.748 Y40.276
X-1.255 Y40.252
X-1.761 Y40.215
X-2.266 Y40.166
X-2.769 Y40.103
X-3.271 Y40.028
X-3.77 Y39.94
X-4.268 Y39.839
X-4.762 Y39.726
X-5.254 Y39.601
X-5.742 Y39.463
X-6.226 Y39.313
X-6.707 Y39.151
X-7.183 Y38.976
X-7.655 Y38.79
X-8.122 Y38.592
X-8.584 Y38.383
X-9.041 Y38.162
X-9.492 Y37.929
X-9.936 Y37.685
X-10.375 Y37.43
X-10.807 Y37.164
X-11.162 Y36.932
X-11.272 Y36.843
X-11.36 Y36.733
X-11.423 Y36.606
X-11.532 Y36.314
X-11.658 Y35.969
X-11.718 Y35.791
G3 X-11.335 Y35.677 I0.192 J-0.057
X-11.351 Y35.829 I-0.192 J0.057
G1 X-11.375 Y35.874 Z-0.393
X-11.398 Y35.917 Z-0.373
X-11.418 Y35.953 Z-0.341
X-11.433 Y35.981 Z-0.3
X-11.442 Y35.999 Z-0.252
X-11.445 Y36.005 Z-0.2
Z0.
X11.678 Y34.821
Z-0.2
X11.679 Y34.828 Z-0.252
X11.683 Y34.848 Z-0.3
X11.689 Y34.879 Z-0.341
X11.697 Y34.919 Z-0.373
X11.706 Y34.967 Z-0.393
X11.715 Y35.018 Z-0.4
G3 X11.666 Y35.802 I-1.555 J0.296
G1 X11.373 Y36.608
X11.315 Y36.747
X11.242 Y36.878
X11.158 Y37.002
X11.065 Y37.119
X10.957 Y37.241
X10.804 Y37.395
X10.623 Y37.557
X10.366 Y37.764
X10.038 Y37.998
X9.609 Y38.268
X9.166 Y38.517
X8.715 Y38.749
X8.258 Y38.968
X7.794 Y39.174
X7.325 Y39.368
X6.852 Y39.549
X6.373 Y39.719
X5.891 Y39.876
X5.405 Y40.02
X4.915 Y40.152
X4.422 Y40.272
X3.926 Y40.379
X3.428 Y40.473
X2.927 Y40.555
X2.424 Y40.624
X1.92 Y40.68
X1.415 Y40.724
X0.909 Y40.754
X0.402 Y40.773
X-0.106 Y40.778
X-0.613 Y40.771
X-1.12 Y40.751
X-1.626 Y40.719
X-2.131 Y40.674
X-2.635 Y40.616
X-3.138 Y40.546
X-3.638 Y40.464
X-4.137 Y40.369
X-4.633 Y40.262
X-5.126 Y40.143
X-5.616 Y40.011
X-6.102 Y39.868
X-6.585 Y39.713
X-7.064 Y39.546
X-7.539 Y39.367
X-8.009 Y39.177
X-8.475 Y38.975
X-8.935 Y38.762
X-9.39 Y38.537
X-9.839 Y38.301
X-10.282 Y38.055
X-10.719 Y37.797
X-10.865 Y37.706
X-10.979 Y37.616
X-11.071 Y37.503
X-11.137 Y37.373
X-11.423 Y36.606
Z0.
X11.385 Y35.628
Z-0.2
X11.386 Y35.635 Z-0.252
X11.39 Y35.654 Z-0.3
X11.396 Y35.686 Z-0.341
X11.404 Y35.726 Z-0.373
X11.413 Y35.774 Z-0.393
X11.422 Y35.824 Z-0.4
G3 X11.373 Y36.608 I-1.555 J0.296
G1 X11.103 Y37.352
X11.045 Y37.49
X10.972 Y37.621
X10.886 Y37.744
X10.792 Y37.861
X10.689 Y37.974
X10.546 Y38.115
X10.367 Y38.272
X10.133 Y38.455
X9.831 Y38.665
X9.403 Y38.928
X8.957 Y39.169
X8.501 Y39.393
X8.039 Y39.601
X7.571 Y39.797
X7.098 Y39.981
X6.621 Y40.153
X6.139 Y40.312
X5.654 Y40.46
X5.165 Y40.595
X4.673 Y40.718
X4.178 Y40.829
X3.68 Y40.927
X3.18 Y41.013
X2.678 Y41.087
X2.174 Y41.148
X1.669 Y41.197
X1.164 Y41.233
X0.657 Y41.257
X0.15 Y41.269
X-0.358 Y41.268
X-0.865 Y41.255
X-1.371 Y41.23
X-1.877 Y41.192
X-2.382 Y41.142
X-2.886 Y41.08
X-3.387 Y41.006
X-3.887 Y40.919
X-4.385 Y40.821
X-4.88 Y40.71
X-5.372 Y40.588
X-5.861 Y40.453
X-6.347 Y40.307
X-6.829 Y40.15
X-7.308 Y39.981
X-7.782 Y39.8
X-8.252 Y39.609
X-8.716 Y39.406
X-9.176 Y39.191
X-9.631 Y38.966
X-10.08 Y38.73
X-10.523 Y38.483
X-10.584 Y38.446
X-10.701 Y38.356
X-10.795 Y38.242
X-10.862 Y38.109
X-11.137 Y37.373
Z0.
X11.115 Y36.371
Z-0.2
X11.116 Y36.378 Z-0.252
X11.12 Y36.398 Z-0.3
X11.126 Y36.429 Z-0.341
X11.134 Y36.47 Z-0.373
X11.143 Y36.517 Z-0.393
X11.152 Y36.568 Z-0.4
G3 X11.103 Y37.352 I-1.555 J0.296
G1 X11.061 Y37.467
X10.931 Y37.813
X10.841 Y38.043
X10.816 Y38.107
X10.754 Y38.243
X10.678 Y38.373
X10.59 Y38.494
X10.493 Y38.609
X10.379 Y38.727
X10.223 Y38.872
X10.053 Y39.013
X9.808 Y39.194
X9.497 Y39.398
X9.065 Y39.647
X8.612 Y39.875
X8.151 Y40.085
X7.683 Y40.281
X7.209 Y40.464
X6.732 Y40.634
X6.25 Y40.793
X5.764 Y40.939
X5.275 Y41.074
X4.783 Y41.197
X4.288 Y41.308
X3.79 Y41.406
X3.29 Y41.493
X2.789 Y41.567
X2.285 Y41.63
X1.78 Y41.68
X1.274 Y41.718
X0.768 Y41.745
X0.261 Y41.759
X-0.246 Y41.761
X-0.754 Y41.751
X-1.26 Y41.729
X-1.767 Y41.695
X-2.272 Y41.648
X-2.776 Y41.59
X-3.278 Y41.521
X-3.779 Y41.439
X-4.277 Y41.345
X-4.774 Y41.239
X-5.267 Y41.122
X-5.758 Y40.994
X-6.245 Y40.854
X-6.73 Y40.702
X-7.21 Y40.539
X-7.687 Y40.365
X-8.159 Y40.18
X-8.627 Y39.984
X-9.09 Y39.777
X-9.548 Y39.559
X-10.001 Y39.33
X-10.275 Y39.183
X-10.401 Y39.095
X-10.504 Y38.981
X-10.578 Y38.847
X-10.67 Y38.62
X-10.862 Y38.109
Z0.
X10.855 Y37.127
Z-0.2
X10.856 Y37.134 Z-0.252
X10.859 Y37.154 Z-0.3
X10.864 Y37.185 Z-0.341
X10.871 Y37.226 Z-0.373
X10.879 Y37.273 Z-0.393
X10.887 Y37.325 Z-0.4
G3 X10.816 Y38.107 I-1.562 J0.253
G1 X10.545 Y38.795
X10.483 Y38.931
X10.409 Y39.062
X10.322 Y39.184
X10.225 Y39.299
X10.122 Y39.407
X9.982 Y39.536
X9.814 Y39.675
X9.6 Y39.833
X9.324 Y40.013
X8.943 Y40.232
X8.49 Y40.46
X8.026 Y40.666
X7.556 Y40.856
X7.08 Y41.032
X6.6 Y41.196
X6.116 Y41.348
X5.629 Y41.488
X5.138 Y41.617
X4.644 Y41.734
X4.148 Y41.839
X3.649 Y41.932
X3.148 Y42.013
X2.646 Y42.083
X2.142 Y42.141
X1.637 Y42.187
X1.131 Y42.221
X0.624 Y42.243
X0.117 Y42.253
X-0.391 Y42.252
X-0.898 Y42.239
X-1.404 Y42.214
X-1.91 Y42.177
X-2.415 Y42.129
X-2.919 Y42.068
X-3.421 Y41.997
X-3.922 Y41.913
X-4.42 Y41.818
X-4.916 Y41.712
X-5.409 Y41.594
X-5.9 Y41.465
X-6.387 Y41.324
X-6.872 Y41.173
X-7.352 Y41.011
X-7.829 Y40.837
X-8.301 Y40.653
X-8.77 Y40.458
X-9.233 Y40.252
X-9.692 Y40.035
X-9.972 Y39.895
X-10.105 Y39.807
X-10.214 Y39.69
X-10.291 Y39.551
X-10.578 Y38.847
Z0.
X10.584 Y37.815
Z-0.2
X10.585 Y37.822 Z-0.252
X10.588 Y37.841 Z-0.3
X10.593 Y37.873 Z-0.341
X10.6 Y37.914 Z-0.373
X10.607 Y37.961 Z-0.393
X10.616 Y38.012 Z-0.4
G3 X10.545 Y38.795 I-1.562 J0.253
G1 X10.27 Y39.49
X10.208 Y39.626
X10.133 Y39.756
X10.044 Y39.877
X9.946 Y39.991
X9.836 Y40.101
X9.7 Y40.223
X9.537 Y40.353
X9.314 Y40.511
X9.044 Y40.681
X8.679 Y40.882
X8.222 Y41.102
X7.755 Y41.299
X7.281 Y41.479
X6.801 Y41.646
X6.318 Y41.8
X5.831 Y41.942
X5.341 Y42.073
X4.848 Y42.191
X4.352 Y42.299
X3.854 Y42.395
X3.354 Y42.479
X2.852 Y42.552
X2.348 Y42.613
X1.843 Y42.663
X1.337 Y42.701
X0.831 Y42.728
X0.324 Y42.743
X-0.184 Y42.746
X-0.691 Y42.738
X-1.198 Y42.718
X-1.704 Y42.687
X-2.21 Y42.644
X-2.714 Y42.59
X-3.217 Y42.525
X-3.718 Y42.448
X-4.218 Y42.36
X-4.715 Y42.26
X-5.211 Y42.15
X-5.703 Y42.028
X-6.193 Y41.895
X-6.679 Y41.751
X-7.162 Y41.597
X-7.642 Y41.431
X-8.117 Y41.255
X-8.589 Y41.068
X-9.056 Y40.871
X-9.519 Y40.663
X-9.687 Y40.581
X-9.823 Y40.493
X-9.934 Y40.375
X-10.013 Y40.233
X-10.291 Y39.551
Z0.
X10.309 Y38.51
Z-0.2
X10.31 Y38.517 Z-0.252
X10.313 Y38.537 Z-0.3
X10.318 Y38.568 Z-0.341
X10.325 Y38.609 Z-0.373
X10.333 Y38.656 Z-0.393
X10.341 Y38.708 Z-0.4
G3 X10.27 Y39.49 I-1.562 J0.253
G1 X10.021 Y40.118
X9.995 Y40.181
X9.931 Y40.317
X9.853 Y40.445
X9.761 Y40.564
X9.661 Y40.675
X9.546 Y40.785
X9.411 Y40.901
X9.243 Y41.03
X9.021 Y41.181
X8.745 Y41.346
X8.383 Y41.537
X7.921 Y41.747
X7.45 Y41.934
X6.972 Y42.104
X6.489 Y42.26
X6.002 Y42.404
X5.513 Y42.536
X5.02 Y42.656
X4.524 Y42.765
X4.027 Y42.863
X3.527 Y42.95
X3.025 Y43.025
X2.522 Y43.089
X2.017 Y43.141
X1.512 Y43.183
X1.005 Y43.212
X0.498 Y43.231
X-0.009 Y43.238
X-0.516 Y43.234
X-1.023 Y43.219
X-1.53 Y43.192
X-2.036 Y43.155
X-2.541 Y43.106
X-3.044 Y43.045
X-3.547 Y42.974
X-4.047 Y42.892
X-4.546 Y42.798
X-5.042 Y42.694
X-5.536 Y42.578
X-6.028 Y42.452
X-6.516 Y42.315
X-7.001 Y42.167
X-7.483 Y42.009
X-7.961 Y41.84
X-8.436 Y41.661
X-8.906 Y41.471
X-9.364 Y41.274
X-9.421 Y41.246
X-9.554 Y41.158
X-9.663 Y41.04
X-9.741 Y40.901
X-10.013 Y40.233
Z0.
X10.049 Y39.202
Z-0.2
X10.05 Y39.209 Z-0.252
X10.053 Y39.229 Z-0.3
X10.057 Y39.26 Z-0.341
X10.063 Y39.301 Z-0.373
X10.07 Y39.349 Z-0.393
X10.078 Y39.4 Z-0.4
G3 X9.995 Y40.181 I-1.566 J0.229
G1 X9.875 Y40.464
X9.701 Y40.873
X9.636 Y41.008
X9.554 Y41.134
X9.46 Y41.25
X9.357 Y41.359
X9.238 Y41.468
X9.101 Y41.58
X8.926 Y41.707
X8.701 Y41.852
X8.415 Y42.014
X8.048 Y42.196
X7.581 Y42.396
X7.105 Y42.571
X6.623 Y42.73
X6.137 Y42.876
X5.648 Y43.008
X5.155 Y43.13
X4.66 Y43.239
X4.162 Y43.338
X3.663 Y43.426
X3.161 Y43.503
X2.658 Y43.568
X2.154 Y43.623
X1.648 Y43.666
X1.142 Y43.698
X0.635 Y43.719
X0.128 Y43.73
X-0.379 Y43.729
X-0.886 Y43.717
X-1.393 Y43.694
X-1.899 Y43.66
X-2.404 Y43.615
X-2.909 Y43.559
X-3.412 Y43.492
X-3.913 Y43.414
X-4.412 Y43.326
X-4.91 Y43.226
X-5.405 Y43.116
X-5.898 Y42.996
X-6.388 Y42.865
X-6.875 Y42.723
X-7.359 Y42.57
X-7.839 Y42.408
X-8.316 Y42.235
X-8.789 Y42.051
X-9.095 Y41.925
X-9.138 Y41.904
X-9.271 Y41.82
X-9.38 Y41.707
X-9.46 Y41.571
X-9.541 Y41.386
X-9.59 Y41.271
X-9.741 Y40.901
Z0.
X9.743 Y40.09
Z-0.2
X9.744 Y40.096 Z-0.252
X9.747 Y40.116 Z-0.3
X9.751 Y40.148 Z-0.341
X9.757 Y40.189 Z-0.373
X9.763 Y40.237 Z-0.393
X9.77 Y40.288 Z-0.4
G3 X9.701 Y40.873 I-1.176 J0.159
G1 X9.434 Y41.501
X9.369 Y41.636
X9.289 Y41.763
X9.196 Y41.88
X9.092 Y41.989
X8.982 Y42.091
X8.841 Y42.206
X8.687 Y42.318
X8.464 Y42.461
X8.219 Y42.599
X7.872 Y42.771
X7.405 Y42.969
X6.928 Y43.141
X6.445 Y43.295
X5.957 Y43.434
X5.466 Y43.561
X4.971 Y43.676
X4.475 Y43.78
X3.976 Y43.872
X3.476 Y43.954
X2.973 Y44.025
X2.47 Y44.086
X1.965 Y44.135
X1.459 Y44.173
X0.952 Y44.201
X0.445 Y44.218
X-0.062 Y44.224
X-0.569 Y44.219
X-1.076 Y44.203
X-1.583 Y44.177
X-2.089 Y44.139
X-2.594 Y44.091
X-3.098 Y44.032
X-3.6 Y43.963
X-4.101 Y43.883
X-4.6 Y43.792
X-5.097 Y43.691
X-5.592 Y43.579
X-6.084 Y43.457
X-6.574 Y43.324
X-7.061 Y43.181
X-7.544 Y43.028
X-8.025 Y42.865
X-8.501 Y42.691
X-8.798 Y42.576
X-8.841 Y42.557
X-8.978 Y42.473
X-9.092 Y42.358
X-9.175 Y42.219
X-9.46 Y41.571
G3 X-9.088 Y41.424 I0.186 J-0.074
X-9.09 Y41.577 I-0.186 J0.074
G1 X-9.111 Y41.624 Z-0.393
X-9.13 Y41.668 Z-0.373
X-9.146 Y41.707 Z-0.341
X-9.159 Y41.736 Z-0.3
X-9.167 Y41.754 Z-0.252
X-9.169 Y41.76 Z-0.2
Z0.
X9.499 Y40.523
Z-0.2
X9.5 Y40.53 Z-0.252
X9.502 Y40.549 Z-0.3
X9.507 Y40.581 Z-0.341
X9.512 Y40.622 Z-0.373
X9.519 Y40.67 Z-0.393
X9.526 Y40.721 Z-0.4
G3 X9.434 Y41.501 I-1.568 J0.212
G1 X9.162 Y42.142
X9.096 Y42.277
X9.015 Y42.403
X8.92 Y42.519
X8.815 Y42.627
X8.701 Y42.729
X8.572 Y42.83
X8.406 Y42.948
X8.192 Y43.081
X7.939 Y43.22
X7.607 Y43.378
X7.151 Y43.565
X6.672 Y43.73
X6.186 Y43.877
X5.696 Y44.008
X5.203 Y44.127
X4.707 Y44.235
X4.209 Y44.331
X3.709 Y44.416
X3.207 Y44.491
X2.704 Y44.555
X2.199 Y44.608
X1.694 Y44.651
X1.188 Y44.683
X0.681 Y44.704
X0.174 Y44.715
X-0.334 Y44.716
X-0.841 Y44.705
X-1.348 Y44.684
X-1.854 Y44.653
X-2.36 Y44.61
X-2.864 Y44.558
X-3.367 Y44.494
X-3.869 Y44.421
X-4.37 Y44.337
X-4.868 Y44.242
X-5.364 Y44.138
X-5.858 Y44.023
X-6.35 Y43.897
X-6.839 Y43.762
X-7.325 Y43.616
X-7.808 Y43.461
X-8.287 Y43.295
X-8.529 Y43.204
X-8.555 Y43.192
X-8.696 Y43.108
X-8.812 Y42.992
X-8.896 Y42.852
X-9.175 Y42.219
G3 X-8.803 Y42.07 I0.186 J-0.074
X-8.805 Y42.223 I-0.186 J0.074
G1 X-8.826 Y42.271 Z-0.393
X-8.845 Y42.315 Z-0.373
X-8.861 Y42.353 Z-0.341
X-8.873 Y42.383 Z-0.3
X-8.881 Y42.401 Z-0.252
X-8.884 Y42.407 Z-0.2
Z0.
X9.226 Y41.164
Z-0.2
X9.227 Y41.17 Z-0.252
X9.23 Y41.19 Z-0.3
X9.234 Y41.222 Z-0.341
X9.24 Y41.263 Z-0.373
X9.246 Y41.31 Z-0.393
X9.253 Y41.362 Z-0.4
G3 X9.162 Y42.142 I-1.568 J0.212
G1 X8.993 Y42.538
X8.893 Y42.769
X8.826 Y42.903
X8.743 Y43.028
X8.647 Y43.143
X8.541 Y43.25
X8.427 Y43.35
X8.3 Y43.448
X8.135 Y43.562
X7.926 Y43.689
X7.675 Y43.823
X7.351 Y43.973
X6.91 Y44.148
X6.429 Y44.308
X5.941 Y44.448
X5.449 Y44.573
X4.954 Y44.685
X4.457 Y44.785
X3.958 Y44.874
X3.457 Y44.953
X2.954 Y45.021
X2.45 Y45.078
X1.945 Y45.125
X1.439 Y45.162
X0.932 Y45.188
X0.425 Y45.204
X-0.082 Y45.21
X-0.589 Y45.205
X-1.096 Y45.19
X-1.603 Y45.164
X-2.109 Y45.128
X-2.614 Y45.081
X-3.118 Y45.025
X-3.621 Y44.958
X-4.123 Y44.88
X-4.622 Y44.793
X-5.12 Y44.695
X-5.616 Y44.587
X-6.109 Y44.469
X-6.6 Y44.341
X-7.088 Y44.203
X-7.573 Y44.055
X-8.056 Y43.898
X-8.278 Y43.815
X-8.42 Y43.731
X-8.537 Y43.614
X-8.622 Y43.473
X-8.896 Y42.852
G3 X-8.524 Y42.703 I0.186 J-0.074
X-8.526 Y42.856 I-0.186 J0.074
G1 X-8.547 Y42.904 Z-0.393
X-8.566 Y42.948 Z-0.373
X-8.582 Y42.986 Z-0.341
X-8.594 Y43.015 Z-0.3
X-8.602 Y43.034 Z-0.252
X-8.605 Y43.04 Z-0.2
Z0.
X8.966 Y41.791
Z-0.2
X8.967 Y41.798 Z-0.252
X8.97 Y41.818 Z-0.3
X8.973 Y41.849 Z-0.341
X8.979 Y41.89 Z-0.373
X8.985 Y41.938 Z-0.393
X8.991 Y41.99 Z-0.4
G3 X8.893 Y42.769 I-1.57 J0.197
G1 X8.842 Y42.884
X8.607 Y43.402
X8.538 Y43.535
X8.453 Y43.659
X8.355 Y43.773
X8.248 Y43.877
X8.131 Y43.976
X8.006 Y44.07
X7.833 Y44.184
X7.633 Y44.302
X7.37 Y44.437
X7.052 Y44.578
X6.61 Y44.745
X6.126 Y44.897
X5.636 Y45.029
X5.143 Y45.145
X4.646 Y45.249
X4.147 Y45.341
X3.646 Y45.422
X3.144 Y45.493
X2.64 Y45.553
X2.136 Y45.604
X1.63 Y45.643
X1.124 Y45.673
X0.617 Y45.693
X0.109 Y45.702
X-0.398 Y45.701
X-0.905 Y45.69
X-1.412 Y45.668
X-1.918 Y45.637
X-2.424 Y45.595
X-2.928 Y45.544
X-3.432 Y45.482
X-3.934 Y45.41
X-4.435 Y45.328
X-4.934 Y45.236
X-5.43 Y45.134
X-5.925 Y45.022
X-6.418 Y44.9
X-6.908 Y44.769
X-7.395 Y44.627
X-7.839 Y44.489
X-7.977 Y44.437
X-8.133 Y44.354
X-8.261 Y44.233
X-8.353 Y44.083
X-8.622 Y43.473
G3 X-8.25 Y43.324 I0.186 J-0.074
X-8.252 Y43.477 I-0.186 J0.074
G1 X-8.273 Y43.525 Z-0.393
X-8.292 Y43.569 Z-0.373
X-8.308 Y43.607 Z-0.341
X-8.321 Y43.637 Z-0.3
X-8.328 Y43.655 Z-0.252
X-8.331 Y43.661 Z-0.2
Z0.
X8.695 Y42.426
Z-0.2
X8.696 Y42.432 Z-0.252
X8.698 Y42.452 Z-0.3
X8.701 Y42.484 Z-0.341
X8.706 Y42.525 Z-0.373
X8.711 Y42.573 Z-0.393
X8.717 Y42.624 Z-0.4
G3 X8.607 Y43.402 I-1.573 J0.174
G1 X8.335 Y44.
X8.266 Y44.134
X8.182 Y44.258
X8.084 Y44.371
X7.976 Y44.476
X7.861 Y44.572
X7.737 Y44.664
X7.574 Y44.771
X7.372 Y44.888
X7.129 Y45.011
X6.817 Y45.148
X6.397 Y45.304
X5.913 Y45.453
X5.422 Y45.581
X4.927 Y45.692
X4.429 Y45.79
X3.929 Y45.876
X3.428 Y45.952
X2.924 Y46.017
X2.42 Y46.072
X1.915 Y46.117
X1.409 Y46.152
X0.902 Y46.177
X0.395 Y46.191
X-0.112 Y46.196
X-0.62 Y46.191
X-1.127 Y46.176
X-1.633 Y46.151
X-2.139 Y46.116
X-2.645 Y46.07
X-3.149 Y46.015
X-3.652 Y45.95
X-4.154 Y45.875
X-4.654 Y45.791
X-5.152 Y45.696
X-5.649 Y45.592
X-6.143 Y45.478
X-6.635 Y45.354
X-7.124 Y45.221
X-7.539 Y45.099
X-7.69 Y45.045
X-7.845 Y44.965
X-7.975 Y44.848
X-8.069 Y44.702
X-8.22 Y44.382
X-8.353 Y44.083
G3 X-7.982 Y43.934 I0.186 J-0.074
X-7.983 Y44.087 I-0.186 J0.074
G1 X-8.004 Y44.134 Z-0.393
X-8.023 Y44.179 Z-0.373
X-8.039 Y44.217 Z-0.341
X-8.051 Y44.246 Z-0.3
X-8.059 Y44.264 Z-0.252
X-8.062 Y44.271 Z-0.2
Z0.
X8.423 Y43.024
Z-0.2
X8.424 Y43.031 Z-0.252
X8.426 Y43.051 Z-0.3
X8.43 Y43.082 Z-0.341
X8.434 Y43.123 Z-0.373
X8.439 Y43.171 Z-0.393
X8.445 Y43.223 Z-0.4
G3 X8.335 Y44. I-1.573 J0.174
G1 X8.056 Y44.613
X7.988 Y44.746
X7.901 Y44.869
X7.8 Y44.98
X7.691 Y45.082
X7.574 Y45.176
X7.447 Y45.267
X7.272 Y45.378
X7.081 Y45.484
X6.814 Y45.614
X6.512 Y45.74
X6.089 Y45.889
X5.602 Y46.031
X5.109 Y46.15
X4.612 Y46.254
X4.113 Y46.344
X3.612 Y46.423
X3.109 Y46.491
X2.605 Y46.549
X2.1 Y46.596
X1.594 Y46.634
X1.087 Y46.662
X0.581 Y46.68
X0.073 Y46.689
X-0.434 Y46.687
X-0.941 Y46.676
X-1.448 Y46.655
X-1.954 Y46.624
X-2.46 Y46.583
X-2.965 Y46.533
X-3.468 Y46.473
X-3.971 Y46.403
X-4.472 Y46.323
X-4.971 Y46.234
X-5.469 Y46.135
X-5.964 Y46.027
X-6.458 Y45.909
X-6.949 Y45.782
X-7.279 Y45.687
X-7.403 Y45.645
X-7.56 Y45.565
X-7.691 Y45.448
X-7.787 Y45.3
X-8.069 Y44.702
G3 X-7.702 Y44.544 I0.184 J-0.079
X-7.7 Y44.697 I-0.184 J0.079
G1 X-7.719 Y44.745 Z-0.393
X-7.737 Y44.79 Z-0.373
X-7.752 Y44.828 Z-0.341
X-7.764 Y44.858 Z-0.3
X-7.771 Y44.876 Z-0.252
X-7.774 Y44.882 Z-0.2
Z0.
X8.145 Y43.637
Z-0.2
Y43.643 Z-0.252
X8.148 Y43.663 Z-0.3
X8.151 Y43.695 Z-0.341
X8.156 Y43.736 Z-0.373
X8.161 Y43.784 Z-0.393
X8.167 Y43.835 Z-0.4
G3 X8.056 Y44.613 I-1.573 J0.174
G1 X7.795 Y45.189
X7.726 Y45.323
X7.64 Y45.445
X7.54 Y45.557
X7.43 Y45.66
X7.313 Y45.754
X7.189 Y45.842
X7.027 Y45.944
X6.831 Y46.052
X6.589 Y46.169
X6.287 Y46.294
X5.884 Y46.435
X5.397 Y46.575
X4.903 Y46.691
X4.405 Y46.79
X3.905 Y46.875
X3.403 Y46.949
X2.9 Y47.012
X2.395 Y47.065
X1.89 Y47.108
X1.384 Y47.142
X0.877 Y47.165
X0.37 Y47.179
X-0.137 Y47.183
X-0.645 Y47.178
X-1.152 Y47.163
X-1.658 Y47.138
X-2.164 Y47.104
X-2.67 Y47.06
X-3.174 Y47.007
X-3.678 Y46.944
X-4.18 Y46.871
X-4.68 Y46.789
X-5.179 Y46.697
X-5.676 Y46.596
X-6.171 Y46.486
X-6.664 Y46.366
X-6.979 Y46.282
X-7.115 Y46.237
X-7.277 Y46.158
X-7.411 Y46.039
X-7.509 Y45.888
X-7.787 Y45.3
G3 X-7.42 Y45.141 I0.184 J-0.079
X-7.417 Y45.294 I-0.184 J0.079
G1 X-7.437 Y45.343 Z-0.393
X-7.454 Y45.387 Z-0.373
X-7.47 Y45.426 Z-0.341
X-7.481 Y45.455 Z-0.3
X-7.489 Y45.474 Z-0.252
X-7.491 Y45.48 Z-0.2
Z0.
X7.883 Y44.213
Z-0.2
X7.884 Y44.22 Z-0.252
X7.886 Y44.24 Z-0.3
X7.889 Y44.271 Z-0.341
X7.894 Y44.312 Z-0.373
X7.899 Y44.36 Z-0.393
X7.905 Y44.412 Z-0.4
G3 X7.795 Y45.189 I-1.573 J0.174
G1 X7.637 Y45.535
X7.51 Y45.8
X7.439 Y45.932
X7.349 Y46.052
X7.245 Y46.161
X7.133 Y46.261
X7.014 Y46.352
X6.882 Y46.442
X6.703 Y46.549
X6.513 Y46.648
X6.242 Y46.771
X5.939 Y46.889
X5.522 Y47.025
X5.031 Y47.154
X4.535 Y47.26
X4.036 Y47.35
X3.534 Y47.427
X3.031 Y47.492
X2.527 Y47.547
X2.022 Y47.592
X1.516 Y47.628
X1.009 Y47.653
X0.502 Y47.67
X-0.005 Y47.676
X-0.513 Y47.674
X-1.02 Y47.661
X-1.527 Y47.64
X-2.033 Y47.609
X-2.539 Y47.568
X-3.043 Y47.518
X-3.547 Y47.458
X-4.05 Y47.39
X-4.551 Y47.311
X-5.051 Y47.224
X-5.549 Y47.127
X-6.045 Y47.021
X-6.539 Y46.906
X-6.772 Y46.841
X-6.845 Y46.816
X-7.004 Y46.737
X-7.137 Y46.619
X-7.234 Y46.47
X-7.509 Y45.888
G3 X-7.141 Y45.73 I0.184 J-0.079
X-7.139 Y45.883 I-0.184 J0.079
G1 X-7.158 Y45.931 Z-0.393
X-7.176 Y45.976 Z-0.373
X-7.192 Y46.015 Z-0.341
X-7.203 Y46.044 Z-0.3
X-7.211 Y46.063 Z-0.252
X-7.213 Y46.069 Z-0.2
Z0.
X7.62 Y44.826
Z-0.2
X7.621 Y44.833 Z-0.252
X7.623 Y44.853 Z-0.3
X7.625 Y44.885 Z-0.341
X7.629 Y44.926 Z-0.373
X7.633 Y44.974 Z-0.393
X7.638 Y45.025 Z-0.4
G3 X7.51 Y45.8 I-1.576 J0.139
G1 X7.235 Y46.371
X7.163 Y46.503
X7.074 Y46.623
X6.971 Y46.732
X6.859 Y46.832
X6.74 Y46.923
X6.613 Y47.008
X6.448 Y47.106
X6.252 Y47.208
X6.007 Y47.319
X5.705 Y47.435
X5.303 Y47.564
X4.812 Y47.692
X4.316 Y47.795
X3.816 Y47.88
X3.314 Y47.953
X2.81 Y48.013
X2.305 Y48.063
X1.799 Y48.104
X1.293 Y48.135
X0.786 Y48.156
X0.279 Y48.168
X-0.228 Y48.17
X-0.735 Y48.164
X-1.242 Y48.148
X-1.749 Y48.122
